(G-CODE GENERATED BY FLATCAM v8.994 - www.flatcam.org - Version Date: 2020/11/7)

(Name: Alignment Drills_cnc)
(Type: G-code from Geometry)
(Units: MM)

(Created on mercredi, 02 mars 2022 at 20:06)

(This preprocessor is the default preprocessor used by FlatCAM.)
(It is made to work with MACH3 compatible motion controllers.)


(TOOLS DIAMETER: )
(Tool: 1 -> Dia: 3.0)

(FEEDRATE Z: )
(Tool: 1 -> Feedrate: 300)

(FEEDRATE RAPIDS: )
(Tool: 1 -> Feedrate Rapids: 1500)

(Z_CUT: )
(Tool: 1 -> Z_Cut: -1.4)

(Tools Offset: )
(Tool: 1 -> Offset Z: 0.0)

(Z_MOVE: )
(Tool: 1 -> Z_Move: 2.0)

(Z Toolchange: 8.0 mm)
(X,Y Toolchange: 0.0000, 0.0000 mm)
(Z Start: None mm)
(Z End: 8.0 mm)
(X,Y End: None mm)
(Steps per circle: 64)
(Preprocessor Excellon: default)

(X range:  -15.5000 ...   53.5000  mm)
(Y range:   -2.5519 ...   41.5000  mm)

(Spindle Speed: 0 RPM)
G21
G90
G94

G01 F300.00

M5
G00 Z8.0000
T1
G00 X0.0000 Y0.0000                
M6
(MSG, Change to Tool Dia = 3.0000 ||| Total drills for tool T1 = 4)
M0
G00 Z8.0000

G01 F300.00
M03
G00 X-14.0000 Y40.0000
G01 Z-1.4000
G01 Z0
G00 Z2.0000
G00 X-14.0000 Y-1.0519
G01 Z-1.4000
G01 Z0
G00 Z2.0000
G00 X52.0000 Y-1.0519
G01 Z-1.4000
G01 Z0
G00 Z2.0000
G00 X52.0000 Y40.0000
G01 Z-1.4000
G01 Z0
G00 Z2.0000
M05
G00 Z8.00


