(G-CODE GENERATED BY FLATCAM v8.994 - www.flatcam.org - Version Date: 2020/11/7)

(Name: pick_n_place_head-B_Cu.gbr_iso_combined_cnc)
(Type: G-code from Geometry)
(Units: MM)

(Created on samedi, 26 février 2022 at 19:42)

(This preprocessor is the default preprocessor used by FlatCAM.)
(It is made to work with MACH3 compatible motion controllers.)

(TOOL DIAMETER: 0.1929 mm)
(Feedrate_XY: 120.0 mm/min)
(Feedrate_Z: 120.0 mm/min)
(Feedrate rapids 1500.0 mm/min)

(Z_Cut: -0.0801 mm)
(Z_Move: 2.0 mm)
(Z Start: None mm)
(Z End: 15.0 mm)
(X,Y End: None mm)
(Steps per circle: 64)
(Preprocessor Geometry: default)

(X range:  -12.5879 ...   50.0006  mm)
(Y range:   -2.7149 ...   36.1894  mm)

(Spindle Speed: 1000.0 RPM)
G21
G90
G94

G01 F120.00

M5
G00 Z15.0000
G00 X0.0000 Y0.0000
T1
M6    
(MSG, Change to Tool Dia = 0.1929)
M0
G00 Z15.0000

M03 S1000.0
G01 F120.00
G00 X-8.7085 Y1.2520
G01 F120.00
G01 Z-0.0801
G01 F120.00
G01 X-8.7156 Y1.2523
G01 X-10.4180 Y1.2523
G01 X-10.4274 Y1.2516
G01 X-10.4368 Y1.2499
G01 X-10.4459 Y1.2474
G01 X-10.4547 Y1.2440
G01 X-10.4632 Y1.2398
G01 X-10.4712 Y1.2347
G01 X-10.4786 Y1.2289
G01 X-10.4855 Y1.2223
G01 X-10.4902 Y1.2170
G01 X-10.4958 Y1.2094
G01 X-10.5007 Y1.2013
G01 X-10.5047 Y1.1927
G01 X-10.5079 Y1.1838
G01 X-10.5097 Y1.1770
G01 X-10.5114 Y1.1676
G01 X-10.5121 Y1.1582
G01 X-10.5121 Y-0.5442
G01 X-10.5116 Y-0.5536
G01 X-10.5097 Y-0.5653
G01 X-10.5072 Y-0.5744
G01 X-10.5038 Y-0.5832
G01 X-10.4996 Y-0.5917
G01 X-10.4945 Y-0.5997
G01 X-10.4887 Y-0.6072
G01 X-10.4821 Y-0.6140
G01 X-10.4768 Y-0.6187
G01 X-10.4692 Y-0.6244
G01 X-10.4611 Y-0.6292
G01 X-10.4525 Y-0.6333
G01 X-10.4436 Y-0.6365
G01 X-10.4368 Y-0.6383
G01 X-10.4274 Y-0.6399
G01 X-10.4180 Y-0.6406
G01 X-8.7156 Y-0.6406
G01 X-8.7062 Y-0.6401
G01 X-8.6968 Y-0.6388
G01 X-8.6876 Y-0.6365
G01 X-8.6787 Y-0.6333
G01 X-8.6702 Y-0.6292
G01 X-8.6621 Y-0.6244
G01 X-8.6526 Y-0.6172
G01 X-8.6458 Y-0.6107
G01 X-8.6396 Y-0.6035
G01 X-8.6342 Y-0.5958
G01 X-8.6306 Y-0.5896
G01 X-8.6265 Y-0.5811
G01 X-8.6233 Y-0.5722
G01 X-8.6210 Y-0.5630
G01 X-8.6197 Y-0.5536
G01 X-8.6192 Y-0.5465
G01 X-8.6192 Y1.1582
G01 X-8.6199 Y1.1676
G01 X-8.6210 Y1.1747
G01 X-8.6233 Y1.1838
G01 X-8.6265 Y1.1927
G01 X-8.6295 Y1.1992
G01 X-8.6342 Y1.2074
G01 X-8.6396 Y1.2152
G01 X-8.6458 Y1.2223
G01 X-8.6526 Y1.2289
G01 X-8.6601 Y1.2347
G01 X-8.6681 Y1.2398
G01 X-8.6744 Y1.2430
G01 X-8.6831 Y1.2467
G01 X-8.6922 Y1.2494
G01 X-8.6992 Y1.2509
G01 X-8.7085 Y1.2520
G00 Z2.0000
G00 X-8.7007 Y1.3578
G01 F120.00
G01 Z-0.0801
G01 F120.00
G01 X-8.7156 Y1.3584
G01 X-10.4206 Y1.3583
G01 X-10.4404 Y1.3569
G01 X-10.4600 Y1.3535
G01 X-10.4792 Y1.3482
G01 X-10.4932 Y1.3430
G01 X-10.5022 Y1.3389
G01 X-10.5198 Y1.3296
G01 X-10.5363 Y1.3185
G01 X-10.5517 Y1.3059
G01 X-10.5657 Y1.2919
G01 X-10.5783 Y1.2765
G01 X-10.5868 Y1.2642
G01 X-10.5943 Y1.2513
G01 X-10.6028 Y1.2334
G01 X-10.6095 Y1.2146
G01 X-10.6143 Y1.1954
G01 X-10.6172 Y1.1757
G01 X-10.6181 Y1.1608
G01 X-10.6182 Y-0.5442
G01 X-10.6172 Y-0.5640
G01 X-10.6160 Y-0.5739
G01 X-10.6133 Y-0.5885
G01 X-10.6080 Y-0.6077
G01 X-10.6008 Y-0.6262
G01 X-10.5919 Y-0.6440
G01 X-10.5812 Y-0.6608
G01 X-10.5690 Y-0.6765
G01 X-10.5589 Y-0.6874
G01 X-10.5517 Y-0.6942
G01 X-10.5363 Y-0.7068
G01 X-10.5240 Y-0.7153
G01 X-10.5067 Y-0.7251
G01 X-10.4932 Y-0.7313
G01 X-10.4792 Y-0.7365
G01 X-10.4600 Y-0.7418
G01 X-10.4404 Y-0.7452
G01 X-10.4206 Y-0.7466
G01 X-8.7156 Y-0.7467
G01 X-8.6958 Y-0.7457
G01 X-8.6761 Y-0.7428
G01 X-8.6568 Y-0.7380
G01 X-8.6474 Y-0.7349
G01 X-8.6336 Y-0.7293
G01 X-8.6158 Y-0.7204
G01 X-8.5990 Y-0.7098
G01 X-8.5910 Y-0.7038
G01 X-8.5796 Y-0.6942
G01 X-8.5656 Y-0.6802
G01 X-8.5560 Y-0.6688
G01 X-8.5445 Y-0.6525
G01 X-8.5370 Y-0.6396
G01 X-8.5285 Y-0.6217
G01 X-8.5218 Y-0.6030
G01 X-8.5170 Y-0.5837
G01 X-8.5146 Y-0.5690
G01 X-8.5132 Y-0.5491
G01 X-8.5131 Y1.1558
G01 X-8.5136 Y1.1707
G01 X-8.5161 Y1.1905
G01 X-8.5204 Y1.2099
G01 X-8.5249 Y1.2241
G01 X-8.5325 Y1.2424
G01 X-8.5394 Y1.2557
G01 X-8.5500 Y1.2725
G01 X-8.5623 Y1.2881
G01 X-8.5724 Y1.2991
G01 X-8.5833 Y1.3092
G01 X-8.5990 Y1.3214
G01 X-8.6115 Y1.3296
G01 X-8.6290 Y1.3389
G01 X-8.6474 Y1.3465
G01 X-8.6664 Y1.3523
G01 X-8.6859 Y1.3562
G01 X-8.7007 Y1.3578
G00 Z2.0000
G00 X-8.8572 Y1.4645
G01 F120.00
G01 Z-0.0801
G01 F120.00
G01 X-8.8759 Y1.4852
G01 X-8.8901 Y1.5029
G01 X-8.9063 Y1.5253
G01 X-8.9208 Y1.5488
G01 X-8.9318 Y1.5687
G01 X-8.9436 Y1.5937
G01 X-8.9520 Y1.6148
G01 X-8.9610 Y1.6409
G01 X-8.9680 Y1.6676
G01 X-8.9727 Y1.6898
G01 X-8.9758 Y1.7096
G01 X-8.9776 Y1.7246
G01 X-8.9794 Y1.7522
G01 X-8.9796 Y1.7749
G01 X-8.9783 Y1.8025
G01 X-8.9758 Y1.8251
G01 X-8.9713 Y1.8524
G01 X-9.0128 Y1.8277
G01 X-9.0262 Y1.8205
G01 X-9.1153 Y1.7784
G01 X-9.1364 Y1.7699
G01 X-9.2149 Y1.7418
G01 X-9.2366 Y1.7350
G01 X-9.3248 Y1.7128
G01 X-9.3396 Y1.7095
G01 X-9.3545 Y1.7069
G01 X-9.4370 Y1.6946
G01 X-9.4521 Y1.6928
G01 X-9.4672 Y1.6917
G01 X-9.5505 Y1.6876
G01 X-9.5656 Y1.6872
G01 X-9.5808 Y1.6876
G01 X-9.6641 Y1.6917
G01 X-9.6792 Y1.6928
G01 X-9.6942 Y1.6946
G01 X-9.7768 Y1.7069
G01 X-9.7917 Y1.7095
G01 X-9.8065 Y1.7128
G01 X-9.8947 Y1.7350
G01 X-9.9164 Y1.7418
G01 X-9.9949 Y1.7699
G01 X-10.0160 Y1.7784
G01 X-10.1051 Y1.8205
G01 X-10.1185 Y1.8277
G01 X-10.1599 Y1.8524
G01 X-10.1555 Y1.8251
G01 X-10.1530 Y1.8025
G01 X-10.1516 Y1.7749
G01 X-10.1519 Y1.7522
G01 X-10.1537 Y1.7246
G01 X-10.1555 Y1.7096
G01 X-10.1585 Y1.6898
G01 X-10.1632 Y1.6676
G01 X-10.1703 Y1.6409
G01 X-10.1793 Y1.6148
G01 X-10.1877 Y1.5937
G01 X-10.1995 Y1.5687
G01 X-10.2105 Y1.5488
G01 X-10.2250 Y1.5253
G01 X-10.2411 Y1.5029
G01 X-10.2553 Y1.4852
G01 X-10.2741 Y1.4645
G01 X-8.8572 Y1.4645
G00 Z2.0000
G00 X-9.4705 Y3.7875
G01 F120.00
G01 Z-0.0801
G01 F120.00
G01 X-9.4776 Y3.7881
G01 X-9.5656 Y3.7923
G01 X-9.6584 Y3.7877
G01 X-9.7503 Y3.7741
G01 X-9.8404 Y3.7515
G01 X-9.9278 Y3.7202
G01 X-10.0118 Y3.6805
G01 X-10.0915 Y3.6328
G01 X-10.1661 Y3.5775
G01 X-10.2349 Y3.5151
G01 X-10.2973 Y3.4463
G01 X-10.3526 Y3.3717
G01 X-10.4003 Y3.2920
G01 X-10.4400 Y3.2080
G01 X-10.4713 Y3.1206
G01 X-10.4939 Y3.0305
G01 X-10.5075 Y2.9386
G01 X-10.5121 Y2.8458
G01 X-10.5075 Y2.7531
G01 X-10.4939 Y2.6612
G01 X-10.4713 Y2.5711
G01 X-10.4400 Y2.4836
G01 X-10.4003 Y2.3997
G01 X-10.3526 Y2.3200
G01 X-10.2973 Y2.2454
G01 X-10.2349 Y2.1766
G01 X-10.1661 Y2.1142
G01 X-10.0915 Y2.0589
G01 X-10.0118 Y2.0111
G01 X-9.9278 Y1.9714
G01 X-9.8404 Y1.9401
G01 X-9.7503 Y1.9176
G01 X-9.6584 Y1.9039
G01 X-9.5656 Y1.8994
G01 X-9.4729 Y1.9039
G01 X-9.3810 Y1.9176
G01 X-9.2909 Y1.9401
G01 X-9.2034 Y1.9714
G01 X-9.1195 Y2.0111
G01 X-9.0398 Y2.0589
G01 X-8.9652 Y2.1142
G01 X-8.8964 Y2.1766
G01 X-8.8340 Y2.2454
G01 X-8.7787 Y2.3200
G01 X-8.7309 Y2.3997
G01 X-8.6912 Y2.4836
G01 X-8.6599 Y2.5711
G01 X-8.6374 Y2.6612
G01 X-8.6237 Y2.7531
G01 X-8.6192 Y2.8458
G01 X-8.6237 Y2.9386
G01 X-8.6374 Y3.0305
G01 X-8.6599 Y3.1206
G01 X-8.6912 Y3.2080
G01 X-8.7309 Y3.2920
G01 X-8.7787 Y3.3717
G01 X-8.8340 Y3.4463
G01 X-8.8964 Y3.5151
G01 X-8.9652 Y3.5775
G01 X-9.0398 Y3.6328
G01 X-9.1195 Y3.6805
G01 X-9.2034 Y3.7202
G01 X-9.2909 Y3.7515
G01 X-9.3810 Y3.7741
G01 X-9.4705 Y3.7875
G00 Z2.0000
G00 X-9.4575 Y3.8928
G01 F120.00
G01 Z-0.0801
G01 F120.00
G01 X-9.4724 Y3.8940
G01 X-9.5656 Y3.8984
G01 X-9.6688 Y3.8933
G01 X-9.7710 Y3.8782
G01 X-9.8712 Y3.8531
G01 X-9.9684 Y3.8183
G01 X-10.0618 Y3.7741
G01 X-10.1504 Y3.7210
G01 X-10.2334 Y3.6595
G01 X-10.3099 Y3.5901
G01 X-10.3793 Y3.5136
G01 X-10.4408 Y3.4306
G01 X-10.4939 Y3.3420
G01 X-10.5381 Y3.2486
G01 X-10.5729 Y3.1514
G01 X-10.5980 Y3.0512
G01 X-10.6131 Y2.9490
G01 X-10.6182 Y2.8458
G01 X-10.6131 Y2.7427
G01 X-10.5980 Y2.6405
G01 X-10.5729 Y2.5403
G01 X-10.5381 Y2.4430
G01 X-10.4939 Y2.3497
G01 X-10.4408 Y2.2611
G01 X-10.3793 Y2.1781
G01 X-10.3099 Y2.1016
G01 X-10.2334 Y2.0322
G01 X-10.1504 Y1.9707
G01 X-10.0618 Y1.9176
G01 X-9.9684 Y1.8734
G01 X-9.8712 Y1.8386
G01 X-9.7710 Y1.8135
G01 X-9.6688 Y1.7984
G01 X-9.5656 Y1.7933
G01 X-9.4625 Y1.7984
G01 X-9.3603 Y1.8135
G01 X-9.2601 Y1.8386
G01 X-9.1628 Y1.8734
G01 X-9.0695 Y1.9176
G01 X-8.9809 Y1.9707
G01 X-8.8979 Y2.0322
G01 X-8.8214 Y2.1016
G01 X-8.7520 Y2.1781
G01 X-8.6905 Y2.2611
G01 X-8.6374 Y2.3497
G01 X-8.5932 Y2.4430
G01 X-8.5584 Y2.5403
G01 X-8.5333 Y2.6405
G01 X-8.5182 Y2.7427
G01 X-8.5131 Y2.8458
G01 X-8.5182 Y2.9490
G01 X-8.5333 Y3.0512
G01 X-8.5584 Y3.1514
G01 X-8.5932 Y3.2486
G01 X-8.6374 Y3.3420
G01 X-8.6905 Y3.4306
G01 X-8.7520 Y3.5136
G01 X-8.8214 Y3.5901
G01 X-8.8979 Y3.6595
G01 X-8.9809 Y3.7210
G01 X-9.0695 Y3.7741
G01 X-9.1628 Y3.8183
G01 X-9.2601 Y3.8531
G01 X-9.3603 Y3.8782
G01 X-9.4575 Y3.8928
G00 Z2.0000
G00 X-9.4445 Y3.9981
G01 F120.00
G01 Z-0.0801
G01 F120.00
G01 X-9.3545 Y3.9848
G01 X-9.3322 Y3.9806
G01 X-9.2366 Y3.9567
G01 X-9.2221 Y3.9523
G01 X-9.1929 Y3.9419
G01 X-9.2014 Y3.9632
G01 X-9.2103 Y3.9894
G01 X-9.2144 Y4.0040
G01 X-9.2207 Y4.0308
G01 X-9.2252 Y4.0581
G01 X-9.2270 Y4.0731
G01 X-9.2281 Y4.0882
G01 X-9.2291 Y4.1158
G01 X-9.2287 Y4.1310
G01 X-9.2270 Y4.1585
G01 X-9.2233 Y4.1859
G01 X-9.2207 Y4.2008
G01 X-9.2144 Y4.2277
G01 X-9.2103 Y4.2423
G01 X-9.2014 Y4.2684
G01 X-9.1929 Y4.2897
G01 X-9.2221 Y4.2794
G01 X-9.2366 Y4.2750
G01 X-9.3248 Y4.2528
G01 X-9.3470 Y4.2481
G01 X-9.4370 Y4.2346
G01 X-9.4521 Y4.2328
G01 X-9.4672 Y4.2317
G01 X-9.5505 Y4.2276
G01 X-9.5656 Y4.2272
G01 X-9.5808 Y4.2276
G01 X-9.6641 Y4.2317
G01 X-9.6792 Y4.2328
G01 X-9.6942 Y4.2346
G01 X-9.7842 Y4.2481
G01 X-9.8065 Y4.2528
G01 X-9.8947 Y4.2750
G01 X-9.9092 Y4.2794
G01 X-9.9384 Y4.2897
G01 X-9.9299 Y4.2684
G01 X-9.9209 Y4.2423
G01 X-9.9169 Y4.2277
G01 X-9.9105 Y4.2008
G01 X-9.9061 Y4.1736
G01 X-9.9043 Y4.1585
G01 X-9.9032 Y4.1434
G01 X-9.9022 Y4.1158
G01 X-9.9032 Y4.0882
G01 X-9.9043 Y4.0731
G01 X-9.9061 Y4.0581
G01 X-9.9105 Y4.0308
G01 X-9.9139 Y4.0161
G01 X-9.9209 Y3.9894
G01 X-9.9299 Y3.9632
G01 X-9.9384 Y3.9419
G01 X-9.9092 Y3.9523
G01 X-9.8947 Y3.9567
G01 X-9.7991 Y3.9806
G01 X-9.7768 Y3.9848
G01 X-9.6867 Y3.9981
G01 X-9.6641 Y4.0000
G01 X-9.5808 Y4.0041
G01 X-9.5656 Y4.0045
G01 X-9.5505 Y4.0041
G01 X-9.4672 Y4.0000
G01 X-9.4445 Y3.9981
G00 Z2.0000
G00 X-8.5257 Y4.8771
G01 F120.00
G01 Z-0.0801
G01 F120.00
G01 X-8.5429 Y4.8415
G01 X-8.5233 Y4.8463
G01 X-8.5084 Y4.8492
G01 X-8.4886 Y4.8523
G01 X-8.4736 Y4.8541
G01 X-8.4585 Y4.8552
G01 X-8.4384 Y4.8561
G01 X-8.4233 Y4.8561
G01 X-8.4042 Y4.8553
G01 X-8.4261 Y4.8771
G01 X-8.5257 Y4.8771
G00 Z2.0000
G00 X-9.4705 Y6.3275
G01 F120.00
G01 Z-0.0801
G01 F120.00
G01 X-9.5609 Y6.3322
G01 X-9.5704 Y6.3322
G01 X-9.6584 Y6.3277
G01 X-9.7503 Y6.3141
G01 X-9.8358 Y6.2928
G01 X-9.8449 Y6.2901
G01 X-9.9278 Y6.2602
G01 X-10.0118 Y6.2205
G01 X-10.0915 Y6.1728
G01 X-10.1623 Y6.1204
G01 X-10.1696 Y6.1144
G01 X-10.2349 Y6.0551
G01 X-10.2973 Y5.9863
G01 X-10.3499 Y5.9155
G01 X-10.3551 Y5.9077
G01 X-10.3980 Y5.8361
G01 X-10.4025 Y5.8278
G01 X-10.4400 Y5.7480
G01 X-10.4699 Y5.6651
G01 X-10.4726 Y5.6560
G01 X-10.4929 Y5.5751
G01 X-10.4947 Y5.5658
G01 X-10.5075 Y5.4786
G01 X-10.5121 Y5.3858
G01 X-10.5075 Y5.2931
G01 X-10.4947 Y5.2059
G01 X-10.4929 Y5.1966
G01 X-10.4726 Y5.1157
G01 X-10.4699 Y5.1066
G01 X-10.4400 Y5.0236
G01 X-10.4003 Y4.9397
G01 X-10.3526 Y4.8600
G01 X-10.3002 Y4.7892
G01 X-10.2942 Y4.7818
G01 X-10.2349 Y4.7166
G01 X-10.1696 Y4.6573
G01 X-10.1623 Y4.6513
G01 X-10.0915 Y4.5989
G01 X-10.0159 Y4.5535
G01 X-10.0076 Y4.5490
G01 X-9.9278 Y4.5114
G01 X-9.8404 Y4.4801
G01 X-9.7549 Y4.4586
G01 X-9.7456 Y4.4568
G01 X-9.6584 Y4.4439
G01 X-9.5704 Y4.4395
G01 X-9.5609 Y4.4395
G01 X-9.4729 Y4.4439
G01 X-9.3810 Y4.4576
G01 X-9.2955 Y4.4789
G01 X-9.2864 Y4.4816
G01 X-9.2034 Y4.5114
G01 X-9.1237 Y4.5490
G01 X-9.1154 Y4.5535
G01 X-9.0398 Y4.5989
G01 X-8.9690 Y4.6513
G01 X-8.9616 Y4.6573
G01 X-8.8964 Y4.7166
G01 X-8.8371 Y4.7818
G01 X-8.8311 Y4.7892
G01 X-8.7787 Y4.8600
G01 X-8.7333 Y4.9356
G01 X-8.7288 Y4.9439
G01 X-8.6912 Y5.0236
G01 X-8.6676 Y5.0893
G01 X-8.3382 Y5.0893
G01 X-7.4585 Y4.2096
G01 X-7.4406 Y4.1932
G01 X-7.4351 Y4.1886
G01 X-7.4155 Y4.1741
G01 X-7.3928 Y4.1601
G01 X-7.3865 Y4.1567
G01 X-7.3667 Y4.1473
G01 X-7.3579 Y4.1437
G01 X-7.3349 Y4.1356
G01 X-7.3067 Y4.1285
G01 X-7.2779 Y4.1242
G01 X-7.2512 Y4.1228
G01 X23.7878 Y4.1229
G01 X23.8121 Y4.1242
G01 X23.8409 Y4.1285
G01 X23.8691 Y4.1356
G01 X23.8921 Y4.1437
G01 X23.9009 Y4.1473
G01 X23.9208 Y4.1567
G01 X23.9270 Y4.1601
G01 X23.9478 Y4.1728
G01 X23.9730 Y4.1916
G01 X23.9928 Y4.2096
G01 X24.7205 Y4.9374
G01 X24.7534 Y4.9221
G01 X24.8283 Y4.8953
G01 X24.9077 Y4.8751
G01 X24.9146 Y4.8737
G01 X24.9909 Y4.8623
G01 X25.0003 Y4.8614
G01 X25.0798 Y4.8576
G01 X25.1615 Y4.8615
G01 X25.2426 Y4.8733
G01 X25.2519 Y4.8751
G01 X25.3290 Y4.8946
G01 X25.4039 Y4.9212
G01 X25.4126 Y4.9249
G01 X25.4844 Y4.9590
G01 X25.5527 Y4.9997
G01 X25.5606 Y5.0050
G01 X25.6206 Y5.0495
G01 X25.6279 Y5.0555
G01 X25.6868 Y5.1090
G01 X25.7403 Y5.1679
G01 X25.7463 Y5.1752
G01 X25.7935 Y5.2391
G01 X25.8368 Y5.3114
G01 X25.8729 Y5.3875
G01 X25.8998 Y5.4624
G01 X25.9025 Y5.4714
G01 X25.9217 Y5.5486
G01 X25.9335 Y5.6272
G01 X25.9344 Y5.6366
G01 X25.9382 Y5.7137
G01 X25.9341 Y5.8002
G01 X25.9225 Y5.8789
G01 X25.9207 Y5.8881
G01 X25.9012 Y5.9652
G01 X25.8746 Y6.0401
G01 X25.8709 Y6.0489
G01 X25.8368 Y6.1207
G01 X25.7935 Y6.1930
G01 X25.7463 Y6.2569
G01 X25.7403 Y6.2642
G01 X25.6868 Y6.3231
G01 X25.6279 Y6.3765
G01 X25.6206 Y6.3825
G01 X25.5567 Y6.4298
G01 X25.4844 Y6.4731
G01 X25.4126 Y6.5072
G01 X25.4039 Y6.5108
G01 X25.3290 Y6.5375
G01 X25.2519 Y6.5570
G01 X25.2426 Y6.5588
G01 X25.1639 Y6.5704
G01 X25.0845 Y6.5744
G01 X25.0750 Y6.5744
G01 X24.9956 Y6.5704
G01 X24.9169 Y6.5588
G01 X24.9077 Y6.5570
G01 X24.8306 Y6.5375
G01 X24.7491 Y6.5082
G01 X24.6751 Y6.4731
G01 X24.6028 Y6.4298
G01 X24.5352 Y6.3796
G01 X24.4727 Y6.3231
G01 X24.4162 Y6.2606
G01 X24.3660 Y6.1930
G01 X24.3227 Y6.1207
G01 X24.2858 Y6.0424
G01 X24.2583 Y5.9652
G01 X24.2378 Y5.8835
G01 X24.2254 Y5.8002
G01 X24.2213 Y5.7137
G01 X24.2254 Y5.6319
G01 X24.2383 Y5.5462
G01 X24.2590 Y5.4646
G01 X24.2858 Y5.3897
G01 X24.3011 Y5.3567
G01 X23.6602 Y4.7159
G01 X-7.1260 Y4.7159
G01 X-8.0056 Y5.5955
G01 X-8.0272 Y5.6151
G01 X-8.0486 Y5.6311
G01 X-8.0714 Y5.6450
G01 X-8.0798 Y5.6495
G01 X-8.1019 Y5.6598
G01 X-8.1248 Y5.6681
G01 X-8.1338 Y5.6709
G01 X-8.1575 Y5.6767
G01 X-8.1886 Y5.6812
G01 X-8.2153 Y5.6824
G01 X-8.6676 Y5.6824
G01 X-8.6912 Y5.7480
G01 X-8.7288 Y5.8278
G01 X-8.7333 Y5.8361
G01 X-8.7787 Y5.9117
G01 X-8.8340 Y5.9863
G01 X-8.8931 Y6.0517
G01 X-8.8998 Y6.0583
G01 X-8.9652 Y6.1175
G01 X-9.0398 Y6.1728
G01 X-9.1154 Y6.2182
G01 X-9.1237 Y6.2227
G01 X-9.2034 Y6.2602
G01 X-9.2864 Y6.2901
G01 X-9.2955 Y6.2928
G01 X-9.3810 Y6.3141
G01 X-9.4705 Y6.3275
G00 Z2.0000
G00 X-9.4575 Y6.4328
G01 F120.00
G01 Z-0.0801
G01 F120.00
G01 X-9.4724 Y6.4340
G01 X-9.5557 Y6.4381
G01 X-9.5756 Y6.4381
G01 X-9.6688 Y6.4333
G01 X-9.7710 Y6.4182
G01 X-9.8616 Y6.3957
G01 X-9.8806 Y6.3899
G01 X-9.9684 Y6.3583
G01 X-10.0618 Y6.3141
G01 X-10.1504 Y6.2610
G01 X-10.2255 Y6.2056
G01 X-10.2409 Y6.1930
G01 X-10.3099 Y6.1301
G01 X-10.3793 Y6.0536
G01 X-10.4351 Y5.9787
G01 X-10.4461 Y5.9622
G01 X-10.4890 Y5.8907
G01 X-10.4984 Y5.8731
G01 X-10.5381 Y5.7886
G01 X-10.5697 Y5.7008
G01 X-10.5755 Y5.6818
G01 X-10.5980 Y5.5912
G01 X-10.6131 Y5.4890
G01 X-10.6179 Y5.3958
G01 X-10.6179 Y5.3759
G01 X-10.6138 Y5.2926
G01 X-10.6119 Y5.2728
G01 X-10.5980 Y5.1805
G01 X-10.5755 Y5.0899
G01 X-10.5697 Y5.0709
G01 X-10.5416 Y4.9923
G01 X-10.5340 Y4.9740
G01 X-10.4939 Y4.8897
G01 X-10.4408 Y4.8011
G01 X-10.3793 Y4.7181
G01 X-10.3168 Y4.6488
G01 X-10.3027 Y4.6347
G01 X-10.2334 Y4.5722
G01 X-10.1585 Y4.5164
G01 X-10.1420 Y4.5054
G01 X-10.0618 Y4.4576
G01 X-9.9775 Y4.4174
G01 X-9.9592 Y4.4098
G01 X-9.8712 Y4.3786
G01 X-9.7710 Y4.3535
G01 X-9.6787 Y4.3396
G01 X-9.6589 Y4.3376
G01 X-9.5656 Y4.3333
G01 X-9.4724 Y4.3376
G01 X-9.4526 Y4.3396
G01 X-9.3652 Y4.3526
G01 X-9.3506 Y4.3557
G01 X-9.2601 Y4.3786
G01 X-9.1721 Y4.4098
G01 X-9.1538 Y4.4174
G01 X-9.0695 Y4.4576
G01 X-8.9893 Y4.5054
G01 X-8.9727 Y4.5164
G01 X-8.8979 Y4.5722
G01 X-8.8286 Y4.6347
G01 X-8.8145 Y4.6488
G01 X-8.7520 Y4.7181
G01 X-8.6962 Y4.7929
G01 X-8.6852 Y4.8095
G01 X-8.6374 Y4.8897
G01 X-8.5972 Y4.9740
G01 X-8.5932 Y4.9832
G01 X-8.3821 Y4.9832
G01 X-7.5336 Y4.1346
G01 X-7.5081 Y4.1113
G01 X-7.5004 Y4.1050
G01 X-7.4766 Y4.0874
G01 X-7.4684 Y4.0818
G01 X-7.4473 Y4.0691
G01 X-7.4298 Y4.0598
G01 X-7.4075 Y4.0493
G01 X-7.3983 Y4.0455
G01 X-7.3657 Y4.0340
G01 X-7.3274 Y4.0244
G01 X-7.2883 Y4.0186
G01 X-7.2538 Y4.0168
G01 X23.7831 Y4.0167
G01 X23.8126 Y4.0179
G01 X23.8324 Y4.0199
G01 X23.8567 Y4.0235
G01 X23.8665 Y4.0255
G01 X23.8999 Y4.0340
G01 X23.9371 Y4.0473
G01 X23.9729 Y4.0642
G01 X23.9984 Y4.0792
G01 X24.0149 Y4.0903
G01 X24.0346 Y4.1050
G01 X24.0423 Y4.1113
G01 X24.0678 Y4.1346
G01 X24.7454 Y4.8122
G01 X24.7998 Y4.7930
G01 X24.8867 Y4.7711
G01 X24.9014 Y4.7683
G01 X24.9754 Y4.7574
G01 X24.9902 Y4.7557
G01 X25.0798 Y4.7515
G01 X25.1644 Y4.7554
G01 X25.1842 Y4.7574
G01 X25.2630 Y4.7691
G01 X25.2776 Y4.7722
G01 X25.3598 Y4.7930
G01 X25.4396 Y4.8213
G01 X25.4580 Y4.8289
G01 X25.5256 Y4.8609
G01 X25.5431 Y4.8703
G01 X25.6156 Y4.9141
G01 X25.6838 Y4.9643
G01 X25.6992 Y4.9769
G01 X25.7618 Y5.0340
G01 X25.8254 Y5.1041
G01 X25.8817 Y5.1802
G01 X25.9255 Y5.2527
G01 X25.9349 Y5.2702
G01 X25.9669 Y5.3378
G01 X25.9745 Y5.3562
G01 X26.0028 Y5.4360
G01 X26.0236 Y5.5182
G01 X26.0275 Y5.5377
G01 X26.0397 Y5.6215
G01 X26.0442 Y5.7111
G01 X26.0441 Y5.7260
G01 X26.0397 Y5.8106
G01 X26.0275 Y5.8944
G01 X26.0236 Y5.9139
G01 X26.0028 Y5.9960
G01 X25.9745 Y6.0759
G01 X25.9669 Y6.0942
G01 X25.9304 Y6.1707
G01 X25.8817 Y6.2519
G01 X25.8315 Y6.3201
G01 X25.8189 Y6.3355
G01 X25.7618 Y6.3981
G01 X25.6992 Y6.4551
G01 X25.6838 Y6.4678
G01 X25.6238 Y6.5123
G01 X25.6072 Y6.5233
G01 X25.5344 Y6.5667
G01 X25.4489 Y6.6072
G01 X25.3598 Y6.6391
G01 X25.2776 Y6.6599
G01 X25.2581 Y6.6638
G01 X25.1842 Y6.6747
G01 X25.1644 Y6.6767
G01 X25.0798 Y6.6806
G01 X24.9951 Y6.6767
G01 X24.9754 Y6.6747
G01 X24.8916 Y6.6621
G01 X24.8093 Y6.6417
G01 X24.7950 Y6.6376
G01 X24.7106 Y6.6072
G01 X24.6251 Y6.5667
G01 X24.5439 Y6.5180
G01 X24.4679 Y6.4616
G01 X24.3977 Y6.3981
G01 X24.3342 Y6.3279
G01 X24.2778 Y6.2519
G01 X24.2340 Y6.1794
G01 X24.2268 Y6.1663
G01 X24.1886 Y6.0852
G01 X24.1567 Y5.9960
G01 X24.1337 Y5.9042
G01 X24.1211 Y5.8204
G01 X24.1194 Y5.8056
G01 X24.1152 Y5.7160
G01 X24.1191 Y5.6314
G01 X24.1204 Y5.6166
G01 X24.1320 Y5.5377
G01 X24.1348 Y5.5230
G01 X24.1567 Y5.4360
G01 X24.1760 Y5.3817
G01 X23.6163 Y4.8220
G01 X23.2413 Y4.8220
G01 X23.2580 Y4.8289
G01 X23.3344 Y4.8654
G01 X23.4156 Y4.9141
G01 X23.4917 Y4.9704
G01 X23.5546 Y5.0271
G01 X23.5687 Y5.0412
G01 X23.6189 Y5.0966
G01 X23.6315 Y5.1120
G01 X23.6817 Y5.1802
G01 X23.7255 Y5.2527
G01 X23.7349 Y5.2702
G01 X23.7709 Y5.3469
G01 X23.8028 Y5.4360
G01 X23.8258 Y5.5279
G01 X23.8397 Y5.6215
G01 X23.8443 Y5.7160
G01 X23.8397 Y5.8106
G01 X23.8258 Y5.9042
G01 X23.8028 Y5.9960
G01 X23.7709 Y6.0852
G01 X23.7304 Y6.1707
G01 X23.6817 Y6.2519
G01 X23.6315 Y6.3201
G01 X23.6189 Y6.3355
G01 X23.5618 Y6.3981
G01 X23.4992 Y6.4551
G01 X23.4838 Y6.4678
G01 X23.4238 Y6.5123
G01 X23.4072 Y6.5233
G01 X23.3344 Y6.5667
G01 X23.2489 Y6.6072
G01 X23.1598 Y6.6391
G01 X23.0679 Y6.6621
G01 X22.9743 Y6.6759
G01 X22.8798 Y6.6806
G01 X22.7852 Y6.6759
G01 X22.6965 Y6.6630
G01 X22.6819 Y6.6599
G01 X22.6093 Y6.6417
G01 X22.5903 Y6.6359
G01 X22.5106 Y6.6072
G01 X22.4251 Y6.5667
G01 X22.3439 Y6.5180
G01 X22.2757 Y6.4678
G01 X22.2603 Y6.4551
G01 X22.2049 Y6.4049
G01 X22.1909 Y6.3909
G01 X22.1342 Y6.3279
G01 X22.0778 Y6.2519
G01 X22.0291 Y6.1707
G01 X21.9927 Y6.0942
G01 X21.9851 Y6.0759
G01 X21.9599 Y6.0055
G01 X21.9541 Y5.9865
G01 X21.9337 Y5.9042
G01 X21.9199 Y5.8106
G01 X21.9152 Y5.7160
G01 X21.9191 Y5.6314
G01 X21.9211 Y5.6116
G01 X21.9320 Y5.5377
G01 X21.9359 Y5.5182
G01 X21.9567 Y5.4360
G01 X21.9886 Y5.3469
G01 X22.0291 Y5.2614
G01 X22.0725 Y5.1886
G01 X22.0835 Y5.1720
G01 X22.1280 Y5.1120
G01 X22.1407 Y5.0966
G01 X22.1977 Y5.0340
G01 X22.2679 Y4.9704
G01 X22.3439 Y4.9141
G01 X22.4164 Y4.8703
G01 X22.4340 Y4.8609
G01 X22.5016 Y4.8289
G01 X22.5182 Y4.8220
G01 X21.0413 Y4.8220
G01 X21.0580 Y4.8289
G01 X21.1344 Y4.8654
G01 X21.2072 Y4.9087
G01 X21.2238 Y4.9198
G01 X21.2838 Y4.9643
G01 X21.2992 Y4.9769
G01 X21.3618 Y5.0340
G01 X21.4254 Y5.1041
G01 X21.4817 Y5.1802
G01 X21.5304 Y5.2614
G01 X21.5709 Y5.3469
G01 X21.5997 Y5.4266
G01 X21.6054 Y5.4456
G01 X21.6236 Y5.5182
G01 X21.6275 Y5.5377
G01 X21.6397 Y5.6215
G01 X21.6443 Y5.7160
G01 X21.6397 Y5.8106
G01 X21.6258 Y5.9042
G01 X21.6028 Y5.9960
G01 X21.5745 Y6.0759
G01 X21.5669 Y6.0942
G01 X21.5349 Y6.1618
G01 X21.5255 Y6.1794
G01 X21.4817 Y6.2519
G01 X21.4254 Y6.3279
G01 X21.3618 Y6.3981
G01 X21.2917 Y6.4616
G01 X21.2156 Y6.5180
G01 X21.1344 Y6.5667
G01 X21.0489 Y6.6072
G01 X20.9692 Y6.6359
G01 X20.9502 Y6.6417
G01 X20.8776 Y6.6599
G01 X20.8581 Y6.6638
G01 X20.7743 Y6.6759
G01 X20.6897 Y6.6803
G01 X20.6748 Y6.6805
G01 X20.5852 Y6.6759
G01 X20.4916 Y6.6621
G01 X20.3998 Y6.6391
G01 X20.3199 Y6.6107
G01 X20.3016 Y6.6031
G01 X20.2340 Y6.5712
G01 X20.2164 Y6.5618
G01 X20.1439 Y6.5180
G01 X20.0679 Y6.4616
G01 X19.9977 Y6.3981
G01 X19.9407 Y6.3355
G01 X19.9280 Y6.3201
G01 X19.8835 Y6.2600
G01 X19.8725 Y6.2435
G01 X19.8291 Y6.1707
G01 X19.7886 Y6.0852
G01 X19.7567 Y5.9960
G01 X19.7337 Y5.9042
G01 X19.7199 Y5.8106
G01 X19.7152 Y5.7160
G01 X19.7199 Y5.6215
G01 X19.7320 Y5.5377
G01 X19.7359 Y5.5182
G01 X19.7541 Y5.4456
G01 X19.7599 Y5.4266
G01 X19.7886 Y5.3469
G01 X19.8291 Y5.2614
G01 X19.8778 Y5.1802
G01 X19.9342 Y5.1041
G01 X19.9977 Y5.0340
G01 X20.0603 Y4.9769
G01 X20.0757 Y4.9643
G01 X20.1358 Y4.9198
G01 X20.1523 Y4.9087
G01 X20.2251 Y4.8654
G01 X20.3016 Y4.8289
G01 X20.3182 Y4.8220
G01 X-7.0821 Y4.8220
G01 X-7.9306 Y5.6706
G01 X-7.9599 Y5.6971
G01 X-7.9916 Y5.7206
G01 X-8.0169 Y5.7360
G01 X-8.0299 Y5.7432
G01 X-8.0567 Y5.7559
G01 X-8.0705 Y5.7614
G01 X-8.0985 Y5.7711
G01 X-8.1271 Y5.7786
G01 X-8.1417 Y5.7817
G01 X-8.1709 Y5.7860
G01 X-8.1858 Y5.7873
G01 X-8.2153 Y5.7885
G01 X-8.5932 Y5.7885
G01 X-8.6329 Y5.8731
G01 X-8.6423 Y5.8907
G01 X-8.6905 Y5.9706
G01 X-8.7459 Y6.0457
G01 X-8.7585 Y6.0611
G01 X-8.8214 Y6.1301
G01 X-8.8904 Y6.1930
G01 X-8.9057 Y6.2056
G01 X-8.9809 Y6.2610
G01 X-9.0608 Y6.3092
G01 X-9.0784 Y6.3186
G01 X-9.1628 Y6.3583
G01 X-9.2507 Y6.3899
G01 X-9.2697 Y6.3957
G01 X-9.3603 Y6.4182
G01 X-9.4575 Y6.4328
G00 Z2.0000
G00 X-9.2149 Y6.8218
G01 F120.00
G01 Z-0.0801
G01 F120.00
G01 X-9.2293 Y6.8171
G01 X-9.2439 Y6.8131
G01 X-9.3322 Y6.7910
G01 X-9.3545 Y6.7869
G01 X-9.4370 Y6.7746
G01 X-9.4521 Y6.7728
G01 X-9.4672 Y6.7717
G01 X-9.5505 Y6.7676
G01 X-9.5656 Y6.7672
G01 X-9.5808 Y6.7676
G01 X-9.6641 Y6.7717
G01 X-9.6792 Y6.7728
G01 X-9.6942 Y6.7746
G01 X-9.7842 Y6.7881
G01 X-9.8065 Y6.7928
G01 X-9.8947 Y6.8150
G01 X-9.9092 Y6.8194
G01 X-9.9384 Y6.8297
G01 X-9.9299 Y6.8084
G01 X-9.9209 Y6.7823
G01 X-9.9169 Y6.7677
G01 X-9.9105 Y6.7408
G01 X-9.9061 Y6.7136
G01 X-9.9043 Y6.6985
G01 X-9.9032 Y6.6834
G01 X-9.9022 Y6.6558
G01 X-9.9032 Y6.6282
G01 X-9.9043 Y6.6131
G01 X-9.9080 Y6.5858
G01 X-9.9105 Y6.5708
G01 X-9.9169 Y6.5440
G01 X-9.9209 Y6.5294
G01 X-9.9299 Y6.5032
G01 X-9.9384 Y6.4819
G01 X-9.9092 Y6.4923
G01 X-9.8947 Y6.4967
G01 X-9.8065 Y6.5189
G01 X-9.7842 Y6.5236
G01 X-9.6942 Y6.5370
G01 X-9.6792 Y6.5389
G01 X-9.6641 Y6.5400
G01 X-9.5808 Y6.5441
G01 X-9.5656 Y6.5445
G01 X-9.5505 Y6.5441
G01 X-9.4672 Y6.5400
G01 X-9.4521 Y6.5389
G01 X-9.4370 Y6.5370
G01 X-9.3470 Y6.5236
G01 X-9.3248 Y6.5189
G01 X-9.2366 Y6.4967
G01 X-9.2221 Y6.4923
G01 X-9.1929 Y6.4819
G01 X-9.1988 Y6.4961
G01 X-9.2056 Y6.5150
G01 X-9.2103 Y6.5294
G01 X-9.2144 Y6.5440
G01 X-9.2192 Y6.5634
G01 X-9.2221 Y6.5783
G01 X-9.2262 Y6.6056
G01 X-9.2277 Y6.6207
G01 X-9.2290 Y6.6483
G01 X-9.2287 Y6.6710
G01 X-9.2270 Y6.6985
G01 X-9.2252 Y6.7136
G01 X-9.2221 Y6.7334
G01 X-9.2174 Y6.7556
G01 X-9.2103 Y6.7823
G01 X-9.2014 Y6.8084
G01 X-9.1929 Y6.8297
G01 X-9.2149 Y6.8218
G00 Z2.0000
G00 X-9.4705 Y8.8675
G01 F120.00
G01 Z-0.0801
G01 F120.00
G01 X-9.4776 Y8.8681
G01 X-9.5656 Y8.8723
G01 X-9.6584 Y8.8677
G01 X-9.7503 Y8.8541
G01 X-9.8404 Y8.8315
G01 X-9.9278 Y8.8002
G01 X-10.0118 Y8.7605
G01 X-10.0915 Y8.7128
G01 X-10.1661 Y8.6575
G01 X-10.2349 Y8.5951
G01 X-10.2973 Y8.5263
G01 X-10.3526 Y8.4517
G01 X-10.4003 Y8.3720
G01 X-10.4400 Y8.2880
G01 X-10.4713 Y8.2006
G01 X-10.4939 Y8.1105
G01 X-10.5075 Y8.0186
G01 X-10.5121 Y7.9258
G01 X-10.5075 Y7.8331
G01 X-10.4939 Y7.7412
G01 X-10.4713 Y7.6511
G01 X-10.4400 Y7.5636
G01 X-10.4003 Y7.4797
G01 X-10.3526 Y7.4000
G01 X-10.2973 Y7.3254
G01 X-10.2349 Y7.2566
G01 X-10.1661 Y7.1942
G01 X-10.0915 Y7.1389
G01 X-10.0118 Y7.0911
G01 X-9.9278 Y7.0514
G01 X-9.8404 Y7.0201
G01 X-9.7503 Y6.9976
G01 X-9.6584 Y6.9839
G01 X-9.5656 Y6.9794
G01 X-9.4729 Y6.9839
G01 X-9.3810 Y6.9976
G01 X-9.2909 Y7.0201
G01 X-9.2034 Y7.0514
G01 X-9.1195 Y7.0911
G01 X-9.0398 Y7.1389
G01 X-8.9652 Y7.1942
G01 X-8.8964 Y7.2566
G01 X-8.8340 Y7.3254
G01 X-8.7787 Y7.4000
G01 X-8.7309 Y7.4797
G01 X-8.6912 Y7.5636
G01 X-8.6599 Y7.6511
G01 X-8.6374 Y7.7412
G01 X-8.6237 Y7.8331
G01 X-8.6192 Y7.9258
G01 X-8.6237 Y8.0186
G01 X-8.6374 Y8.1105
G01 X-8.6599 Y8.2006
G01 X-8.6912 Y8.2880
G01 X-8.7309 Y8.3720
G01 X-8.7787 Y8.4517
G01 X-8.8340 Y8.5263
G01 X-8.8964 Y8.5951
G01 X-8.9652 Y8.6575
G01 X-9.0398 Y8.7128
G01 X-9.1195 Y8.7605
G01 X-9.2034 Y8.8002
G01 X-9.2909 Y8.8315
G01 X-9.3810 Y8.8541
G01 X-9.4705 Y8.8675
G00 Z2.0000
G00 X-9.4575 Y8.9728
G01 F120.00
G01 Z-0.0801
G01 F120.00
G01 X-9.4724 Y8.9740
G01 X-9.5656 Y8.9784
G01 X-9.6688 Y8.9733
G01 X-9.7710 Y8.9582
G01 X-9.8712 Y8.9331
G01 X-9.9684 Y8.8983
G01 X-10.0618 Y8.8541
G01 X-10.1504 Y8.8010
G01 X-10.2334 Y8.7395
G01 X-10.3099 Y8.6701
G01 X-10.3793 Y8.5936
G01 X-10.4408 Y8.5106
G01 X-10.4939 Y8.4220
G01 X-10.5381 Y8.3286
G01 X-10.5729 Y8.2314
G01 X-10.5980 Y8.1312
G01 X-10.6131 Y8.0290
G01 X-10.6182 Y7.9258
G01 X-10.6131 Y7.8227
G01 X-10.5980 Y7.7205
G01 X-10.5729 Y7.6203
G01 X-10.5381 Y7.5230
G01 X-10.4939 Y7.4297
G01 X-10.4408 Y7.3411
G01 X-10.3793 Y7.2581
G01 X-10.3099 Y7.1816
G01 X-10.2334 Y7.1122
G01 X-10.1504 Y7.0507
G01 X-10.0618 Y6.9976
G01 X-9.9684 Y6.9534
G01 X-9.8712 Y6.9186
G01 X-9.7710 Y6.8935
G01 X-9.6688 Y6.8784
G01 X-9.5656 Y6.8733
G01 X-9.4625 Y6.8784
G01 X-9.3603 Y6.8935
G01 X-9.2601 Y6.9186
G01 X-9.1628 Y6.9534
G01 X-9.0695 Y6.9976
G01 X-8.9809 Y7.0507
G01 X-8.8979 Y7.1122
G01 X-8.8214 Y7.1816
G01 X-8.7520 Y7.2581
G01 X-8.6905 Y7.3411
G01 X-8.6374 Y7.4297
G01 X-8.5932 Y7.5230
G01 X-8.5584 Y7.6203
G01 X-8.5333 Y7.7205
G01 X-8.5182 Y7.8227
G01 X-8.5131 Y7.9258
G01 X-8.5182 Y8.0290
G01 X-8.5333 Y8.1312
G01 X-8.5584 Y8.2314
G01 X-8.5932 Y8.3286
G01 X-8.6374 Y8.4220
G01 X-8.6905 Y8.5106
G01 X-8.7520 Y8.5936
G01 X-8.8214 Y8.6701
G01 X-8.8979 Y8.7395
G01 X-8.9809 Y8.8010
G01 X-9.0695 Y8.8541
G01 X-9.1628 Y8.8983
G01 X-9.2601 Y8.9331
G01 X-9.3603 Y8.9582
G01 X-9.4575 Y8.9728
G00 Z2.0000
G00 X-8.8586 Y15.8822
G01 F120.00
G01 Z-0.0801
G01 F120.00
G01 X-8.8680 Y15.8827
G01 X-10.5704 Y15.8827
G01 X-10.5798 Y15.8820
G01 X-10.5892 Y15.8803
G01 X-10.5983 Y15.8778
G01 X-10.6071 Y15.8744
G01 X-10.6156 Y15.8702
G01 X-10.6236 Y15.8651
G01 X-10.6310 Y15.8593
G01 X-10.6379 Y15.8527
G01 X-10.6426 Y15.8474
G01 X-10.6482 Y15.8398
G01 X-10.6531 Y15.8317
G01 X-10.6571 Y15.8231
G01 X-10.6603 Y15.8142
G01 X-10.6621 Y15.8074
G01 X-10.6638 Y15.7980
G01 X-10.6645 Y15.7886
G01 X-10.6645 Y14.0862
G01 X-10.6640 Y14.0768
G01 X-10.6626 Y14.0674
G01 X-10.6603 Y14.0582
G01 X-10.6571 Y14.0493
G01 X-10.6531 Y14.0408
G01 X-10.6469 Y14.0307
G01 X-10.6411 Y14.0232
G01 X-10.6345 Y14.0164
G01 X-10.6292 Y14.0117
G01 X-10.6216 Y14.0060
G01 X-10.6135 Y14.0012
G01 X-10.6049 Y13.9971
G01 X-10.5960 Y13.9939
G01 X-10.5892 Y13.9921
G01 X-10.5798 Y13.9905
G01 X-10.5704 Y13.9898
G01 X-8.8680 Y13.9898
G01 X-8.8562 Y13.9905
G01 X-8.8469 Y13.9921
G01 X-8.8378 Y13.9947
G01 X-8.8290 Y13.9981
G01 X-8.8205 Y14.0023
G01 X-8.8125 Y14.0074
G01 X-8.8050 Y14.0132
G01 X-8.7982 Y14.0197
G01 X-8.7920 Y14.0269
G01 X-8.7866 Y14.0346
G01 X-8.7830 Y14.0408
G01 X-8.7789 Y14.0493
G01 X-8.7757 Y14.0582
G01 X-8.7734 Y14.0674
G01 X-8.7721 Y14.0768
G01 X-8.7716 Y14.0839
G01 X-8.7716 Y15.7886
G01 X-8.7723 Y15.7980
G01 X-8.7739 Y15.8074
G01 X-8.7757 Y15.8142
G01 X-8.7789 Y15.8231
G01 X-8.7830 Y15.8317
G01 X-8.7878 Y15.8398
G01 X-8.7920 Y15.8456
G01 X-8.7982 Y15.8527
G01 X-8.8050 Y15.8593
G01 X-8.8106 Y15.8637
G01 X-8.8185 Y15.8690
G01 X-8.8268 Y15.8734
G01 X-8.8355 Y15.8771
G01 X-8.8423 Y15.8792
G01 X-8.8516 Y15.8813
G01 X-8.8586 Y15.8822
G00 Z2.0000
G00 X-8.8482 Y15.9878
G01 F120.00
G01 Z-0.0801
G01 F120.00
G01 X-8.8680 Y15.9888
G01 X-10.5730 Y15.9887
G01 X-10.5928 Y15.9873
G01 X-10.6124 Y15.9839
G01 X-10.6316 Y15.9786
G01 X-10.6409 Y15.9752
G01 X-10.6546 Y15.9693
G01 X-10.6722 Y15.9600
G01 X-10.6887 Y15.9489
G01 X-10.7041 Y15.9363
G01 X-10.7181 Y15.9223
G01 X-10.7307 Y15.9069
G01 X-10.7392 Y15.8946
G01 X-10.7467 Y15.8817
G01 X-10.7552 Y15.8638
G01 X-10.7604 Y15.8498
G01 X-10.7657 Y15.8306
G01 X-10.7691 Y15.8110
G01 X-10.7705 Y15.7912
G01 X-10.7706 Y14.0862
G01 X-10.7696 Y14.0664
G01 X-10.7684 Y14.0565
G01 X-10.7657 Y14.0419
G01 X-10.7604 Y14.0227
G01 X-10.7532 Y14.0042
G01 X-10.7443 Y13.9864
G01 X-10.7364 Y13.9737
G01 X-10.7307 Y13.9656
G01 X-10.7181 Y13.9502
G01 X-10.7041 Y13.9362
G01 X-10.6927 Y13.9266
G01 X-10.6764 Y13.9151
G01 X-10.6591 Y13.9053
G01 X-10.6456 Y13.8991
G01 X-10.6316 Y13.8939
G01 X-10.6124 Y13.8886
G01 X-10.5928 Y13.8852
G01 X-10.5730 Y13.8838
G01 X-8.8680 Y13.8837
G01 X-8.8581 Y13.8839
G01 X-8.8432 Y13.8852
G01 X-8.8237 Y13.8886
G01 X-8.8045 Y13.8939
G01 X-8.7860 Y13.9011
G01 X-8.7682 Y13.9100
G01 X-8.7514 Y13.9206
G01 X-8.7357 Y13.9329
G01 X-8.7284 Y13.9395
G01 X-8.7180 Y13.9502
G01 X-8.7054 Y13.9656
G01 X-8.6943 Y13.9821
G01 X-8.6849 Y13.9996
G01 X-8.6791 Y14.0133
G01 X-8.6742 Y14.0274
G01 X-8.6694 Y14.0467
G01 X-8.6665 Y14.0664
G01 X-8.6656 Y14.0813
G01 X-8.6655 Y15.7862
G01 X-8.6660 Y15.8011
G01 X-8.6677 Y15.8160
G01 X-8.6716 Y15.8355
G01 X-8.6757 Y15.8498
G01 X-8.6829 Y15.8683
G01 X-8.6918 Y15.8861
G01 X-8.6996 Y15.8988
G01 X-8.7084 Y15.9109
G01 X-8.7213 Y15.9259
G01 X-8.7320 Y15.9363
G01 X-8.7474 Y15.9489
G01 X-8.7639 Y15.9600
G01 X-8.7814 Y15.9693
G01 X-8.7951 Y15.9752
G01 X-8.8140 Y15.9814
G01 X-8.8334 Y15.9858
G01 X-8.8482 Y15.9878
G00 Z2.0000
G00 X-9.0096 Y16.0949
G01 F120.00
G01 Z-0.0801
G01 F120.00
G01 X-9.0283 Y16.1156
G01 X-9.0425 Y16.1333
G01 X-9.0587 Y16.1557
G01 X-9.0732 Y16.1792
G01 X-9.0842 Y16.1991
G01 X-9.0960 Y16.2241
G01 X-9.1044 Y16.2452
G01 X-9.1134 Y16.2713
G01 X-9.1204 Y16.2980
G01 X-9.1251 Y16.3202
G01 X-9.1282 Y16.3400
G01 X-9.1300 Y16.3550
G01 X-9.1318 Y16.3826
G01 X-9.1320 Y16.4053
G01 X-9.1307 Y16.4329
G01 X-9.1282 Y16.4555
G01 X-9.1237 Y16.4828
G01 X-9.1652 Y16.4581
G01 X-9.1786 Y16.4509
G01 X-9.2677 Y16.4088
G01 X-9.2888 Y16.4003
G01 X-9.3673 Y16.3722
G01 X-9.3890 Y16.3654
G01 X-9.4772 Y16.3432
G01 X-9.4920 Y16.3399
G01 X-9.5069 Y16.3373
G01 X-9.5894 Y16.3250
G01 X-9.6045 Y16.3232
G01 X-9.6196 Y16.3221
G01 X-9.7029 Y16.3180
G01 X-9.7180 Y16.3176
G01 X-9.7332 Y16.3180
G01 X-9.8165 Y16.3221
G01 X-9.8316 Y16.3232
G01 X-9.8466 Y16.3250
G01 X-9.9292 Y16.3373
G01 X-9.9441 Y16.3399
G01 X-9.9589 Y16.3432
G01 X-10.0471 Y16.3654
G01 X-10.0688 Y16.3722
G01 X-10.1473 Y16.4003
G01 X-10.1684 Y16.4088
G01 X-10.2575 Y16.4509
G01 X-10.2709 Y16.4581
G01 X-10.3123 Y16.4828
G01 X-10.3079 Y16.4555
G01 X-10.3054 Y16.4329
G01 X-10.3040 Y16.4053
G01 X-10.3043 Y16.3826
G01 X-10.3061 Y16.3550
G01 X-10.3079 Y16.3400
G01 X-10.3109 Y16.3202
G01 X-10.3156 Y16.2980
G01 X-10.3227 Y16.2713
G01 X-10.3317 Y16.2452
G01 X-10.3401 Y16.2241
G01 X-10.3519 Y16.1991
G01 X-10.3629 Y16.1792
G01 X-10.3774 Y16.1557
G01 X-10.3935 Y16.1333
G01 X-10.4077 Y16.1156
G01 X-10.4265 Y16.0949
G01 X-9.0096 Y16.0949
G00 Z2.0000
G00 X-9.6206 Y18.4176
G01 F120.00
G01 Z-0.0801
G01 F120.00
G01 X-9.6300 Y18.4185
G01 X-9.7180 Y18.4227
G01 X-9.8108 Y18.4181
G01 X-9.9027 Y18.4045
G01 X-9.9928 Y18.3819
G01 X-10.0802 Y18.3506
G01 X-10.1642 Y18.3109
G01 X-10.2439 Y18.2632
G01 X-10.3185 Y18.2079
G01 X-10.3873 Y18.1455
G01 X-10.4497 Y18.0767
G01 X-10.5050 Y18.0021
G01 X-10.5527 Y17.9224
G01 X-10.5924 Y17.8384
G01 X-10.6237 Y17.7510
G01 X-10.6463 Y17.6609
G01 X-10.6599 Y17.5690
G01 X-10.6645 Y17.4762
G01 X-10.6599 Y17.3835
G01 X-10.6463 Y17.2916
G01 X-10.6237 Y17.2015
G01 X-10.5924 Y17.1140
G01 X-10.5527 Y17.0301
G01 X-10.5050 Y16.9504
G01 X-10.4497 Y16.8758
G01 X-10.3873 Y16.8070
G01 X-10.3185 Y16.7446
G01 X-10.2439 Y16.6893
G01 X-10.1642 Y16.6415
G01 X-10.0802 Y16.6018
G01 X-9.9928 Y16.5705
G01 X-9.9027 Y16.5480
G01 X-9.8108 Y16.5343
G01 X-9.7180 Y16.5298
G01 X-9.6253 Y16.5343
G01 X-9.5334 Y16.5480
G01 X-9.4433 Y16.5705
G01 X-9.3558 Y16.6018
G01 X-9.2719 Y16.6415
G01 X-9.1922 Y16.6893
G01 X-9.1176 Y16.7446
G01 X-9.0488 Y16.8070
G01 X-8.9864 Y16.8758
G01 X-8.9311 Y16.9504
G01 X-8.8833 Y17.0301
G01 X-8.8436 Y17.1140
G01 X-8.8123 Y17.2015
G01 X-8.7898 Y17.2916
G01 X-8.7761 Y17.3835
G01 X-8.7716 Y17.4762
G01 X-8.7761 Y17.5690
G01 X-8.7898 Y17.6609
G01 X-8.8123 Y17.7510
G01 X-8.8436 Y17.8384
G01 X-8.8833 Y17.9224
G01 X-8.9311 Y18.0021
G01 X-8.9864 Y18.0767
G01 X-9.0488 Y18.1455
G01 X-9.1176 Y18.2079
G01 X-9.1922 Y18.2632
G01 X-9.2719 Y18.3109
G01 X-9.3558 Y18.3506
G01 X-9.4433 Y18.3819
G01 X-9.5334 Y18.4045
G01 X-9.6206 Y18.4176
G00 Z2.0000
G00 X-9.6050 Y18.5225
G01 F120.00
G01 Z-0.0801
G01 F120.00
G01 X-9.6248 Y18.5244
G01 X-9.7180 Y18.5288
G01 X-9.8212 Y18.5237
G01 X-9.9234 Y18.5086
G01 X-10.0236 Y18.4835
G01 X-10.1208 Y18.4487
G01 X-10.2142 Y18.4045
G01 X-10.3028 Y18.3514
G01 X-10.3858 Y18.2899
G01 X-10.4623 Y18.2205
G01 X-10.5317 Y18.1440
G01 X-10.5932 Y18.0610
G01 X-10.6463 Y17.9724
G01 X-10.6905 Y17.8790
G01 X-10.7253 Y17.7818
G01 X-10.7504 Y17.6816
G01 X-10.7655 Y17.5794
G01 X-10.7706 Y17.4762
G01 X-10.7655 Y17.3731
G01 X-10.7504 Y17.2709
G01 X-10.7253 Y17.1707
G01 X-10.6905 Y17.0734
G01 X-10.6463 Y16.9801
G01 X-10.5932 Y16.8915
G01 X-10.5317 Y16.8085
G01 X-10.4623 Y16.7320
G01 X-10.3858 Y16.6626
G01 X-10.3028 Y16.6011
G01 X-10.2142 Y16.5480
G01 X-10.1208 Y16.5038
G01 X-10.0236 Y16.4690
G01 X-9.9234 Y16.4439
G01 X-9.8212 Y16.4288
G01 X-9.7180 Y16.4237
G01 X-9.6149 Y16.4288
G01 X-9.5127 Y16.4439
G01 X-9.4125 Y16.4690
G01 X-9.3152 Y16.5038
G01 X-9.2219 Y16.5480
G01 X-9.1333 Y16.6011
G01 X-9.0503 Y16.6626
G01 X-8.9738 Y16.7320
G01 X-8.9044 Y16.8085
G01 X-8.8429 Y16.8915
G01 X-8.7898 Y16.9801
G01 X-8.7456 Y17.0734
G01 X-8.7108 Y17.1707
G01 X-8.6857 Y17.2709
G01 X-8.6706 Y17.3731
G01 X-8.6655 Y17.4762
G01 X-8.6706 Y17.5794
G01 X-8.6857 Y17.6816
G01 X-8.7108 Y17.7818
G01 X-8.7456 Y17.8790
G01 X-8.7898 Y17.9724
G01 X-8.8429 Y18.0610
G01 X-8.9044 Y18.1440
G01 X-8.9738 Y18.2205
G01 X-9.0503 Y18.2899
G01 X-9.1333 Y18.3514
G01 X-9.2219 Y18.4045
G01 X-9.3152 Y18.4487
G01 X-9.4125 Y18.4835
G01 X-9.5127 Y18.5086
G01 X-9.6050 Y18.5225
G00 Z2.0000
G00 X-9.5894 Y18.6274
G01 F120.00
G01 Z-0.0801
G01 F120.00
G01 X-9.5069 Y18.6152
G01 X-9.4846 Y18.6110
G01 X-9.3890 Y18.5871
G01 X-9.3745 Y18.5827
G01 X-9.3453 Y18.5723
G01 X-9.3538 Y18.5936
G01 X-9.3627 Y18.6198
G01 X-9.3668 Y18.6344
G01 X-9.3731 Y18.6612
G01 X-9.3776 Y18.6885
G01 X-9.3794 Y18.7035
G01 X-9.3811 Y18.7311
G01 X-9.3815 Y18.7462
G01 X-9.3811 Y18.7614
G01 X-9.3794 Y18.7889
G01 X-9.3757 Y18.8163
G01 X-9.3731 Y18.8312
G01 X-9.3668 Y18.8581
G01 X-9.3627 Y18.8727
G01 X-9.3538 Y18.8988
G01 X-9.3453 Y18.9201
G01 X-9.3745 Y18.9098
G01 X-9.3890 Y18.9054
G01 X-9.4772 Y18.8832
G01 X-9.4994 Y18.8785
G01 X-9.5894 Y18.8650
G01 X-9.6045 Y18.8632
G01 X-9.6196 Y18.8621
G01 X-9.7029 Y18.8580
G01 X-9.7180 Y18.8576
G01 X-9.7332 Y18.8580
G01 X-9.8165 Y18.8621
G01 X-9.8316 Y18.8632
G01 X-9.8466 Y18.8650
G01 X-9.9366 Y18.8785
G01 X-9.9589 Y18.8832
G01 X-10.0471 Y18.9054
G01 X-10.0616 Y18.9098
G01 X-10.0908 Y18.9201
G01 X-10.0823 Y18.8988
G01 X-10.0733 Y18.8727
G01 X-10.0693 Y18.8581
G01 X-10.0629 Y18.8312
G01 X-10.0585 Y18.8040
G01 X-10.0567 Y18.7889
G01 X-10.0549 Y18.7614
G01 X-10.0546 Y18.7462
G01 X-10.0549 Y18.7311
G01 X-10.0567 Y18.7035
G01 X-10.0604 Y18.6762
G01 X-10.0629 Y18.6612
G01 X-10.0693 Y18.6344
G01 X-10.0733 Y18.6198
G01 X-10.0823 Y18.5936
G01 X-10.0908 Y18.5723
G01 X-10.0616 Y18.5827
G01 X-10.0471 Y18.5871
G01 X-9.9515 Y18.6110
G01 X-9.9292 Y18.6152
G01 X-9.8466 Y18.6274
G01 X-9.8316 Y18.6293
G01 X-9.8165 Y18.6304
G01 X-9.7332 Y18.6345
G01 X-9.7180 Y18.6349
G01 X-9.7029 Y18.6345
G01 X-9.6196 Y18.6304
G01 X-9.6045 Y18.6293
G01 X-9.5894 Y18.6274
G00 Z2.0000
G00 X-9.6206 Y20.9576
G01 F120.00
G01 Z-0.0801
G01 F120.00
G01 X-9.6300 Y20.9585
G01 X-9.7180 Y20.9627
G01 X-9.8108 Y20.9581
G01 X-9.9027 Y20.9445
G01 X-9.9928 Y20.9219
G01 X-10.0802 Y20.8906
G01 X-10.1642 Y20.8509
G01 X-10.2439 Y20.8032
G01 X-10.3185 Y20.7479
G01 X-10.3873 Y20.6855
G01 X-10.4497 Y20.6167
G01 X-10.5050 Y20.5421
G01 X-10.5527 Y20.4624
G01 X-10.5924 Y20.3784
G01 X-10.6237 Y20.2910
G01 X-10.6463 Y20.2009
G01 X-10.6599 Y20.1090
G01 X-10.6645 Y20.0162
G01 X-10.6599 Y19.9235
G01 X-10.6463 Y19.8316
G01 X-10.6237 Y19.7415
G01 X-10.5924 Y19.6540
G01 X-10.5527 Y19.5701
G01 X-10.5050 Y19.4904
G01 X-10.4497 Y19.4158
G01 X-10.3873 Y19.3470
G01 X-10.3185 Y19.2846
G01 X-10.2439 Y19.2293
G01 X-10.1642 Y19.1815
G01 X-10.0802 Y19.1418
G01 X-9.9928 Y19.1105
G01 X-9.9027 Y19.0880
G01 X-9.8108 Y19.0743
G01 X-9.7180 Y19.0698
G01 X-9.6253 Y19.0743
G01 X-9.5334 Y19.0880
G01 X-9.4433 Y19.1105
G01 X-9.3558 Y19.1418
G01 X-9.2719 Y19.1815
G01 X-9.1922 Y19.2293
G01 X-9.1176 Y19.2846
G01 X-9.0488 Y19.3470
G01 X-8.9864 Y19.4158
G01 X-8.9311 Y19.4904
G01 X-8.8833 Y19.5701
G01 X-8.8436 Y19.6540
G01 X-8.8123 Y19.7415
G01 X-8.7898 Y19.8316
G01 X-8.7761 Y19.9235
G01 X-8.7716 Y20.0162
G01 X-8.7761 Y20.1090
G01 X-8.7898 Y20.2009
G01 X-8.8123 Y20.2910
G01 X-8.8436 Y20.3784
G01 X-8.8833 Y20.4624
G01 X-8.9311 Y20.5421
G01 X-8.9864 Y20.6167
G01 X-9.0488 Y20.6855
G01 X-9.1176 Y20.7479
G01 X-9.1922 Y20.8032
G01 X-9.2719 Y20.8509
G01 X-9.3558 Y20.8906
G01 X-9.4433 Y20.9219
G01 X-9.5334 Y20.9445
G01 X-9.6206 Y20.9576
G00 Z2.0000
G00 X-9.6050 Y21.0625
G01 F120.00
G01 Z-0.0801
G01 F120.00
G01 X-9.6248 Y21.0644
G01 X-9.7180 Y21.0688
G01 X-9.8212 Y21.0637
G01 X-9.9234 Y21.0486
G01 X-10.0236 Y21.0235
G01 X-10.1208 Y20.9887
G01 X-10.2142 Y20.9445
G01 X-10.3028 Y20.8914
G01 X-10.3858 Y20.8299
G01 X-10.4623 Y20.7605
G01 X-10.5317 Y20.6840
G01 X-10.5932 Y20.6010
G01 X-10.6463 Y20.5124
G01 X-10.6905 Y20.4190
G01 X-10.7253 Y20.3218
G01 X-10.7504 Y20.2216
G01 X-10.7655 Y20.1194
G01 X-10.7706 Y20.0162
G01 X-10.7655 Y19.9131
G01 X-10.7504 Y19.8109
G01 X-10.7253 Y19.7107
G01 X-10.6905 Y19.6134
G01 X-10.6463 Y19.5201
G01 X-10.5932 Y19.4315
G01 X-10.5317 Y19.3485
G01 X-10.4623 Y19.2720
G01 X-10.3858 Y19.2026
G01 X-10.3028 Y19.1411
G01 X-10.2142 Y19.0880
G01 X-10.1208 Y19.0438
G01 X-10.0236 Y19.0090
G01 X-9.9234 Y18.9839
G01 X-9.8212 Y18.9688
G01 X-9.7180 Y18.9637
G01 X-9.6149 Y18.9688
G01 X-9.5127 Y18.9839
G01 X-9.4125 Y19.0090
G01 X-9.3152 Y19.0438
G01 X-9.2219 Y19.0880
G01 X-9.1333 Y19.1411
G01 X-9.0503 Y19.2026
G01 X-8.9738 Y19.2720
G01 X-8.9044 Y19.3485
G01 X-8.8429 Y19.4315
G01 X-8.7898 Y19.5201
G01 X-8.7456 Y19.6134
G01 X-8.7108 Y19.7107
G01 X-8.6857 Y19.8109
G01 X-8.6706 Y19.9131
G01 X-8.6655 Y20.0162
G01 X-8.6706 Y20.1194
G01 X-8.6857 Y20.2216
G01 X-8.7108 Y20.3218
G01 X-8.7456 Y20.4190
G01 X-8.7898 Y20.5124
G01 X-8.8429 Y20.6010
G01 X-8.9044 Y20.6840
G01 X-8.9738 Y20.7605
G01 X-9.0503 Y20.8299
G01 X-9.1333 Y20.8914
G01 X-9.2219 Y20.9445
G01 X-9.3152 Y20.9887
G01 X-9.4125 Y21.0235
G01 X-9.5127 Y21.0486
G01 X-9.6050 Y21.0625
G00 Z2.0000
G00 X-9.5894 Y21.1674
G01 F120.00
G01 Z-0.0801
G01 F120.00
G01 X-9.5069 Y21.1552
G01 X-9.4846 Y21.1510
G01 X-9.3890 Y21.1271
G01 X-9.3745 Y21.1227
G01 X-9.3453 Y21.1123
G01 X-9.3538 Y21.1336
G01 X-9.3627 Y21.1598
G01 X-9.3698 Y21.1865
G01 X-9.3731 Y21.2012
G01 X-9.3757 Y21.2162
G01 X-9.3794 Y21.2435
G01 X-9.3811 Y21.2711
G01 X-9.3815 Y21.2862
G01 X-9.3811 Y21.3014
G01 X-9.3794 Y21.3289
G01 X-9.3757 Y21.3563
G01 X-9.3731 Y21.3712
G01 X-9.3698 Y21.3860
G01 X-9.3627 Y21.4127
G01 X-9.3538 Y21.4388
G01 X-9.3453 Y21.4601
G01 X-9.3745 Y21.4498
G01 X-9.3890 Y21.4454
G01 X-9.4772 Y21.4232
G01 X-9.4994 Y21.4185
G01 X-9.5894 Y21.4050
G01 X-9.6045 Y21.4032
G01 X-9.6196 Y21.4021
G01 X-9.7029 Y21.3980
G01 X-9.7180 Y21.3976
G01 X-9.7332 Y21.3980
G01 X-9.8165 Y21.4021
G01 X-9.8316 Y21.4032
G01 X-9.8466 Y21.4050
G01 X-9.9366 Y21.4185
G01 X-9.9589 Y21.4232
G01 X-10.0471 Y21.4454
G01 X-10.0616 Y21.4498
G01 X-10.0908 Y21.4601
G01 X-10.0823 Y21.4388
G01 X-10.0733 Y21.4127
G01 X-10.0663 Y21.3860
G01 X-10.0629 Y21.3712
G01 X-10.0604 Y21.3563
G01 X-10.0567 Y21.3289
G01 X-10.0549 Y21.3014
G01 X-10.0546 Y21.2862
G01 X-10.0549 Y21.2711
G01 X-10.0567 Y21.2435
G01 X-10.0604 Y21.2162
G01 X-10.0629 Y21.2012
G01 X-10.0663 Y21.1865
G01 X-10.0733 Y21.1598
G01 X-10.0823 Y21.1336
G01 X-10.0908 Y21.1123
G01 X-10.0616 Y21.1227
G01 X-10.0471 Y21.1271
G01 X-9.9515 Y21.1510
G01 X-9.9292 Y21.1552
G01 X-9.8466 Y21.1674
G01 X-9.8316 Y21.1693
G01 X-9.8165 Y21.1704
G01 X-9.7332 Y21.1745
G01 X-9.7180 Y21.1749
G01 X-9.7029 Y21.1745
G01 X-9.6196 Y21.1704
G01 X-9.6045 Y21.1693
G01 X-9.5894 Y21.1674
G00 Z2.0000
G00 X-8.5785 Y22.0475
G01 F120.00
G01 Z-0.0801
G01 F120.00
G01 X-8.6781 Y22.0475
G01 X-8.6953 Y22.0119
G01 X-8.6757 Y22.0167
G01 X-8.6608 Y22.0196
G01 X-8.6410 Y22.0227
G01 X-8.6260 Y22.0245
G01 X-8.6109 Y22.0256
G01 X-8.5908 Y22.0265
G01 X-8.5757 Y22.0265
G01 X-8.5566 Y22.0257
G01 X-8.5785 Y22.0475
G00 Z2.0000
G00 X-9.6229 Y23.4979
G01 F120.00
G01 Z-0.0801
G01 F120.00
G01 X-9.7133 Y23.5026
G01 X-9.7228 Y23.5026
G01 X-9.8108 Y23.4981
G01 X-9.9027 Y23.4845
G01 X-9.9928 Y23.4619
G01 X-10.0758 Y23.4323
G01 X-10.0846 Y23.4287
G01 X-10.1642 Y23.3909
G01 X-10.2439 Y23.3432
G01 X-10.3147 Y23.2908
G01 X-10.3220 Y23.2848
G01 X-10.3873 Y23.2255
G01 X-10.4497 Y23.1567
G01 X-10.5023 Y23.0859
G01 X-10.5075 Y23.0781
G01 X-10.5504 Y23.0065
G01 X-10.5549 Y22.9982
G01 X-10.5924 Y22.9184
G01 X-10.6223 Y22.8355
G01 X-10.6250 Y22.8264
G01 X-10.6453 Y22.7455
G01 X-10.6471 Y22.7362
G01 X-10.6599 Y22.6490
G01 X-10.6645 Y22.5562
G01 X-10.6599 Y22.4635
G01 X-10.6471 Y22.3763
G01 X-10.6453 Y22.3670
G01 X-10.6250 Y22.2861
G01 X-10.6223 Y22.2770
G01 X-10.5924 Y22.1940
G01 X-10.5527 Y22.1101
G01 X-10.5075 Y22.0344
G01 X-10.5023 Y22.0266
G01 X-10.4497 Y21.9558
G01 X-10.3873 Y21.8870
G01 X-10.3220 Y21.8277
G01 X-10.3147 Y21.8217
G01 X-10.2439 Y21.7693
G01 X-10.1683 Y21.7239
G01 X-10.1600 Y21.7194
G01 X-10.0802 Y21.6818
G01 X-9.9928 Y21.6505
G01 X-9.9027 Y21.6280
G01 X-9.8155 Y21.6149
G01 X-9.8061 Y21.6140
G01 X-9.7180 Y21.6098
G01 X-9.6300 Y21.6140
G01 X-9.6206 Y21.6149
G01 X-9.5334 Y21.6280
G01 X-9.4479 Y21.6493
G01 X-9.4388 Y21.6520
G01 X-9.3558 Y21.6818
G01 X-9.2761 Y21.7194
G01 X-9.2678 Y21.7239
G01 X-9.1922 Y21.7693
G01 X-9.1214 Y21.8217
G01 X-9.1140 Y21.8277
G01 X-9.0488 Y21.8870
G01 X-8.9895 Y21.9522
G01 X-8.9835 Y21.9596
G01 X-8.9311 Y22.0304
G01 X-8.8857 Y22.1060
G01 X-8.8812 Y22.1143
G01 X-8.8436 Y22.1940
G01 X-8.8200 Y22.2597
G01 X-8.4906 Y22.2597
G01 X-7.0631 Y20.8323
G01 X-7.0451 Y20.8159
G01 X-7.0395 Y20.8115
G01 X-7.0199 Y20.7971
G01 X-6.9991 Y20.7844
G01 X-6.9907 Y20.7800
G01 X-6.9686 Y20.7697
G01 X-6.9390 Y20.7592
G01 X-6.9130 Y20.7528
G01 X-6.8889 Y20.7491
G01 X-6.8795 Y20.7482
G01 X-6.8551 Y20.7471
G01 X0.4610 Y20.7471
G01 X0.4900 Y20.7485
G01 X0.5165 Y20.7524
G01 X0.5425 Y20.7586
G01 X0.5515 Y20.7613
G01 X0.5744 Y20.7697
G01 X0.6008 Y20.7821
G01 X0.6217 Y20.7945
G01 X0.6296 Y20.7998
G01 X0.6491 Y20.8144
G01 X0.6690 Y20.8323
G01 X2.6637 Y22.8269
G01 X2.6801 Y22.8449
G01 X2.6861 Y22.8522
G01 X2.7018 Y22.8739
G01 X2.7155 Y22.8968
G01 X2.7270 Y22.9210
G01 X2.7363 Y22.9461
G01 X2.7390 Y22.9551
G01 X2.7448 Y22.9788
G01 X2.7488 Y23.0052
G01 X2.7505 Y23.0366
G01 X2.7505 Y23.4454
G01 X4.6035 Y25.2984
G01 X4.6364 Y25.2831
G01 X4.7158 Y25.2549
G01 X4.7953 Y25.2351
G01 X4.8763 Y25.2230
G01 X4.9580 Y25.2187
G01 X4.9675 Y25.2187
G01 X5.0469 Y25.2227
G01 X5.1279 Y25.2347
G01 X5.2074 Y25.2543
G01 X5.2164 Y25.2570
G01 X5.2913 Y25.2839
G01 X5.3674 Y25.3200
G01 X5.4397 Y25.3633
G01 X5.5036 Y25.4105
G01 X5.5109 Y25.4165
G01 X5.5714 Y25.4717
G01 X5.6233 Y25.5289
G01 X5.6293 Y25.5362
G01 X5.6765 Y25.6001
G01 X5.7175 Y25.6683
G01 X5.7220 Y25.6766
G01 X5.7559 Y25.7485
G01 X5.7842 Y25.8278
G01 X5.8047 Y25.9096
G01 X5.8165 Y25.9882
G01 X5.8174 Y25.9976
G01 X5.8212 Y26.0770
G01 X5.8174 Y26.1565
G01 X5.8165 Y26.1659
G01 X5.8051 Y26.2422
G01 X5.7855 Y26.3217
G01 X5.7828 Y26.3307
G01 X5.7559 Y26.4056
G01 X5.7220 Y26.4775
G01 X5.7175 Y26.4858
G01 X5.6765 Y26.5540
G01 X5.6293 Y26.6179
G01 X5.6233 Y26.6252
G01 X5.5698 Y26.6841
G01 X5.5109 Y26.7375
G01 X5.5036 Y26.7435
G01 X5.4397 Y26.7908
G01 X5.3715 Y26.8318
G01 X5.3632 Y26.8363
G01 X5.2913 Y26.8701
G01 X5.2164 Y26.8970
G01 X5.2074 Y26.8998
G01 X5.1302 Y26.9190
G01 X5.0516 Y26.9308
G01 X5.0422 Y26.9317
G01 X4.9628 Y26.9355
G01 X4.8833 Y26.9317
G01 X4.8739 Y26.9308
G01 X4.7953 Y26.9190
G01 X4.7181 Y26.8998
G01 X4.7091 Y26.8970
G01 X4.6342 Y26.8701
G01 X4.5623 Y26.8363
G01 X4.5540 Y26.8318
G01 X4.4858 Y26.7908
G01 X4.4219 Y26.7435
G01 X4.4146 Y26.7375
G01 X4.3557 Y26.6841
G01 X4.2992 Y26.6216
G01 X4.2490 Y26.5540
G01 X4.2080 Y26.4858
G01 X4.2035 Y26.4775
G01 X4.1716 Y26.4099
G01 X4.1680 Y26.4011
G01 X4.1413 Y26.3262
G01 X4.1213 Y26.2468
G01 X4.1084 Y26.1612
G01 X4.1044 Y26.0818
G01 X4.1044 Y26.0723
G01 X4.1087 Y25.9905
G01 X4.1208 Y25.9096
G01 X4.1406 Y25.8301
G01 X4.1688 Y25.7507
G01 X4.1841 Y25.7177
G01 X2.2443 Y23.7779
G01 X2.2262 Y23.7582
G01 X2.2101 Y23.7369
G01 X2.2049 Y23.7290
G01 X2.1924 Y23.7080
G01 X2.1800 Y23.6817
G01 X2.1717 Y23.6588
G01 X2.1689 Y23.6498
G01 X2.1631 Y23.6261
G01 X2.1591 Y23.5997
G01 X2.1574 Y23.5682
G01 X2.1574 Y23.1595
G01 X0.3381 Y21.3402
G01 X-6.7323 Y21.3402
G01 X-8.1580 Y22.7659
G01 X-8.1760 Y22.7824
G01 X-8.1833 Y22.7884
G01 X-8.2030 Y22.8028
G01 X-8.2238 Y22.8154
G01 X-8.2322 Y22.8199
G01 X-8.2543 Y22.8302
G01 X-8.2817 Y22.8400
G01 X-8.3053 Y22.8461
G01 X-8.3146 Y22.8479
G01 X-8.3387 Y22.8514
G01 X-8.3677 Y22.8528
G01 X-8.8200 Y22.8528
G01 X-8.8436 Y22.9184
G01 X-8.8812 Y22.9982
G01 X-8.8857 Y23.0065
G01 X-8.9311 Y23.0821
G01 X-8.9864 Y23.1567
G01 X-9.0455 Y23.2221
G01 X-9.0522 Y23.2287
G01 X-9.1176 Y23.2879
G01 X-9.1922 Y23.3432
G01 X-9.2678 Y23.3886
G01 X-9.2761 Y23.3931
G01 X-9.3558 Y23.4306
G01 X-9.4388 Y23.4605
G01 X-9.4479 Y23.4632
G01 X-9.5334 Y23.4845
G01 X-9.6229 Y23.4979
G00 Z2.0000
G00 X-9.6099 Y23.6032
G01 F120.00
G01 Z-0.0801
G01 F120.00
G01 X-9.6248 Y23.6044
G01 X-9.7081 Y23.6085
G01 X-9.7280 Y23.6085
G01 X-9.8212 Y23.6037
G01 X-9.9234 Y23.5886
G01 X-10.0236 Y23.5635
G01 X-10.1116 Y23.5322
G01 X-10.1299 Y23.5246
G01 X-10.2142 Y23.4845
G01 X-10.3028 Y23.4314
G01 X-10.3779 Y23.3760
G01 X-10.3933 Y23.3634
G01 X-10.4623 Y23.3005
G01 X-10.5317 Y23.2240
G01 X-10.5875 Y23.1491
G01 X-10.5985 Y23.1326
G01 X-10.6463 Y23.0524
G01 X-10.6864 Y22.9681
G01 X-10.6940 Y22.9498
G01 X-10.7253 Y22.8618
G01 X-10.7504 Y22.7616
G01 X-10.7643 Y22.6693
G01 X-10.7662 Y22.6495
G01 X-10.7706 Y22.5562
G01 X-10.7655 Y22.4531
G01 X-10.7504 Y22.3509
G01 X-10.7279 Y22.2603
G01 X-10.7221 Y22.2413
G01 X-10.6905 Y22.1534
G01 X-10.6463 Y22.0601
G01 X-10.5985 Y21.9799
G01 X-10.5875 Y21.9633
G01 X-10.5378 Y21.8963
G01 X-10.5252 Y21.8810
G01 X-10.4692 Y21.8192
G01 X-10.4551 Y21.8051
G01 X-10.3858 Y21.7426
G01 X-10.3109 Y21.6868
G01 X-10.2944 Y21.6758
G01 X-10.2142 Y21.6280
G01 X-10.1208 Y21.5838
G01 X-10.0330 Y21.5521
G01 X-10.0140 Y21.5464
G01 X-9.9234 Y21.5239
G01 X-9.8311 Y21.5100
G01 X-9.8113 Y21.5080
G01 X-9.7180 Y21.5037
G01 X-9.6248 Y21.5080
G01 X-9.6050 Y21.5100
G01 X-9.5127 Y21.5239
G01 X-9.4221 Y21.5464
G01 X-9.4031 Y21.5521
G01 X-9.3152 Y21.5838
G01 X-9.2308 Y21.6235
G01 X-9.2132 Y21.6329
G01 X-9.1333 Y21.6811
G01 X-9.0581 Y21.7365
G01 X-9.0428 Y21.7491
G01 X-8.9738 Y21.8120
G01 X-8.9109 Y21.8810
G01 X-8.8983 Y21.8963
G01 X-8.8429 Y21.9715
G01 X-8.7947 Y22.0514
G01 X-8.7853 Y22.0690
G01 X-8.7456 Y22.1536
G01 X-8.5345 Y22.1536
G01 X-7.1363 Y20.7555
G01 X-7.1144 Y20.7356
G01 X-7.1027 Y20.7263
G01 X-7.0788 Y20.7089
G01 X-7.0536 Y20.6934
G01 X-7.0405 Y20.6862
G01 X-7.0138 Y20.6736
G01 X-7.0000 Y20.6681
G01 X-6.9720 Y20.6583
G01 X-6.9337 Y20.6487
G01 X-6.9045 Y20.6442
G01 X-6.8897 Y20.6425
G01 X-6.8551 Y20.6410
G01 X0.4610 Y20.6410
G01 X0.5004 Y20.6429
G01 X0.5346 Y20.6478
G01 X0.5492 Y20.6509
G01 X0.5731 Y20.6569
G01 X0.5826 Y20.6598
G01 X0.6150 Y20.6716
G01 X0.6464 Y20.6862
G01 X0.6551 Y20.6909
G01 X0.6763 Y20.7035
G01 X0.6888 Y20.7117
G01 X0.7164 Y20.7324
G01 X0.7421 Y20.7555
G01 X2.7387 Y22.7519
G01 X2.7587 Y22.7737
G01 X2.7713 Y22.7890
G01 X2.7859 Y22.8088
G01 X2.7915 Y22.8171
G01 X2.8091 Y22.8468
G01 X2.8219 Y22.8735
G01 X2.8278 Y22.8872
G01 X2.8393 Y22.9198
G01 X2.8478 Y22.9532
G01 X2.8506 Y22.9679
G01 X2.8547 Y22.9972
G01 X2.8565 Y23.0317
G01 X2.8566 Y23.4015
G01 X4.6284 Y25.1732
G01 X4.6828 Y25.1540
G01 X4.7697 Y25.1321
G01 X4.7844 Y25.1293
G01 X4.8584 Y25.1184
G01 X4.8732 Y25.1167
G01 X4.9628 Y25.1125
G01 X5.0474 Y25.1164
G01 X5.0672 Y25.1184
G01 X5.1411 Y25.1293
G01 X5.1558 Y25.1321
G01 X5.2428 Y25.1540
G01 X5.3226 Y25.1823
G01 X5.3410 Y25.1899
G01 X5.4174 Y25.2264
G01 X5.4986 Y25.2751
G01 X5.5668 Y25.3253
G01 X5.5822 Y25.3379
G01 X5.6376 Y25.3881
G01 X5.6483 Y25.3986
G01 X5.7019 Y25.4576
G01 X5.7145 Y25.4730
G01 X5.7647 Y25.5412
G01 X5.8085 Y25.6137
G01 X5.8179 Y25.6312
G01 X5.8539 Y25.7079
G01 X5.8858 Y25.7970
G01 X5.9088 Y25.8889
G01 X5.9214 Y25.9726
G01 X5.9234 Y25.9924
G01 X5.9273 Y26.0770
G01 X5.9234 Y26.1617
G01 X5.9214 Y26.1814
G01 X5.9097 Y26.2603
G01 X5.9066 Y26.2749
G01 X5.8858 Y26.3570
G01 X5.8575 Y26.4369
G01 X5.8499 Y26.4552
G01 X5.8134 Y26.5317
G01 X5.7701 Y26.6045
G01 X5.7590 Y26.6210
G01 X5.7084 Y26.6889
G01 X5.6517 Y26.7519
G01 X5.6376 Y26.7659
G01 X5.5747 Y26.8226
G01 X5.5068 Y26.8733
G01 X5.4902 Y26.8843
G01 X5.4174 Y26.9277
G01 X5.3410 Y26.9641
G01 X5.3226 Y26.9717
G01 X5.2428 Y27.0001
G01 X5.1606 Y27.0209
G01 X5.1411 Y27.0248
G01 X5.0573 Y27.0369
G01 X4.9727 Y27.0413
G01 X4.9528 Y27.0413
G01 X4.8682 Y27.0369
G01 X4.7844 Y27.0248
G01 X4.7649 Y27.0209
G01 X4.6828 Y27.0001
G01 X4.6029 Y26.9717
G01 X4.5846 Y26.9641
G01 X4.5081 Y26.9277
G01 X4.4353 Y26.8843
G01 X4.4188 Y26.8733
G01 X4.3587 Y26.8288
G01 X4.3471 Y26.8194
G01 X4.2807 Y26.7591
G01 X4.2237 Y26.6965
G01 X4.2110 Y26.6811
G01 X4.1608 Y26.6129
G01 X4.1121 Y26.5317
G01 X4.0757 Y26.4552
G01 X4.0681 Y26.4369
G01 X4.0429 Y26.3665
G01 X4.0384 Y26.3523
G01 X4.0167 Y26.2652
G01 X4.0041 Y26.1814
G01 X4.0021 Y26.1617
G01 X3.9985 Y26.0870
G01 X3.9983 Y26.0721
G01 X4.0029 Y25.9825
G01 X4.0158 Y25.8938
G01 X4.0189 Y25.8792
G01 X4.0384 Y25.8018
G01 X4.0429 Y25.7876
G01 X4.0590 Y25.7427
G01 X2.1692 Y23.8530
G01 X2.1459 Y23.8275
G01 X2.1396 Y23.8198
G01 X2.1249 Y23.8001
G01 X2.1165 Y23.7878
G01 X2.0989 Y23.7580
G01 X2.0860 Y23.7314
G01 X2.0801 Y23.7177
G01 X2.0687 Y23.6851
G01 X2.0601 Y23.6517
G01 X2.0574 Y23.6370
G01 X2.0533 Y23.6077
G01 X2.0514 Y23.5732
G01 X2.0513 Y23.2034
G01 X0.2942 Y21.4463
G01 X-6.6884 Y21.4463
G01 X-8.0830 Y22.8410
G01 X-8.1123 Y22.8675
G01 X-8.1359 Y22.8853
G01 X-8.1482 Y22.8937
G01 X-8.1779 Y22.9113
G01 X-8.2046 Y22.9242
G01 X-8.2183 Y22.9301
G01 X-8.2509 Y22.9415
G01 X-8.2795 Y22.9490
G01 X-8.2941 Y22.9521
G01 X-8.3233 Y22.9564
G01 X-8.3382 Y22.9577
G01 X-8.3677 Y22.9589
G01 X-8.7456 Y22.9589
G01 X-8.7853 Y23.0435
G01 X-8.7947 Y23.0611
G01 X-8.8429 Y23.1410
G01 X-8.8983 Y23.2161
G01 X-8.9109 Y23.2315
G01 X-8.9738 Y23.3005
G01 X-9.0428 Y23.3634
G01 X-9.0581 Y23.3760
G01 X-9.1333 Y23.4314
G01 X-9.2132 Y23.4796
G01 X-9.2308 Y23.4890
G01 X-9.3152 Y23.5287
G01 X-9.4031 Y23.5603
G01 X-9.4221 Y23.5661
G01 X-9.5127 Y23.5886
G01 X-9.6099 Y23.6032
G00 Z2.0000
G00 X-12.3750 Y25.8393
G01 F120.00
G01 Z-0.0801
G01 F120.00
G01 X-12.3758 Y25.8218
G01 X-12.3758 Y-1.9714
G01 X-12.3749 Y-1.9904
G01 X-12.3742 Y-1.9972
G01 X-12.3717 Y-2.0137
G01 X-12.3667 Y-2.0344
G01 X-12.3598 Y-2.0545
G01 X-12.3529 Y-2.0697
G01 X-12.3487 Y-2.0778
G01 X-12.3415 Y-2.0903
G01 X-12.3378 Y-2.0960
G01 X-12.3280 Y-2.1095
G01 X-12.3141 Y-2.1256
G01 X-12.2987 Y-2.1403
G01 X-12.2857 Y-2.1507
G01 X-12.2782 Y-2.1560
G01 X-12.2622 Y-2.1660
G01 X-12.2453 Y-2.1747
G01 X-12.2277 Y-2.1818
G01 X-12.2096 Y-2.1874
G01 X-12.2007 Y-2.1896
G01 X-12.1843 Y-2.1926
G01 X-12.1632 Y-2.1947
G01 X-5.8635 Y-2.5026
G01 X-5.8435 Y-2.5026
G01 X-5.8363 Y-2.5022
G01 X-5.8189 Y-2.5003
G01 X-5.7969 Y-2.4958
G01 X-5.7779 Y-2.4900
G01 X-5.7711 Y-2.4874
G01 X-5.7550 Y-2.4804
G01 X-5.7354 Y-2.4697
G01 X-5.7170 Y-2.4570
G01 X-5.6999 Y-2.4426
G01 X-5.6843 Y-2.4265
G01 X-5.6719 Y-2.4109
G01 X-5.6678 Y-2.4049
G01 X-5.6584 Y-2.3901
G01 X-5.6504 Y-2.3745
G01 X-5.6474 Y-2.3679
G01 X-5.6419 Y-2.3538
G01 X-5.6395 Y-2.3470
G01 X-5.6349 Y-2.3300
G01 X-5.6309 Y-2.3080
G01 X-5.3003 Y0.4802
G01 X-5.2987 Y0.5065
G01 X-5.2987 Y1.5220
G01 X-5.2996 Y1.5415
G01 X-5.3010 Y1.5556
G01 X-5.2920 Y1.6461
G01 X-5.2657 Y1.7331
G01 X-5.2228 Y1.8133
G01 X-5.1687 Y1.8793
G01 X-5.1587 Y1.8926
G01 X-5.1550 Y1.8984
G01 X-5.1464 Y1.9126
G01 X-5.1391 Y1.9276
G01 X-5.1364 Y1.9338
G01 X-5.1299 Y1.9516
G01 X-5.1244 Y1.9721
G01 X-5.1209 Y1.9930
G01 X-5.0807 Y2.3324
G01 X49.3975 Y2.0844
G01 X49.4171 Y2.0852
G01 X49.4241 Y2.0860
G01 X49.4411 Y2.0885
G01 X49.4624 Y2.0937
G01 X49.4809 Y2.1002
G01 X49.4875 Y2.1029
G01 X49.5030 Y2.1103
G01 X49.5219 Y2.1215
G01 X49.5395 Y2.1345
G01 X49.5524 Y2.1459
G01 X49.5575 Y2.1508
G01 X49.5707 Y2.1653
G01 X49.5838 Y2.1829
G01 X49.5928 Y2.1975
G01 X49.5973 Y2.2058
G01 X49.6055 Y2.2236
G01 X49.6121 Y2.2420
G01 X49.6176 Y2.2633
G01 X49.6209 Y2.2849
G01 X49.6221 Y2.3068
G01 X49.7884 Y35.7525
G01 X49.7877 Y35.7722
G01 X49.7869 Y35.7793
G01 X49.7843 Y35.7964
G01 X49.7790 Y35.8178
G01 X49.7717 Y35.8386
G01 X49.7644 Y35.8543
G01 X49.7612 Y35.8606
G01 X49.7510 Y35.8775
G01 X49.7379 Y35.8952
G01 X49.7264 Y35.9081
G01 X49.7214 Y35.9132
G01 X49.7068 Y35.9264
G01 X49.6891 Y35.9395
G01 X49.6743 Y35.9485
G01 X49.6659 Y35.9530
G01 X49.6480 Y35.9611
G01 X49.6294 Y35.9677
G01 X49.6080 Y35.9730
G01 X49.5862 Y35.9762
G01 X49.5642 Y35.9772
G01 X1.2700 Y35.8154
G01 X1.2486 Y35.8143
G01 X1.2275 Y35.8112
G01 X1.2067 Y35.8061
G01 X1.1886 Y35.7998
G01 X1.1712 Y35.7920
G01 X1.1630 Y35.7877
G01 X1.1486 Y35.7791
G01 X1.1313 Y35.7666
G01 X1.1152 Y35.7524
G01 X1.1036 Y35.7403
G01 X1.0991 Y35.7350
G01 X1.0875 Y35.7199
G01 X1.0773 Y35.7038
G01 X1.0739 Y35.6977
G01 X1.0665 Y35.6826
G01 X1.0587 Y35.6627
G01 X1.0529 Y35.6421
G01 X1.0499 Y35.6256
G01 X1.0489 Y35.6187
G01 X1.0474 Y35.5997
G01 X0.6244 Y23.4243
G01 X0.6242 Y22.6113
G01 X0.6251 Y22.5918
G01 X0.6259 Y22.5847
G01 X0.6285 Y22.5677
G01 X0.6332 Y22.5487
G01 X0.6413 Y22.5258
G01 X0.6506 Y22.5059
G01 X0.6619 Y22.4871
G01 X0.6735 Y22.4714
G01 X0.6781 Y22.4659
G01 X0.6881 Y22.4550
G01 X0.6931 Y22.4500
G01 X0.7060 Y22.4385
G01 X0.7197 Y22.4282
G01 X0.7256 Y22.4242
G01 X0.7424 Y22.4142
G01 X0.7622 Y22.4048
G01 X0.7829 Y22.3974
G01 X0.8018 Y22.3926
G01 X0.8088 Y22.3913
G01 X0.8259 Y22.3889
G01 X0.8430 Y22.3879
G01 X0.8501 Y22.3878
G01 X0.8649 Y22.3885
G01 X0.8720 Y22.3891
G01 X0.8914 Y22.3921
G01 X0.9126 Y22.3974
G01 X0.9333 Y22.4048
G01 X0.9510 Y22.4131
G01 X0.9572 Y22.4165
G01 X0.9719 Y22.4255
G01 X0.9858 Y22.4356
G01 X0.9914 Y22.4401
G01 X1.0058 Y22.4533
G01 X1.7770 Y23.2245
G01 X1.7902 Y23.2389
G01 X1.7947 Y23.2444
G01 X1.8048 Y23.2583
G01 X1.8161 Y23.2771
G01 X1.8255 Y23.2970
G01 X1.8314 Y23.3131
G01 X1.8335 Y23.3199
G01 X1.8371 Y23.3343
G01 X1.8390 Y23.3436
G01 X1.8414 Y23.3606
G01 X1.8425 Y23.3825
G01 X1.8424 Y23.5296
G01 X1.8416 Y23.5468
G01 X1.8395 Y23.5682
G01 X1.8513 Y23.6881
G01 X1.8863 Y23.8034
G01 X1.9431 Y23.9096
G01 X2.0195 Y24.0027
G01 X2.0361 Y24.0164
G01 X2.0506 Y24.0296
G01 X3.7368 Y25.7159
G01 X3.7500 Y25.7303
G01 X3.7545 Y25.7359
G01 X3.7646 Y25.7498
G01 X3.7759 Y25.7686
G01 X3.7853 Y25.7884
G01 X3.7920 Y25.8068
G01 X3.7939 Y25.8136
G01 X3.7980 Y25.8303
G01 X3.8006 Y25.8473
G01 X3.8014 Y25.8544
G01 X3.8023 Y25.8716
G01 X3.8016 Y25.8911
G01 X3.8006 Y25.9005
G01 X3.7980 Y25.9175
G01 X3.7893 Y25.9615
G01 X3.7893 Y26.1926
G01 X3.8344 Y26.4193
G01 X3.9228 Y26.6329
G01 X4.0513 Y26.8251
G01 X4.2147 Y26.9885
G01 X4.2344 Y27.0028
G01 X4.2491 Y27.0157
G01 X4.2542 Y27.0207
G01 X4.2642 Y27.0317
G01 X4.2702 Y27.0390
G01 X4.2803 Y27.0529
G01 X4.2905 Y27.0696
G01 X4.2937 Y27.0759
G01 X4.3019 Y27.0937
G01 X4.3084 Y27.1122
G01 X4.3127 Y27.1288
G01 X4.3145 Y27.1381
G01 X4.3171 Y27.1575
G01 X4.3180 Y27.1770
G01 X4.3169 Y27.1989
G01 X4.3137 Y27.2206
G01 X4.3096 Y27.2374
G01 X4.3077 Y27.2442
G01 X4.3027 Y27.2582
G01 X4.2991 Y27.2669
G01 X4.2905 Y27.2845
G01 X4.2790 Y27.3032
G01 X4.2673 Y27.3188
G01 X4.2525 Y27.3351
G01 X4.2363 Y27.3498
G01 X4.2225 Y27.3602
G01 X4.2147 Y27.3655
G01 X4.0513 Y27.5290
G01 X3.9228 Y27.7212
G01 X3.8344 Y27.9347
G01 X3.7893 Y28.1615
G01 X3.7893 Y28.3926
G01 X3.8344 Y28.6193
G01 X3.9228 Y28.8329
G01 X4.0513 Y29.0251
G01 X4.2147 Y29.1885
G01 X4.4069 Y29.3170
G01 X4.6205 Y29.4054
G01 X4.8472 Y29.4505
G01 X5.0783 Y29.4505
G01 X5.3051 Y29.4054
G01 X5.5186 Y29.3170
G01 X5.7108 Y29.1885
G01 X5.8743 Y29.0251
G01 X6.0027 Y28.8329
G01 X6.0912 Y28.6193
G01 X6.1362 Y28.3926
G01 X6.1362 Y28.1615
G01 X6.0912 Y27.9347
G01 X6.0027 Y27.7212
G01 X5.8743 Y27.5290
G01 X5.7108 Y27.3655
G01 X5.7030 Y27.3602
G01 X5.6892 Y27.3498
G01 X5.6730 Y27.3351
G01 X5.6582 Y27.3188
G01 X5.6479 Y27.3051
G01 X5.6426 Y27.2972
G01 X5.6328 Y27.2803
G01 X5.6245 Y27.2626
G01 X5.6179 Y27.2442
G01 X5.6128 Y27.2253
G01 X5.6110 Y27.2160
G01 X5.6086 Y27.1989
G01 X5.6075 Y27.1794
G01 X5.6082 Y27.1599
G01 X5.6092 Y27.1504
G01 X5.6118 Y27.1334
G01 X5.6171 Y27.1122
G01 X5.6245 Y27.0915
G01 X5.6318 Y27.0759
G01 X5.6350 Y27.0696
G01 X5.6426 Y27.0569
G01 X5.6479 Y27.0490
G01 X5.6582 Y27.0352
G01 X5.6730 Y27.0190
G01 X5.6892 Y27.0043
G01 X5.7030 Y26.9939
G01 X5.7108 Y26.9885
G01 X5.8743 Y26.8251
G01 X6.0027 Y26.6329
G01 X6.0912 Y26.4193
G01 X6.1362 Y26.1926
G01 X6.1362 Y25.9615
G01 X6.0912 Y25.7347
G01 X6.0027 Y25.5212
G01 X5.8743 Y25.3290
G01 X5.7108 Y25.1655
G01 X5.7030 Y25.1602
G01 X5.6892 Y25.1498
G01 X5.6730 Y25.1351
G01 X5.6582 Y25.1188
G01 X5.6479 Y25.1051
G01 X5.6426 Y25.0972
G01 X5.6328 Y25.0803
G01 X5.6245 Y25.0626
G01 X5.6179 Y25.0442
G01 X5.6128 Y25.0253
G01 X5.6110 Y25.0160
G01 X5.6086 Y24.9989
G01 X5.6075 Y24.9794
G01 X5.6082 Y24.9599
G01 X5.6092 Y24.9504
G01 X5.6118 Y24.9334
G01 X5.6171 Y24.9122
G01 X5.6245 Y24.8915
G01 X5.6318 Y24.8759
G01 X5.6362 Y24.8676
G01 X5.6439 Y24.8548
G01 X5.6479 Y24.8490
G01 X5.6582 Y24.8352
G01 X5.6730 Y24.8190
G01 X5.6892 Y24.8043
G01 X5.7030 Y24.7939
G01 X5.7108 Y24.7885
G01 X5.8743 Y24.6251
G01 X6.0027 Y24.4329
G01 X6.0912 Y24.2193
G01 X6.1362 Y23.9926
G01 X6.1362 Y23.7615
G01 X6.0912 Y23.5347
G01 X6.0027 Y23.3212
G01 X5.8743 Y23.1290
G01 X5.7108 Y22.9655
G01 X5.7030 Y22.9602
G01 X5.6892 Y22.9498
G01 X5.6730 Y22.9351
G01 X5.6582 Y22.9188
G01 X5.6479 Y22.9051
G01 X5.6426 Y22.8972
G01 X5.6328 Y22.8803
G01 X5.6245 Y22.8626
G01 X5.6179 Y22.8442
G01 X5.6128 Y22.8253
G01 X5.6110 Y22.8160
G01 X5.6086 Y22.7989
G01 X5.6075 Y22.7794
G01 X5.6082 Y22.7599
G01 X5.6092 Y22.7504
G01 X5.6118 Y22.7334
G01 X5.6171 Y22.7122
G01 X5.6245 Y22.6915
G01 X5.6318 Y22.6759
G01 X5.6350 Y22.6696
G01 X5.6426 Y22.6569
G01 X5.6479 Y22.6490
G01 X5.6582 Y22.6352
G01 X5.6730 Y22.6190
G01 X5.6892 Y22.6043
G01 X5.7030 Y22.5939
G01 X5.7108 Y22.5885
G01 X5.8743 Y22.4251
G01 X6.0027 Y22.2329
G01 X6.0912 Y22.0193
G01 X6.1362 Y21.7926
G01 X6.1362 Y21.5615
G01 X6.0912 Y21.3347
G01 X6.0027 Y21.1212
G01 X5.8743 Y20.9290
G01 X5.7108 Y20.7655
G01 X5.7030 Y20.7602
G01 X5.6892 Y20.7498
G01 X5.6730 Y20.7351
G01 X5.6582 Y20.7188
G01 X5.6479 Y20.7051
G01 X5.6426 Y20.6972
G01 X5.6328 Y20.6803
G01 X5.6245 Y20.6626
G01 X5.6179 Y20.6442
G01 X5.6159 Y20.6374
G01 X5.6114 Y20.6183
G01 X5.6086 Y20.5989
G01 X5.6076 Y20.5818
G01 X5.6075 Y20.5747
G01 X5.6082 Y20.5599
G01 X5.6092 Y20.5504
G01 X5.6118 Y20.5334
G01 X5.6171 Y20.5122
G01 X5.6245 Y20.4915
G01 X5.6318 Y20.4759
G01 X5.6362 Y20.4676
G01 X5.6465 Y20.4509
G01 X5.6582 Y20.4352
G01 X5.6730 Y20.4190
G01 X5.6892 Y20.4043
G01 X5.7030 Y20.3939
G01 X5.7108 Y20.3885
G01 X5.8743 Y20.2251
G01 X6.0027 Y20.0329
G01 X6.0912 Y19.8193
G01 X6.1362 Y19.5926
G01 X6.1362 Y19.3615
G01 X6.0912 Y19.1347
G01 X6.0027 Y18.9212
G01 X5.8743 Y18.7290
G01 X5.7108 Y18.5655
G01 X5.5186 Y18.4371
G01 X5.3051 Y18.3486
G01 X5.0783 Y18.3036
G01 X4.8472 Y18.3036
G01 X4.6205 Y18.3486
G01 X4.4069 Y18.4371
G01 X4.2147 Y18.5655
G01 X4.0513 Y18.7290
G01 X3.9228 Y18.9212
G01 X3.8344 Y19.1347
G01 X3.7893 Y19.3615
G01 X3.7893 Y19.5926
G01 X3.8344 Y19.8193
G01 X3.9228 Y20.0329
G01 X4.0513 Y20.2251
G01 X4.2147 Y20.3885
G01 X4.2225 Y20.3939
G01 X4.2363 Y20.4043
G01 X4.2525 Y20.4190
G01 X4.2673 Y20.4352
G01 X4.2790 Y20.4509
G01 X4.2893 Y20.4676
G01 X4.2937 Y20.4759
G01 X4.3010 Y20.4915
G01 X4.3084 Y20.5122
G01 X4.3137 Y20.5334
G01 X4.3164 Y20.5504
G01 X4.3173 Y20.5599
G01 X4.3180 Y20.5747
G01 X4.3179 Y20.5818
G01 X4.3169 Y20.5989
G01 X4.3141 Y20.6183
G01 X4.3127 Y20.6253
G01 X4.3077 Y20.6442
G01 X4.3010 Y20.6626
G01 X4.2927 Y20.6803
G01 X4.2829 Y20.6972
G01 X4.2776 Y20.7051
G01 X4.2673 Y20.7188
G01 X4.2525 Y20.7351
G01 X4.2363 Y20.7498
G01 X4.2225 Y20.7602
G01 X4.2147 Y20.7655
G01 X4.0513 Y20.9290
G01 X3.9228 Y21.1212
G01 X3.8344 Y21.3347
G01 X3.7893 Y21.5615
G01 X3.7893 Y21.7926
G01 X3.8344 Y22.0193
G01 X3.9228 Y22.2329
G01 X4.0513 Y22.4251
G01 X4.2147 Y22.5885
G01 X4.2225 Y22.5939
G01 X4.2363 Y22.6043
G01 X4.2525 Y22.6190
G01 X4.2673 Y22.6352
G01 X4.2790 Y22.6509
G01 X4.2893 Y22.6676
G01 X4.2937 Y22.6759
G01 X4.3019 Y22.6937
G01 X4.3090 Y22.7144
G01 X4.3137 Y22.7334
G01 X4.3169 Y22.7551
G01 X4.3180 Y22.7770
G01 X4.3173 Y22.7942
G01 X4.3164 Y22.8036
G01 X4.3132 Y22.8230
G01 X4.3084 Y22.8419
G01 X4.3019 Y22.8604
G01 X4.2991 Y22.8669
G01 X4.2905 Y22.8845
G01 X4.2803 Y22.9012
G01 X4.2702 Y22.9151
G01 X4.2642 Y22.9224
G01 X4.2542 Y22.9334
G01 X4.2491 Y22.9384
G01 X4.2344 Y22.9513
G01 X4.2147 Y22.9655
G01 X4.0513 Y23.1290
G01 X3.9228 Y23.3212
G01 X3.8344 Y23.5347
G01 X3.8238 Y23.5873
G01 X3.8195 Y23.6039
G01 X3.8130 Y23.6224
G01 X3.8027 Y23.6444
G01 X3.7901 Y23.6652
G01 X3.7784 Y23.6808
G01 X3.7637 Y23.6971
G01 X3.7474 Y23.7118
G01 X3.7298 Y23.7249
G01 X3.7110 Y23.7362
G01 X3.6912 Y23.7455
G01 X3.6705 Y23.7529
G01 X3.6492 Y23.7583
G01 X3.6275 Y23.7615
G01 X3.6056 Y23.7626
G01 X3.5837 Y23.7615
G01 X3.5643 Y23.7587
G01 X3.5574 Y23.7572
G01 X3.5430 Y23.7536
G01 X3.5362 Y23.7514
G01 X3.5201 Y23.7455
G01 X3.5045 Y23.7383
G01 X3.4982 Y23.7350
G01 X3.4834 Y23.7262
G01 X3.4676 Y23.7147
G01 X3.4620 Y23.7103
G01 X3.4476 Y23.6971
G01 X3.1309 Y23.3804
G01 X3.1162 Y23.3642
G01 X3.1031 Y23.3466
G01 X3.0930 Y23.3298
G01 X3.0897 Y23.3235
G01 X3.0825 Y23.3079
G01 X3.0766 Y23.2918
G01 X3.0744 Y23.2850
G01 X3.0697 Y23.2660
G01 X3.0665 Y23.2443
G01 X3.0654 Y23.2224
G01 X3.0654 Y23.0777
G01 X3.0663 Y23.0581
G01 X3.0684 Y23.0366
G01 X3.0566 Y22.9168
G01 X3.0216 Y22.8015
G01 X2.9649 Y22.6953
G01 X2.8884 Y22.6022
G01 X2.8718 Y22.5885
G01 X2.8573 Y22.5753
G01 X0.9224 Y20.6403
G01 X0.9092 Y20.6258
G01 X0.8954 Y20.6092
G01 X0.8023 Y20.5327
G01 X0.6961 Y20.4760
G01 X0.5808 Y20.4410
G01 X0.4610 Y20.4292
G01 X0.4395 Y20.4313
G01 X0.4199 Y20.4322
G01 X-6.8141 Y20.4322
G01 X-6.8337 Y20.4313
G01 X-6.8551 Y20.4292
G01 X-6.9750 Y20.4410
G01 X-7.0903 Y20.4760
G01 X-7.1965 Y20.5327
G01 X-7.2896 Y20.6092
G01 X-7.3033 Y20.6258
G01 X-7.3165 Y20.6403
G01 X-8.4252 Y21.7490
G01 X-8.4415 Y21.7637
G01 X-8.4571 Y21.7754
G01 X-8.4631 Y21.7793
G01 X-8.4779 Y21.7880
G01 X-8.4934 Y21.7955
G01 X-8.4999 Y21.7983
G01 X-8.5184 Y21.8048
G01 X-8.5397 Y21.8101
G01 X-8.5590 Y21.8131
G01 X-8.5661 Y21.8137
G01 X-8.5833 Y21.8144
G01 X-8.6005 Y21.8137
G01 X-8.6075 Y21.8131
G01 X-8.6269 Y21.8101
G01 X-8.6459 Y21.8055
G01 X-8.6526 Y21.8033
G01 X-8.6710 Y21.7965
G01 X-8.6907 Y21.7869
G01 X-8.7074 Y21.7767
G01 X-8.7269 Y21.7622
G01 X-8.7413 Y21.7490
G01 X-8.9139 Y21.5764
G01 X-9.0719 Y21.4707
G01 X-9.0876 Y21.4590
G01 X-9.1038 Y21.4443
G01 X-9.1186 Y21.4280
G01 X-9.1316 Y21.4104
G01 X-9.1429 Y21.3916
G01 X-9.1523 Y21.3718
G01 X-9.1597 Y21.3511
G01 X-9.1650 Y21.3298
G01 X-9.1682 Y21.3081
G01 X-9.1693 Y21.2886
G01 X-9.1682 Y21.2643
G01 X-9.1655 Y21.2450
G01 X-9.1603 Y21.2236
G01 X-9.1540 Y21.2051
G01 X-9.1504 Y21.1964
G01 X-9.1440 Y21.1830
G01 X-9.1406 Y21.1768
G01 X-9.1303 Y21.1601
G01 X-9.1171 Y21.1426
G01 X-9.1038 Y21.1282
G01 X-9.0912 Y21.1166
G01 X-9.0857 Y21.1120
G01 X-9.0719 Y21.1017
G01 X-8.9139 Y20.9961
G01 X-8.7382 Y20.8204
G01 X-8.6001 Y20.6138
G01 X-8.5050 Y20.3842
G01 X-8.4566 Y20.1405
G01 X-8.4566 Y19.8920
G01 X-8.5050 Y19.6483
G01 X-8.6001 Y19.4187
G01 X-8.7382 Y19.2121
G01 X-8.9139 Y19.0364
G01 X-9.0719 Y18.9307
G01 X-9.0857 Y18.9205
G01 X-9.0912 Y18.9159
G01 X-9.1038 Y18.9043
G01 X-9.1171 Y18.8898
G01 X-9.1289 Y18.8743
G01 X-9.1342 Y18.8664
G01 X-9.1429 Y18.8516
G01 X-9.1523 Y18.8318
G01 X-9.1597 Y18.8111
G01 X-9.1640 Y18.7945
G01 X-9.1658 Y18.7852
G01 X-9.1680 Y18.7705
G01 X-9.1686 Y18.7634
G01 X-9.1693 Y18.7462
G01 X-9.1682 Y18.7243
G01 X-9.1650 Y18.7026
G01 X-9.1597 Y18.6814
G01 X-9.1523 Y18.6607
G01 X-9.1429 Y18.6409
G01 X-9.1316 Y18.6221
G01 X-9.1186 Y18.6044
G01 X-9.1055 Y18.5899
G01 X-9.1004 Y18.5849
G01 X-9.0876 Y18.5735
G01 X-9.0738 Y18.5631
G01 X-8.9139 Y18.4561
G01 X-8.7382 Y18.2804
G01 X-8.6001 Y18.0738
G01 X-8.5050 Y17.8442
G01 X-8.4566 Y17.6005
G01 X-8.4566 Y17.3520
G01 X-8.5050 Y17.1083
G01 X-8.6001 Y16.8787
G01 X-8.7382 Y16.6721
G01 X-8.8561 Y16.5541
G01 X-8.8692 Y16.5395
G01 X-8.8809 Y16.5239
G01 X-8.8848 Y16.5179
G01 X-8.8946 Y16.5010
G01 X-8.9029 Y16.4833
G01 X-8.9088 Y16.4671
G01 X-8.9110 Y16.4604
G01 X-8.9156 Y16.4414
G01 X-8.9191 Y16.4173
G01 X-8.9199 Y16.3954
G01 X-8.9191 Y16.3782
G01 X-8.9183 Y16.3711
G01 X-8.9161 Y16.3565
G01 X-8.9146 Y16.3495
G01 X-8.9103 Y16.3329
G01 X-8.9046 Y16.3166
G01 X-8.9020 Y16.3100
G01 X-8.8935 Y16.2924
G01 X-8.8823 Y16.2736
G01 X-8.8692 Y16.2560
G01 X-8.8545 Y16.2397
G01 X-8.8382 Y16.2250
G01 X-8.8245 Y16.2146
G01 X-8.8166 Y16.2094
G01 X-8.7997 Y16.1995
G01 X-8.7820 Y16.1913
G01 X-8.7658 Y16.1853
G01 X-8.7098 Y16.1682
G01 X-8.6383 Y16.1300
G01 X-8.5757 Y16.0786
G01 X-8.5242 Y16.0160
G01 X-8.4860 Y15.9445
G01 X-8.4625 Y15.8669
G01 X-8.4535 Y15.7753
G01 X-8.4535 Y14.0972
G01 X-8.4625 Y14.0056
G01 X-8.4860 Y13.9280
G01 X-8.5242 Y13.8565
G01 X-8.5757 Y13.7939
G01 X-8.6383 Y13.7424
G01 X-8.7098 Y13.7042
G01 X-8.7874 Y13.6807
G01 X-8.8790 Y13.6717
G01 X-10.5571 Y13.6717
G01 X-10.6487 Y13.6807
G01 X-10.7263 Y13.7042
G01 X-10.7978 Y13.7424
G01 X-10.8604 Y13.7939
G01 X-10.9118 Y13.8565
G01 X-10.9500 Y13.9280
G01 X-10.9736 Y14.0056
G01 X-10.9826 Y14.0972
G01 X-10.9826 Y15.7753
G01 X-10.9736 Y15.8669
G01 X-10.9500 Y15.9445
G01 X-10.9118 Y16.0160
G01 X-10.8604 Y16.0786
G01 X-10.7978 Y16.1300
G01 X-10.7263 Y16.1682
G01 X-10.6748 Y16.1839
G01 X-10.6563 Y16.1904
G01 X-10.6364 Y16.1995
G01 X-10.6195 Y16.2094
G01 X-10.6116 Y16.2146
G01 X-10.5961 Y16.2265
G01 X-10.5816 Y16.2397
G01 X-10.5684 Y16.2541
G01 X-10.5552 Y16.2716
G01 X-10.5449 Y16.2883
G01 X-10.5414 Y16.2945
G01 X-10.5351 Y16.3079
G01 X-10.5315 Y16.3166
G01 X-10.5258 Y16.3329
G01 X-10.5204 Y16.3541
G01 X-10.5172 Y16.3758
G01 X-10.5161 Y16.3978
G01 X-10.5172 Y16.4197
G01 X-10.5196 Y16.4367
G01 X-10.5209 Y16.4437
G01 X-10.5258 Y16.4626
G01 X-10.5332 Y16.4833
G01 X-10.5404 Y16.4989
G01 X-10.5437 Y16.5052
G01 X-10.5538 Y16.5219
G01 X-10.5669 Y16.5395
G01 X-10.5800 Y16.5541
G01 X-10.6979 Y16.6721
G01 X-10.8360 Y16.8787
G01 X-10.9310 Y17.1083
G01 X-10.9795 Y17.3520
G01 X-10.9795 Y17.6005
G01 X-10.9310 Y17.8442
G01 X-10.8360 Y18.0738
G01 X-10.6979 Y18.2804
G01 X-10.5222 Y18.4561
G01 X-10.3642 Y18.5617
G01 X-10.3503 Y18.5720
G01 X-10.3449 Y18.5766
G01 X-10.3322 Y18.5882
G01 X-10.3190 Y18.6026
G01 X-10.3058 Y18.6201
G01 X-10.2955 Y18.6368
G01 X-10.2910 Y18.6451
G01 X-10.2847 Y18.6585
G01 X-10.2821 Y18.6651
G01 X-10.2764 Y18.6814
G01 X-10.2711 Y18.7026
G01 X-10.2678 Y18.7243
G01 X-10.2668 Y18.7462
G01 X-10.2678 Y18.7681
G01 X-10.2711 Y18.7898
G01 X-10.2764 Y18.8111
G01 X-10.2821 Y18.8274
G01 X-10.2847 Y18.8340
G01 X-10.2910 Y18.8474
G01 X-10.2955 Y18.8557
G01 X-10.3058 Y18.8724
G01 X-10.3190 Y18.8898
G01 X-10.3322 Y18.9043
G01 X-10.3449 Y18.9159
G01 X-10.3503 Y18.9205
G01 X-10.3642 Y18.9307
G01 X-10.5222 Y19.0364
G01 X-10.6979 Y19.2121
G01 X-10.8360 Y19.4187
G01 X-10.9310 Y19.6483
G01 X-10.9795 Y19.8920
G01 X-10.9795 Y20.1405
G01 X-10.9310 Y20.3842
G01 X-10.8360 Y20.6138
G01 X-10.6979 Y20.8204
G01 X-10.5222 Y20.9961
G01 X-10.3642 Y21.1017
G01 X-10.3503 Y21.1120
G01 X-10.3449 Y21.1166
G01 X-10.3322 Y21.1282
G01 X-10.3190 Y21.1426
G01 X-10.3058 Y21.1601
G01 X-10.2955 Y21.1768
G01 X-10.2921 Y21.1830
G01 X-10.2857 Y21.1964
G01 X-10.2821 Y21.2051
G01 X-10.2764 Y21.2214
G01 X-10.2711 Y21.2426
G01 X-10.2678 Y21.2643
G01 X-10.2668 Y21.2839
G01 X-10.2678 Y21.3081
G01 X-10.2711 Y21.3298
G01 X-10.2764 Y21.3511
G01 X-10.2829 Y21.3696
G01 X-10.2932 Y21.3916
G01 X-10.3031 Y21.4084
G01 X-10.3160 Y21.4262
G01 X-10.3290 Y21.4409
G01 X-10.3339 Y21.4459
G01 X-10.3467 Y21.4575
G01 X-10.3642 Y21.4707
G01 X-10.5222 Y21.5764
G01 X-10.6979 Y21.7521
G01 X-10.8360 Y21.9587
G01 X-10.9310 Y22.1883
G01 X-10.9795 Y22.4320
G01 X-10.9795 Y22.6805
G01 X-10.9310 Y22.9242
G01 X-10.8360 Y23.1538
G01 X-10.6979 Y23.3604
G01 X-10.5222 Y23.5361
G01 X-10.3156 Y23.6742
G01 X-10.0860 Y23.7692
G01 X-9.8423 Y23.8177
G01 X-9.5938 Y23.8177
G01 X-9.3501 Y23.7692
G01 X-9.1205 Y23.6742
G01 X-8.9139 Y23.5361
G01 X-8.7382 Y23.3604
G01 X-8.6745 Y23.2651
G01 X-8.6628 Y23.2494
G01 X-8.6497 Y23.2349
G01 X-8.6354 Y23.2216
G01 X-8.6280 Y23.2155
G01 X-8.6142 Y23.2054
G01 X-8.5953 Y23.1941
G01 X-8.5755 Y23.1847
G01 X-8.5549 Y23.1774
G01 X-8.5336 Y23.1720
G01 X-8.5119 Y23.1688
G01 X-8.4900 Y23.1677
G01 X-8.4064 Y23.1678
G01 X-8.3892 Y23.1686
G01 X-8.3677 Y23.1707
G01 X-8.2479 Y23.1589
G01 X-8.1326 Y23.1239
G01 X-8.0264 Y23.0671
G01 X-7.9333 Y22.9907
G01 X-7.9195 Y22.9741
G01 X-7.9063 Y22.9596
G01 X-6.6673 Y21.7206
G01 X-6.6529 Y21.7074
G01 X-6.6473 Y21.7029
G01 X-6.6334 Y21.6928
G01 X-6.6167 Y21.6827
G01 X-6.5948 Y21.6721
G01 X-6.5764 Y21.6655
G01 X-6.5696 Y21.6635
G01 X-6.5529 Y21.6594
G01 X-6.5359 Y21.6568
G01 X-6.5288 Y21.6560
G01 X-6.5093 Y21.6551
G01 X-5.8547 Y21.6552
G01 X-5.8379 Y21.6560
G01 X-5.8311 Y21.6567
G01 X-5.8145 Y21.6592
G01 X-5.7982 Y21.6631
G01 X-5.7915 Y21.6649
G01 X-5.7735 Y21.6713
G01 X-5.7541 Y21.6802
G01 X-5.7376 Y21.6897
G01 X-5.7318 Y21.6935
G01 X-5.7182 Y21.7034
G01 X-5.7055 Y21.7143
G01 X-5.7005 Y21.7191
G01 X-5.6875 Y21.7330
G01 X-5.6757 Y21.7480
G01 X-5.6717 Y21.7537
G01 X-5.6628 Y21.7679
G01 X-5.6551 Y21.7828
G01 X-5.6522 Y21.7891
G01 X-5.6453 Y21.8068
G01 X-5.6400 Y21.8251
G01 X-5.6385 Y21.8319
G01 X-5.6355 Y21.8484
G01 X-5.6338 Y21.8674
G01 X-5.4815 Y25.6643
G01 X-5.4817 Y25.6865
G01 X-5.4835 Y25.7038
G01 X-5.4850 Y25.7133
G01 X-5.4893 Y25.7325
G01 X-5.4954 Y25.7514
G01 X-5.5031 Y25.7696
G01 X-5.5125 Y25.7870
G01 X-5.5175 Y25.7951
G01 X-5.5275 Y25.8094
G01 X-5.5419 Y25.8263
G01 X-5.5578 Y25.8417
G01 X-5.5714 Y25.8525
G01 X-5.5792 Y25.8581
G01 X-5.5960 Y25.8685
G01 X-5.6137 Y25.8774
G01 X-5.6321 Y25.8846
G01 X-5.6511 Y25.8902
G01 X-5.6604 Y25.8923
G01 X-5.6776 Y25.8951
G01 X-5.6973 Y25.8967
G01 X-12.1471 Y26.0453
G01 X-12.1693 Y26.0447
G01 X-12.1914 Y26.0419
G01 X-12.2131 Y26.0369
G01 X-12.2342 Y26.0298
G01 X-12.2545 Y26.0206
G01 X-12.2737 Y26.0094
G01 X-12.2918 Y25.9964
G01 X-12.3049 Y25.9850
G01 X-12.3118 Y25.9782
G01 X-12.3220 Y25.9672
G01 X-12.3266 Y25.9616
G01 X-12.3383 Y25.9456
G01 X-12.3474 Y25.9307
G01 X-12.3508 Y25.9243
G01 X-12.3591 Y25.9063
G01 X-12.3665 Y25.8853
G01 X-12.3718 Y25.8637
G01 X-12.3744 Y25.8464
G01 X-12.3750 Y25.8393
G00 Z2.0000
G00 X-12.4810 Y25.8445
G01 F120.00
G01 Z-0.0801
G01 F120.00
G01 X-12.4818 Y25.8218
G01 X-12.4818 Y-1.9714
G01 X-12.4808 Y-1.9980
G01 X-12.4798 Y-2.0075
G01 X-12.4775 Y-2.0243
G01 X-12.4739 Y-2.0432
G01 X-12.4698 Y-2.0596
G01 X-12.4671 Y-2.0688
G01 X-12.4583 Y-2.0939
G01 X-12.4474 Y-2.1181
G01 X-12.4430 Y-2.1266
G01 X-12.4346 Y-2.1413
G01 X-12.4242 Y-2.1575
G01 X-12.4144 Y-2.1712
G01 X-12.4084 Y-2.1788
G01 X-12.3909 Y-2.1988
G01 X-12.3719 Y-2.2172
G01 X-12.3646 Y-2.2235
G01 X-12.3513 Y-2.2340
G01 X-12.3357 Y-2.2452
G01 X-12.3214 Y-2.2543
G01 X-12.3131 Y-2.2591
G01 X-12.2894 Y-2.2711
G01 X-12.2649 Y-2.2812
G01 X-12.2558 Y-2.2843
G01 X-12.2396 Y-2.2892
G01 X-12.2209 Y-2.2937
G01 X-12.2043 Y-2.2969
G01 X-12.1948 Y-2.2983
G01 X-12.1683 Y-2.3007
G01 X-5.8687 Y-2.6085
G01 X-5.8407 Y-2.6087
G01 X-5.8256 Y-2.6077
G01 X-5.8079 Y-2.6059
G01 X-5.7979 Y-2.6043
G01 X-5.7705 Y-2.5986
G01 X-5.7438 Y-2.5905
G01 X-5.7296 Y-2.5850
G01 X-5.7133 Y-2.5780
G01 X-5.7042 Y-2.5736
G01 X-5.6798 Y-2.5600
G01 X-5.6713 Y-2.5545
G01 X-5.6526 Y-2.5413
G01 X-5.6350 Y-2.5268
G01 X-5.6237 Y-2.5165
G01 X-5.6079 Y-2.5001
G01 X-5.6012 Y-2.4925
G01 X-5.5870 Y-2.4745
G01 X-5.5784 Y-2.4620
G01 X-5.5663 Y-2.4427
G01 X-5.5557 Y-2.4224
G01 X-5.5494 Y-2.4086
G01 X-5.5429 Y-2.3920
G01 X-5.5380 Y-2.3776
G01 X-5.5319 Y-2.3556
G01 X-5.5297 Y-2.3457
G01 X-5.5259 Y-2.3232
G01 X-5.1943 Y0.4736
G01 X-5.1930 Y0.4946
G01 X-5.1926 Y0.5065
G01 X-5.1926 Y1.5220
G01 X-5.1935 Y1.5444
G01 X-5.1944 Y1.5556
G01 X-5.1875 Y1.6253
G01 X-5.1672 Y1.6923
G01 X-5.1342 Y1.7540
G01 X-5.0851 Y1.8140
G01 X-5.0721 Y1.8313
G01 X-5.0668 Y1.8393
G01 X-5.0532 Y1.8620
G01 X-5.0436 Y1.8814
G01 X-5.0378 Y1.8946
G01 X-5.0302 Y1.9149
G01 X-5.0273 Y1.9241
G01 X-5.0218 Y1.9450
G01 X-5.0197 Y1.9544
G01 X-5.0162 Y1.9757
G01 X-4.9865 Y2.2259
G01 X49.3971 Y1.9783
G01 X49.4244 Y1.9794
G01 X49.4392 Y1.9809
G01 X49.4565 Y1.9835
G01 X49.4662 Y1.9854
G01 X49.4928 Y1.9921
G01 X49.5186 Y2.0010
G01 X49.5324 Y2.0068
G01 X49.5481 Y2.0143
G01 X49.5569 Y2.0189
G01 X49.5804 Y2.0330
G01 X49.6026 Y2.0491
G01 X49.6140 Y2.0586
G01 X49.6269 Y2.0703
G01 X49.6340 Y2.0773
G01 X49.6523 Y2.0976
G01 X49.6689 Y2.1194
G01 X49.6745 Y2.1277
G01 X49.6835 Y2.1425
G01 X49.6930 Y2.1600
G01 X49.7005 Y2.1758
G01 X49.7043 Y2.1849
G01 X49.7135 Y2.2107
G01 X49.7215 Y2.2420
G01 X49.7264 Y2.2740
G01 X49.7282 Y2.3063
G01 X49.8945 Y35.7520
G01 X49.8935 Y35.7795
G01 X49.8919 Y35.7944
G01 X49.8893 Y35.8118
G01 X49.8874 Y35.8216
G01 X49.8807 Y35.8483
G01 X49.8716 Y35.8743
G01 X49.8679 Y35.8835
G01 X49.8605 Y35.8994
G01 X49.8536 Y35.9127
G01 X49.8393 Y35.9363
G01 X49.8231 Y35.9585
G01 X49.8168 Y35.9662
G01 X49.8051 Y35.9793
G01 X49.7946 Y35.9900
G01 X49.7741 Y36.0084
G01 X49.7521 Y36.0249
G01 X49.7438 Y36.0305
G01 X49.7288 Y36.0395
G01 X49.7112 Y36.0489
G01 X49.6953 Y36.0564
G01 X49.6860 Y36.0602
G01 X49.6600 Y36.0692
G01 X49.6285 Y36.0771
G01 X49.5963 Y36.0818
G01 X49.5638 Y36.0833
G01 X1.2697 Y35.9215
G01 X1.2381 Y35.9199
G01 X1.2069 Y35.9153
G01 X1.1763 Y35.9077
G01 X1.1510 Y35.8990
G01 X1.1420 Y35.8953
G01 X1.1266 Y35.8882
G01 X1.1094 Y35.8792
G01 X1.0947 Y35.8706
G01 X1.0866 Y35.8653
G01 X1.0651 Y35.8495
G01 X1.0449 Y35.8320
G01 X1.0379 Y35.8252
G01 X1.0263 Y35.8128
G01 X1.0167 Y35.8019
G01 X1.0005 Y35.7806
G01 X0.9861 Y35.7581
G01 X0.9791 Y35.7453
G01 X0.9715 Y35.7301
G01 X0.9676 Y35.7212
G01 X0.9581 Y35.6963
G01 X0.9507 Y35.6706
G01 X0.9485 Y35.6612
G01 X0.9454 Y35.6444
G01 X0.9434 Y35.6300
G01 X0.9413 Y35.6034
G01 X0.5184 Y23.4280
G01 X0.5182 Y22.6063
G01 X0.5193 Y22.5840
G01 X0.5210 Y22.5691
G01 X0.5245 Y22.5470
G01 X0.5310 Y22.5204
G01 X0.5355 Y22.5062
G01 X0.5432 Y22.4852
G01 X0.5548 Y22.4603
G01 X0.5620 Y22.4473
G01 X0.5737 Y22.4282
G01 X0.5899 Y22.4061
G01 X0.5995 Y22.3947
G01 X0.6147 Y22.3782
G01 X0.6311 Y22.3630
G01 X0.6425 Y22.3534
G01 X0.6646 Y22.3372
G01 X0.6837 Y22.3255
G01 X0.6968 Y22.3183
G01 X0.7216 Y22.3068
G01 X0.7426 Y22.2990
G01 X0.7569 Y22.2945
G01 X0.7835 Y22.2880
G01 X0.8056 Y22.2845
G01 X0.8204 Y22.2829
G01 X0.8478 Y22.2817
G01 X0.8702 Y22.2826
G01 X0.8850 Y22.2838
G01 X0.9121 Y22.2880
G01 X0.9339 Y22.2932
G01 X0.9482 Y22.2974
G01 X0.9739 Y22.3068
G01 X0.9943 Y22.3161
G01 X1.0075 Y22.3230
G01 X1.0309 Y22.3372
G01 X1.0490 Y22.3504
G01 X1.0607 Y22.3597
G01 X1.0773 Y22.3748
G01 X1.8520 Y23.1494
G01 X1.8738 Y23.1734
G01 X1.8930 Y23.1994
G01 X1.9047 Y23.2185
G01 X1.9119 Y23.2315
G01 X1.9215 Y23.2518
G01 X1.9271 Y23.2656
G01 X1.9344 Y23.2868
G01 X1.9401 Y23.3085
G01 X1.9431 Y23.3231
G01 X1.9464 Y23.3453
G01 X1.9477 Y23.3601
G01 X1.9486 Y23.3825
G01 X1.9486 Y23.5272
G01 X1.9477 Y23.5496
G01 X1.9461 Y23.5682
G01 X1.9559 Y23.6673
G01 X1.9848 Y23.7626
G01 X2.0317 Y23.8504
G01 X2.0949 Y23.9273
G01 X2.1092 Y23.9394
G01 X2.1256 Y23.9546
G01 X3.8119 Y25.6409
G01 X3.8304 Y25.6610
G01 X3.8397 Y25.6727
G01 X3.8529 Y25.6908
G01 X3.8671 Y25.7142
G01 X3.8739 Y25.7274
G01 X3.8833 Y25.7478
G01 X3.8942 Y25.7783
G01 X3.9021 Y25.8096
G01 X3.9068 Y25.8416
G01 X3.9084 Y25.8739
G01 X3.9068 Y25.9062
G01 X3.9030 Y25.9334
G01 X3.8954 Y25.9719
G01 X3.8954 Y26.1822
G01 X3.9364 Y26.3884
G01 X4.0168 Y26.5826
G01 X4.1337 Y26.7575
G01 X4.2827 Y26.9065
G01 X4.3036 Y26.9223
G01 X4.3276 Y26.9440
G01 X4.3493 Y26.9679
G01 X4.3628 Y26.9858
G01 X4.3713 Y26.9981
G01 X4.3828 Y27.0173
G01 X4.3897 Y27.0305
G01 X4.3990 Y27.0509
G01 X4.4084 Y27.0766
G01 X4.4126 Y27.0909
G01 X4.4178 Y27.1127
G01 X4.4213 Y27.1349
G01 X4.4229 Y27.1497
G01 X4.4241 Y27.1770
G01 X4.4225 Y27.2093
G01 X4.4187 Y27.2365
G01 X4.4167 Y27.2462
G01 X4.4126 Y27.2631
G01 X4.4068 Y27.2822
G01 X4.4009 Y27.2986
G01 X4.3971 Y27.3077
G01 X4.3852 Y27.3324
G01 X4.3686 Y27.3602
G01 X4.3493 Y27.3861
G01 X4.3276 Y27.4101
G01 X4.3036 Y27.4318
G01 X4.2827 Y27.4476
G01 X4.1337 Y27.5966
G01 X4.0168 Y27.7714
G01 X3.9364 Y27.9657
G01 X3.8954 Y28.1719
G01 X3.8954 Y28.3822
G01 X3.9364 Y28.5884
G01 X4.0168 Y28.7826
G01 X4.1337 Y28.9575
G01 X4.2823 Y29.1061
G01 X4.4572 Y29.2230
G01 X4.6514 Y29.3034
G01 X4.8576 Y29.3444
G01 X5.0679 Y29.3444
G01 X5.2741 Y29.3034
G01 X5.4684 Y29.2230
G01 X5.6432 Y29.1061
G01 X5.7919 Y28.9575
G01 X5.9087 Y28.7826
G01 X5.9891 Y28.5884
G01 X6.0302 Y28.3822
G01 X6.0302 Y28.1719
G01 X5.9891 Y27.9657
G01 X5.9087 Y27.7714
G01 X5.7919 Y27.5966
G01 X5.6428 Y27.4476
G01 X5.6219 Y27.4318
G01 X5.5980 Y27.4101
G01 X5.5762 Y27.3861
G01 X5.5598 Y27.3643
G01 X5.5543 Y27.3560
G01 X5.5452 Y27.3411
G01 X5.5380 Y27.3280
G01 X5.5265 Y27.3032
G01 X5.5171 Y27.2775
G01 X5.5130 Y27.2631
G01 X5.5088 Y27.2462
G01 X5.5068 Y27.2365
G01 X5.5030 Y27.2093
G01 X5.5015 Y27.1820
G01 X5.5015 Y27.1721
G01 X5.5023 Y27.1546
G01 X5.5042 Y27.1349
G01 X5.5068 Y27.1176
G01 X5.5088 Y27.1079
G01 X5.5156 Y27.0814
G01 X5.5247 Y27.0555
G01 X5.5305 Y27.0418
G01 X5.5380 Y27.0261
G01 X5.5427 Y27.0173
G01 X5.5570 Y26.9939
G01 X5.5762 Y26.9679
G01 X5.5980 Y26.9440
G01 X5.6219 Y26.9223
G01 X5.6428 Y26.9065
G01 X5.7919 Y26.7575
G01 X5.9087 Y26.5826
G01 X5.9891 Y26.3884
G01 X6.0302 Y26.1822
G01 X6.0302 Y25.9719
G01 X5.9891 Y25.7657
G01 X5.9087 Y25.5714
G01 X5.7919 Y25.3966
G01 X5.6428 Y25.2476
G01 X5.6219 Y25.2318
G01 X5.5980 Y25.2101
G01 X5.5762 Y25.1861
G01 X5.5598 Y25.1643
G01 X5.5543 Y25.1560
G01 X5.5452 Y25.1411
G01 X5.5380 Y25.1280
G01 X5.5265 Y25.1032
G01 X5.5171 Y25.0775
G01 X5.5130 Y25.0631
G01 X5.5088 Y25.0462
G01 X5.5068 Y25.0365
G01 X5.5030 Y25.0093
G01 X5.5015 Y24.9820
G01 X5.5015 Y24.9721
G01 X5.5023 Y24.9546
G01 X5.5042 Y24.9349
G01 X5.5068 Y24.9176
G01 X5.5088 Y24.9079
G01 X5.5156 Y24.8814
G01 X5.5247 Y24.8555
G01 X5.5285 Y24.8463
G01 X5.5359 Y24.8305
G01 X5.5427 Y24.8173
G01 X5.5570 Y24.7939
G01 X5.5762 Y24.7679
G01 X5.5980 Y24.7440
G01 X5.6219 Y24.7223
G01 X5.6428 Y24.7065
G01 X5.7919 Y24.5575
G01 X5.9087 Y24.3826
G01 X5.9891 Y24.1884
G01 X6.0302 Y23.9822
G01 X6.0302 Y23.7719
G01 X5.9891 Y23.5657
G01 X5.9087 Y23.3714
G01 X5.7919 Y23.1966
G01 X5.6428 Y23.0476
G01 X5.6219 Y23.0318
G01 X5.5980 Y23.0101
G01 X5.5762 Y22.9861
G01 X5.5598 Y22.9643
G01 X5.5543 Y22.9560
G01 X5.5452 Y22.9411
G01 X5.5380 Y22.9280
G01 X5.5265 Y22.9032
G01 X5.5171 Y22.8775
G01 X5.5142 Y22.8679
G01 X5.5099 Y22.8510
G01 X5.5068 Y22.8365
G01 X5.5030 Y22.8093
G01 X5.5015 Y22.7820
G01 X5.5015 Y22.7721
G01 X5.5023 Y22.7546
G01 X5.5042 Y22.7349
G01 X5.5068 Y22.7176
G01 X5.5088 Y22.7079
G01 X5.5156 Y22.6814
G01 X5.5247 Y22.6555
G01 X5.5305 Y22.6418
G01 X5.5380 Y22.6261
G01 X5.5427 Y22.6173
G01 X5.5570 Y22.5939
G01 X5.5762 Y22.5679
G01 X5.5980 Y22.5440
G01 X5.6219 Y22.5223
G01 X5.6428 Y22.5065
G01 X5.7919 Y22.3575
G01 X5.9087 Y22.1826
G01 X5.9891 Y21.9884
G01 X6.0302 Y21.7822
G01 X6.0302 Y21.5719
G01 X5.9891 Y21.3657
G01 X5.9087 Y21.1714
G01 X5.7919 Y20.9966
G01 X5.6428 Y20.8476
G01 X5.6219 Y20.8318
G01 X5.5980 Y20.8101
G01 X5.5762 Y20.7861
G01 X5.5598 Y20.7643
G01 X5.5543 Y20.7560
G01 X5.5452 Y20.7411
G01 X5.5380 Y20.7280
G01 X5.5265 Y20.7032
G01 X5.5171 Y20.6775
G01 X5.5130 Y20.6631
G01 X5.5088 Y20.6462
G01 X5.5068 Y20.6365
G01 X5.5030 Y20.6093
G01 X5.5017 Y20.5870
G01 X5.5017 Y20.5671
G01 X5.5026 Y20.5497
G01 X5.5036 Y20.5398
G01 X5.5078 Y20.5127
G01 X5.5142 Y20.4861
G01 X5.5187 Y20.4719
G01 X5.5247 Y20.4555
G01 X5.5285 Y20.4463
G01 X5.5403 Y20.4217
G01 X5.5516 Y20.4023
G01 X5.5598 Y20.3898
G01 X5.5731 Y20.3718
G01 X5.5827 Y20.3604
G01 X5.5980 Y20.3440
G01 X5.6219 Y20.3223
G01 X5.6428 Y20.3065
G01 X5.7919 Y20.1575
G01 X5.9087 Y19.9826
G01 X5.9891 Y19.7884
G01 X6.0302 Y19.5822
G01 X6.0302 Y19.3719
G01 X5.9891 Y19.1657
G01 X5.9087 Y18.9714
G01 X5.7919 Y18.7966
G01 X5.6432 Y18.6479
G01 X5.4684 Y18.5311
G01 X5.2741 Y18.4507
G01 X5.0679 Y18.4096
G01 X4.8576 Y18.4096
G01 X4.6514 Y18.4507
G01 X4.4572 Y18.5311
G01 X4.2823 Y18.6479
G01 X4.1337 Y18.7966
G01 X4.0168 Y18.9714
G01 X3.9364 Y19.1657
G01 X3.8954 Y19.3719
G01 X3.8954 Y19.5822
G01 X3.9364 Y19.7884
G01 X4.0168 Y19.9826
G01 X4.1337 Y20.1575
G01 X4.2827 Y20.3065
G01 X4.3036 Y20.3223
G01 X4.3276 Y20.3440
G01 X4.3428 Y20.3604
G01 X4.3524 Y20.3718
G01 X4.3657 Y20.3898
G01 X4.3739 Y20.4023
G01 X4.3852 Y20.4217
G01 X4.3971 Y20.4463
G01 X4.4026 Y20.4602
G01 X4.4084 Y20.4766
G01 X4.4113 Y20.4861
G01 X4.4178 Y20.5127
G01 X4.4220 Y20.5398
G01 X4.4229 Y20.5497
G01 X4.4239 Y20.5671
G01 X4.4239 Y20.5870
G01 X4.4225 Y20.6093
G01 X4.4187 Y20.6365
G01 X4.4167 Y20.6462
G01 X4.4126 Y20.6631
G01 X4.4084 Y20.6775
G01 X4.3990 Y20.7032
G01 X4.3875 Y20.7280
G01 X4.3803 Y20.7411
G01 X4.3713 Y20.7560
G01 X4.3657 Y20.7643
G01 X4.3493 Y20.7861
G01 X4.3276 Y20.8101
G01 X4.3036 Y20.8318
G01 X4.2827 Y20.8476
G01 X4.1337 Y20.9966
G01 X4.0168 Y21.1714
G01 X3.9364 Y21.3657
G01 X3.8954 Y21.5719
G01 X3.8954 Y21.7822
G01 X3.9364 Y21.9884
G01 X4.0168 Y22.1826
G01 X4.1337 Y22.3575
G01 X4.2827 Y22.5065
G01 X4.3036 Y22.5223
G01 X4.3276 Y22.5440
G01 X4.3493 Y22.5679
G01 X4.3686 Y22.5939
G01 X4.3852 Y22.6217
G01 X4.3971 Y22.6463
G01 X4.4009 Y22.6555
G01 X4.4068 Y22.6719
G01 X4.4126 Y22.6909
G01 X4.4167 Y22.7079
G01 X4.4187 Y22.7176
G01 X4.4225 Y22.7447
G01 X4.4241 Y22.7770
G01 X4.4229 Y22.8044
G01 X4.4213 Y22.8192
G01 X4.4187 Y22.8365
G01 X4.4167 Y22.8462
G01 X4.4099 Y22.8727
G01 X4.4026 Y22.8939
G01 X4.3971 Y22.9077
G01 X4.3852 Y22.9324
G01 X4.3739 Y22.9518
G01 X4.3657 Y22.9643
G01 X4.3493 Y22.9861
G01 X4.3276 Y23.0101
G01 X4.3036 Y23.0318
G01 X4.2827 Y23.0476
G01 X4.1337 Y23.1966
G01 X4.0168 Y23.3714
G01 X3.9364 Y23.5657
G01 X3.9279 Y23.6082
G01 X3.9237 Y23.6251
G01 X3.9195 Y23.6395
G01 X3.9120 Y23.6606
G01 X3.9061 Y23.6743
G01 X3.8963 Y23.6944
G01 X3.8850 Y23.7138
G01 X3.8769 Y23.7263
G01 X3.8604 Y23.7481
G01 X3.8387 Y23.7721
G01 X3.8147 Y23.7938
G01 X3.7887 Y23.8131
G01 X3.7610 Y23.8297
G01 X3.7318 Y23.8436
G01 X3.7013 Y23.8545
G01 X3.6699 Y23.8623
G01 X3.6379 Y23.8671
G01 X3.6056 Y23.8686
G01 X3.5733 Y23.8671
G01 X3.5413 Y23.8623
G01 X3.5099 Y23.8545
G01 X3.4795 Y23.8436
G01 X3.4502 Y23.8297
G01 X3.4309 Y23.8184
G01 X3.4184 Y23.8103
G01 X3.3965 Y23.7938
G01 X3.3726 Y23.7721
G01 X3.0559 Y23.4554
G01 X3.0374 Y23.4353
G01 X3.0311 Y23.4276
G01 X3.0206 Y23.4136
G01 X3.0122 Y23.4013
G01 X2.9983 Y23.3777
G01 X2.9885 Y23.3576
G01 X2.9826 Y23.3439
G01 X2.9750 Y23.3228
G01 X2.9709 Y23.3085
G01 X2.9657 Y23.2867
G01 X2.9622 Y23.2645
G01 X2.9605 Y23.2497
G01 X2.9594 Y23.2224
G01 X2.9594 Y23.0727
G01 X2.9605 Y23.0503
G01 X2.9618 Y23.0366
G01 X2.9520 Y22.9376
G01 X2.9231 Y22.8423
G01 X2.8762 Y22.7545
G01 X2.8131 Y22.6775
G01 X2.7988 Y22.6655
G01 X2.7823 Y22.6503
G01 X0.8473 Y20.7153
G01 X0.8321 Y20.6988
G01 X0.8201 Y20.6845
G01 X0.7431 Y20.6214
G01 X0.6553 Y20.5745
G01 X0.5600 Y20.5456
G01 X0.4610 Y20.5358
G01 X0.4423 Y20.5374
G01 X0.4199 Y20.5382
G01 X-6.8141 Y20.5382
G01 X-6.8365 Y20.5374
G01 X-6.8551 Y20.5358
G01 X-6.9542 Y20.5456
G01 X-7.0495 Y20.5745
G01 X-7.1373 Y20.6214
G01 X-7.2142 Y20.6845
G01 X-7.2263 Y20.6988
G01 X-7.2415 Y20.7153
G01 X-8.3502 Y21.8240
G01 X-8.3666 Y21.8392
G01 X-8.3780 Y21.8488
G01 X-8.4001 Y21.8650
G01 X-8.4192 Y21.8767
G01 X-8.4323 Y21.8839
G01 X-8.4526 Y21.8935
G01 X-8.4664 Y21.8990
G01 X-8.4876 Y21.9063
G01 X-8.5093 Y21.9120
G01 X-8.5239 Y21.9151
G01 X-8.5460 Y21.9184
G01 X-8.5609 Y21.9197
G01 X-8.5833 Y21.9205
G01 X-8.6106 Y21.9194
G01 X-8.6254 Y21.9177
G01 X-8.6476 Y21.9142
G01 X-8.6742 Y21.9077
G01 X-8.6884 Y21.9032
G01 X-8.7048 Y21.8973
G01 X-8.7140 Y21.8935
G01 X-8.7386 Y21.8816
G01 X-8.7664 Y21.8650
G01 X-8.7885 Y21.8488
G01 X-8.7999 Y21.8392
G01 X-8.8163 Y21.8240
G01 X-8.9815 Y21.6588
G01 X-9.1330 Y21.5575
G01 X-9.1510 Y21.5441
G01 X-9.1587 Y21.5378
G01 X-9.1753 Y21.5228
G01 X-9.1823 Y21.5158
G01 X-9.2006 Y21.4953
G01 X-9.2199 Y21.4694
G01 X-9.2365 Y21.4416
G01 X-9.2503 Y21.4124
G01 X-9.2612 Y21.3819
G01 X-9.2691 Y21.3505
G01 X-9.2738 Y21.3185
G01 X-9.2753 Y21.2912
G01 X-9.2753 Y21.2813
G01 X-9.2746 Y21.2638
G01 X-9.2726 Y21.2441
G01 X-9.2700 Y21.2268
G01 X-9.2680 Y21.2171
G01 X-9.2626 Y21.1953
G01 X-9.2597 Y21.1858
G01 X-9.2503 Y21.1601
G01 X-9.2365 Y21.1309
G01 X-9.2199 Y21.1031
G01 X-9.2037 Y21.0810
G01 X-9.1941 Y21.0696
G01 X-9.1789 Y21.0532
G01 X-9.1587 Y21.0346
G01 X-9.1471 Y21.0253
G01 X-9.1289 Y21.0122
G01 X-8.9815 Y20.9137
G01 X-8.8206 Y20.7528
G01 X-8.6941 Y20.5635
G01 X-8.6070 Y20.3533
G01 X-8.5626 Y20.1300
G01 X-8.5626 Y19.9024
G01 X-8.6070 Y19.6792
G01 X-8.6941 Y19.4690
G01 X-8.8206 Y19.2797
G01 X-8.9815 Y19.1188
G01 X-9.1289 Y19.0203
G01 X-9.1471 Y19.0071
G01 X-9.1587 Y18.9978
G01 X-9.1753 Y18.9828
G01 X-9.1857 Y18.9721
G01 X-9.2006 Y18.9553
G01 X-9.2170 Y18.9335
G01 X-9.2226 Y18.9252
G01 X-9.2316 Y18.9103
G01 X-9.2410 Y18.8927
G01 X-9.2484 Y18.8769
G01 X-9.2522 Y18.8678
G01 X-9.2612 Y18.8419
G01 X-9.2691 Y18.8105
G01 X-9.2733 Y18.7835
G01 X-9.2742 Y18.7736
G01 X-9.2752 Y18.7562
G01 X-9.2752 Y18.7363
G01 X-9.2742 Y18.7189
G01 X-9.2726 Y18.7041
G01 X-9.2700 Y18.6868
G01 X-9.2680 Y18.6771
G01 X-9.2626 Y18.6553
G01 X-9.2597 Y18.6458
G01 X-9.2503 Y18.6201
G01 X-9.2365 Y18.5909
G01 X-9.2199 Y18.5631
G01 X-9.2037 Y18.5410
G01 X-9.1941 Y18.5296
G01 X-9.1789 Y18.5132
G01 X-9.1587 Y18.4946
G01 X-9.1471 Y18.4853
G01 X-9.1289 Y18.4722
G01 X-8.9815 Y18.3737
G01 X-8.8206 Y18.2128
G01 X-8.6941 Y18.0235
G01 X-8.6070 Y17.8133
G01 X-8.5626 Y17.5900
G01 X-8.5626 Y17.3624
G01 X-8.6070 Y17.1392
G01 X-8.6941 Y16.9290
G01 X-8.8206 Y16.7397
G01 X-8.9363 Y16.6236
G01 X-8.9480 Y16.6107
G01 X-8.9573 Y16.5990
G01 X-8.9705 Y16.5809
G01 X-8.9822 Y16.5618
G01 X-8.9894 Y16.5487
G01 X-8.9990 Y16.5285
G01 X-9.0045 Y16.5146
G01 X-9.0118 Y16.4934
G01 X-9.0197 Y16.4621
G01 X-9.0232 Y16.4399
G01 X-9.0249 Y16.4251
G01 X-9.0260 Y16.3978
G01 X-9.0244 Y16.3654
G01 X-9.0197 Y16.3334
G01 X-9.0132 Y16.3068
G01 X-9.0103 Y16.2973
G01 X-9.0028 Y16.2762
G01 X-8.9990 Y16.2670
G01 X-8.9916 Y16.2513
G01 X-8.9822 Y16.2337
G01 X-8.9732 Y16.2188
G01 X-8.9677 Y16.2105
G01 X-8.9512 Y16.1887
G01 X-8.9295 Y16.1647
G01 X-8.9055 Y16.1430
G01 X-8.8795 Y16.1237
G01 X-8.8518 Y16.1071
G01 X-8.8226 Y16.0932
G01 X-8.7968 Y16.0838
G01 X-8.7506 Y16.0698
G01 X-8.6976 Y16.0414
G01 X-8.6511 Y16.0032
G01 X-8.6129 Y15.9567
G01 X-8.5845 Y15.9037
G01 X-8.5671 Y15.8461
G01 X-8.5596 Y15.7700
G01 X-8.5596 Y14.1024
G01 X-8.5671 Y14.0264
G01 X-8.5845 Y13.9688
G01 X-8.6129 Y13.9158
G01 X-8.6511 Y13.8693
G01 X-8.6976 Y13.8311
G01 X-8.7506 Y13.8027
G01 X-8.8082 Y13.7853
G01 X-8.8842 Y13.7778
G01 X-10.5518 Y13.7778
G01 X-10.6279 Y13.7853
G01 X-10.6855 Y13.8027
G01 X-10.7385 Y13.8311
G01 X-10.7850 Y13.8693
G01 X-10.8232 Y13.9158
G01 X-10.8516 Y13.9688
G01 X-10.8690 Y14.0264
G01 X-10.8765 Y14.1024
G01 X-10.8765 Y15.7700
G01 X-10.8690 Y15.8461
G01 X-10.8516 Y15.9037
G01 X-10.8232 Y15.9567
G01 X-10.7850 Y16.0032
G01 X-10.7385 Y16.0414
G01 X-10.6855 Y16.0698
G01 X-10.6392 Y16.0838
G01 X-10.6135 Y16.0932
G01 X-10.5843 Y16.1071
G01 X-10.5607 Y16.1210
G01 X-10.5524 Y16.1265
G01 X-10.5384 Y16.1368
G01 X-10.5230 Y16.1495
G01 X-10.5101 Y16.1612
G01 X-10.5031 Y16.1682
G01 X-10.4849 Y16.1887
G01 X-10.4656 Y16.2146
G01 X-10.4514 Y16.2380
G01 X-10.4467 Y16.2468
G01 X-10.4371 Y16.2670
G01 X-10.4333 Y16.2762
G01 X-10.4274 Y16.2926
G01 X-10.4216 Y16.3117
G01 X-10.4174 Y16.3286
G01 X-10.4155 Y16.3383
G01 X-10.4116 Y16.3654
G01 X-10.4101 Y16.3978
G01 X-10.4109 Y16.4201
G01 X-10.4122 Y16.4350
G01 X-10.4164 Y16.4621
G01 X-10.4216 Y16.4839
G01 X-10.4257 Y16.4982
G01 X-10.4351 Y16.5239
G01 X-10.4445 Y16.5442
G01 X-10.4514 Y16.5575
G01 X-10.4629 Y16.5767
G01 X-10.4684 Y16.5850
G01 X-10.4818 Y16.6030
G01 X-10.4914 Y16.6144
G01 X-10.5066 Y16.6308
G01 X-10.6155 Y16.7397
G01 X-10.7419 Y16.9290
G01 X-10.8290 Y17.1392
G01 X-10.8734 Y17.3624
G01 X-10.8734 Y17.5900
G01 X-10.8290 Y17.8133
G01 X-10.7419 Y18.0235
G01 X-10.6155 Y18.2128
G01 X-10.4546 Y18.3737
G01 X-10.3072 Y18.4722
G01 X-10.2890 Y18.4853
G01 X-10.2774 Y18.4946
G01 X-10.2608 Y18.5097
G01 X-10.2504 Y18.5204
G01 X-10.2355 Y18.5371
G01 X-10.2162 Y18.5631
G01 X-10.2020 Y18.5865
G01 X-10.1973 Y18.5953
G01 X-10.1877 Y18.6155
G01 X-10.1839 Y18.6247
G01 X-10.1780 Y18.6411
G01 X-10.1722 Y18.6601
G01 X-10.1680 Y18.6771
G01 X-10.1661 Y18.6868
G01 X-10.1623 Y18.7139
G01 X-10.1607 Y18.7462
G01 X-10.1623 Y18.7785
G01 X-10.1661 Y18.8057
G01 X-10.1680 Y18.8154
G01 X-10.1722 Y18.8323
G01 X-10.1780 Y18.8514
G01 X-10.1839 Y18.8678
G01 X-10.1877 Y18.8769
G01 X-10.1973 Y18.8972
G01 X-10.2020 Y18.9060
G01 X-10.2162 Y18.9294
G01 X-10.2355 Y18.9553
G01 X-10.2504 Y18.9721
G01 X-10.2608 Y18.9828
G01 X-10.2774 Y18.9978
G01 X-10.2890 Y19.0071
G01 X-10.3072 Y19.0203
G01 X-10.4546 Y19.1188
G01 X-10.6155 Y19.2797
G01 X-10.7419 Y19.4690
G01 X-10.8290 Y19.6792
G01 X-10.8734 Y19.9024
G01 X-10.8734 Y20.1300
G01 X-10.8290 Y20.3533
G01 X-10.7419 Y20.5635
G01 X-10.6155 Y20.7528
G01 X-10.4546 Y20.9137
G01 X-10.3072 Y21.0122
G01 X-10.2890 Y21.0253
G01 X-10.2774 Y21.0346
G01 X-10.2608 Y21.0497
G01 X-10.2504 Y21.0604
G01 X-10.2355 Y21.0771
G01 X-10.2162 Y21.1031
G01 X-10.2020 Y21.1265
G01 X-10.1973 Y21.1353
G01 X-10.1898 Y21.1510
G01 X-10.1822 Y21.1694
G01 X-10.1764 Y21.1858
G01 X-10.1735 Y21.1953
G01 X-10.1670 Y21.2219
G01 X-10.1623 Y21.2539
G01 X-10.1607 Y21.2813
G01 X-10.1607 Y21.2912
G01 X-10.1615 Y21.3086
G01 X-10.1635 Y21.3284
G01 X-10.1661 Y21.3457
G01 X-10.1680 Y21.3554
G01 X-10.1735 Y21.3771
G01 X-10.1764 Y21.3867
G01 X-10.1858 Y21.4124
G01 X-10.1996 Y21.4416
G01 X-10.2162 Y21.4694
G01 X-10.2324 Y21.4915
G01 X-10.2420 Y21.5029
G01 X-10.2572 Y21.5193
G01 X-10.2774 Y21.5378
G01 X-10.2890 Y21.5471
G01 X-10.3072 Y21.5603
G01 X-10.4546 Y21.6588
G01 X-10.6155 Y21.8197
G01 X-10.7419 Y22.0090
G01 X-10.8290 Y22.2192
G01 X-10.8734 Y22.4424
G01 X-10.8734 Y22.6700
G01 X-10.8290 Y22.8933
G01 X-10.7419 Y23.1035
G01 X-10.6155 Y23.2928
G01 X-10.4546 Y23.4537
G01 X-10.2653 Y23.5801
G01 X-10.0551 Y23.6672
G01 X-9.8318 Y23.7116
G01 X-9.6042 Y23.7116
G01 X-9.3810 Y23.6672
G01 X-9.1708 Y23.5801
G01 X-8.9815 Y23.4537
G01 X-8.8206 Y23.2928
G01 X-8.7612 Y23.2040
G01 X-8.7448 Y23.1821
G01 X-8.7265 Y23.1617
G01 X-8.7195 Y23.1547
G01 X-8.7066 Y23.1429
G01 X-8.6912 Y23.1303
G01 X-8.6772 Y23.1200
G01 X-8.6689 Y23.1145
G01 X-8.6454 Y23.1006
G01 X-8.6161 Y23.0867
G01 X-8.5857 Y23.0758
G01 X-8.5543 Y23.0680
G01 X-8.5272 Y23.0638
G01 X-8.5173 Y23.0628
G01 X-8.4949 Y23.0617
G01 X-8.4088 Y23.0616
G01 X-8.3864 Y23.0625
G01 X-8.3677 Y23.0641
G01 X-8.2687 Y23.0543
G01 X-8.1734 Y23.0254
G01 X-8.0856 Y22.9785
G01 X-8.0086 Y22.9153
G01 X-7.9966 Y22.9010
G01 X-7.9814 Y22.8846
G01 X-6.7423 Y21.6456
G01 X-6.7222 Y21.6270
G01 X-6.7105 Y21.6177
G01 X-6.6924 Y21.6046
G01 X-6.6690 Y21.5903
G01 X-6.6558 Y21.5835
G01 X-6.6354 Y21.5741
G01 X-6.6097 Y21.5647
G01 X-6.5954 Y21.5606
G01 X-6.5736 Y21.5554
G01 X-6.5465 Y21.5512
G01 X-6.5317 Y21.5499
G01 X-6.5093 Y21.5490
G01 X-5.8473 Y21.5493
G01 X-5.8255 Y21.5505
G01 X-5.8039 Y21.5534
G01 X-5.7896 Y21.5560
G01 X-5.7683 Y21.5612
G01 X-5.7545 Y21.5655
G01 X-5.7339 Y21.5729
G01 X-5.7053 Y21.5860
G01 X-5.6821 Y21.5993
G01 X-5.6700 Y21.6073
G01 X-5.6524 Y21.6202
G01 X-5.6322 Y21.6376
G01 X-5.6218 Y21.6478
G01 X-5.6070 Y21.6638
G01 X-5.5904 Y21.6848
G01 X-5.5822 Y21.6968
G01 X-5.5707 Y21.7153
G01 X-5.5584 Y21.7390
G01 X-5.5526 Y21.7523
G01 X-5.5449 Y21.7727
G01 X-5.5373 Y21.7983
G01 X-5.5342 Y21.8125
G01 X-5.5304 Y21.8340
G01 X-5.5279 Y21.8606
G01 X-5.3755 Y25.6601
G01 X-5.3758 Y25.6928
G01 X-5.3786 Y25.7203
G01 X-5.3802 Y25.7302
G01 X-5.3838 Y25.7475
G01 X-5.3889 Y25.7669
G01 X-5.3943 Y25.7837
G01 X-5.3978 Y25.7931
G01 X-5.4089 Y25.8185
G01 X-5.4222 Y25.8428
G01 X-5.4275 Y25.8513
G01 X-5.4374 Y25.8658
G01 X-5.4497 Y25.8818
G01 X-5.4611 Y25.8952
G01 X-5.4680 Y25.9025
G01 X-5.4881 Y25.9216
G01 X-5.5057 Y25.9358
G01 X-5.5221 Y25.9475
G01 X-5.5369 Y25.9569
G01 X-5.5457 Y25.9619
G01 X-5.5704 Y25.9743
G01 X-5.5962 Y25.9844
G01 X-5.6057 Y25.9876
G01 X-5.6227 Y25.9924
G01 X-5.6373 Y25.9959
G01 X-5.6646 Y26.0004
G01 X-5.6922 Y26.0026
G01 X-12.1446 Y26.1513
G01 X-12.1547 Y26.1513
G01 X-12.1775 Y26.1505
G01 X-12.2000 Y26.1479
G01 X-12.2100 Y26.1463
G01 X-12.2199 Y26.1443
G01 X-12.2420 Y26.1390
G01 X-12.2636 Y26.1319
G01 X-12.2731 Y26.1285
G01 X-12.2939 Y26.1193
G01 X-12.3030 Y26.1149
G01 X-12.3118 Y26.1101
G01 X-12.3314 Y26.0985
G01 X-12.3397 Y26.0928
G01 X-12.3580 Y26.0793
G01 X-12.3790 Y26.0610
G01 X-12.3862 Y26.0540
G01 X-12.4016 Y26.0373
G01 X-12.4081 Y26.0296
G01 X-12.4218 Y26.0114
G01 X-12.4275 Y26.0031
G01 X-12.4393 Y25.9837
G01 X-12.4442 Y25.9748
G01 X-12.4519 Y25.9589
G01 X-12.4579 Y25.9450
G01 X-12.4657 Y25.9237
G01 X-12.4687 Y25.9140
G01 X-12.4731 Y25.8969
G01 X-12.4753 Y25.8871
G01 X-12.4771 Y25.8771
G01 X-12.4797 Y25.8596
G01 X-12.4810 Y25.8445
G00 Z2.0000
G00 X0.2502 Y21.5524
G01 F120.00
G01 Z-0.0801
G01 F120.00
G01 X-5.5684 Y21.5524
G01 X-5.5499 Y21.5696
G01 X-5.5314 Y21.5892
G01 X-5.5218 Y21.6004
G01 X-5.5052 Y21.6216
G01 X-5.4967 Y21.6337
G01 X-5.4823 Y21.6564
G01 X-5.4750 Y21.6692
G01 X-5.4628 Y21.6932
G01 X-5.4567 Y21.7066
G01 X-5.4468 Y21.7317
G01 X-5.4421 Y21.7457
G01 X-5.4347 Y21.7715
G01 X-5.4313 Y21.7859
G01 X-5.4264 Y21.8124
G01 X-5.4244 Y21.8270
G01 X-5.4220 Y21.8538
G01 X-5.2695 Y25.6558
G01 X-5.2692 Y25.6711
G01 X-5.2699 Y25.6991
G01 X-5.2712 Y25.7143
G01 X-5.2735 Y25.7344
G01 X-5.2759 Y25.7496
G01 X-5.2800 Y25.7694
G01 X-5.2835 Y25.7843
G01 X-5.2878 Y25.7990
G01 X-5.2940 Y25.8183
G01 X-5.2993 Y25.8326
G01 X-5.3073 Y25.8513
G01 X-5.3137 Y25.8652
G01 X-5.3208 Y25.8788
G01 X-5.3307 Y25.8965
G01 X-5.3387 Y25.9095
G01 X-5.3502 Y25.9262
G01 X-5.3592 Y25.9386
G01 X-5.3688 Y25.9505
G01 X-5.3820 Y25.9659
G01 X-5.3925 Y25.9770
G01 X-5.4070 Y25.9912
G01 X-5.4183 Y26.0015
G01 X-5.4301 Y26.0113
G01 X-5.4460 Y26.0238
G01 X-5.4585 Y26.0326
G01 X-5.4755 Y26.0436
G01 X-5.4953 Y26.0553
G01 X-5.5134 Y26.0645
G01 X-5.5272 Y26.0711
G01 X-5.5413 Y26.0770
G01 X-5.5602 Y26.0843
G01 X-5.5748 Y26.0891
G01 X-5.5943 Y26.0946
G01 X-5.6091 Y26.0983
G01 X-5.6241 Y26.1013
G01 X-5.6441 Y26.1047
G01 X-5.6593 Y26.1066
G01 X-5.6795 Y26.1081
G01 X-5.6948 Y26.1089
G01 X-12.1499 Y26.2575
G01 X-12.1702 Y26.2570
G01 X-12.1856 Y26.2563
G01 X-12.2134 Y26.2531
G01 X-12.2362 Y26.2493
G01 X-12.2560 Y26.2449
G01 X-12.2709 Y26.2411
G01 X-12.2856 Y26.2365
G01 X-12.3048 Y26.2299
G01 X-12.3262 Y26.2212
G01 X-12.3515 Y26.2093
G01 X-12.3650 Y26.2019
G01 X-12.3826 Y26.1916
G01 X-12.4018 Y26.1789
G01 X-12.4243 Y26.1622
G01 X-12.4360 Y26.1523
G01 X-12.4512 Y26.1387
G01 X-12.4675 Y26.1224
G01 X-12.4862 Y26.1016
G01 X-12.4958 Y26.0896
G01 X-12.5080 Y26.0733
G01 X-12.5167 Y26.0606
G01 X-12.5273 Y26.0433
G01 X-12.5386 Y26.0232
G01 X-12.5507 Y25.9979
G01 X-12.5594 Y25.9766
G01 X-12.5686 Y25.9501
G01 X-12.5759 Y25.9230
G01 X-12.5808 Y25.9005
G01 X-12.5849 Y25.8728
G01 X-12.5869 Y25.8498
G01 X-12.5879 Y25.8218
G01 X-12.5879 Y-1.9714
G01 X-12.5866 Y-2.0055
G01 X-12.5842 Y-2.0274
G01 X-12.5814 Y-2.0466
G01 X-12.5786 Y-2.0610
G01 X-12.5703 Y-2.0941
G01 X-12.5594 Y-2.1264
G01 X-12.5510 Y-2.1468
G01 X-12.5396 Y-2.1709
G01 X-12.5228 Y-2.2006
G01 X-12.5148 Y-2.2130
G01 X-12.5037 Y-2.2288
G01 X-12.4903 Y-2.2463
G01 X-12.4678 Y-2.2719
G01 X-12.4486 Y-2.2907
G01 X-12.4322 Y-2.3053
G01 X-12.4052 Y-2.3262
G01 X-12.3767 Y-2.3448
G01 X-12.3575 Y-2.3556
G01 X-12.3336 Y-2.3676
G01 X-12.3089 Y-2.3779
G01 X-12.2882 Y-2.3854
G01 X-12.2625 Y-2.3929
G01 X-12.2411 Y-2.3979
G01 X-12.2147 Y-2.4026
G01 X-12.1881 Y-2.4056
G01 X-12.1735 Y-2.4066
G01 X-5.8738 Y-2.7145
G01 X-5.8584 Y-2.7149
G01 X-5.8380 Y-2.7148
G01 X-5.8148 Y-2.7133
G01 X-5.7945 Y-2.7111
G01 X-5.7792 Y-2.7088
G01 X-5.7592 Y-2.7048
G01 X-5.7441 Y-2.7013
G01 X-5.7293 Y-2.6971
G01 X-5.7098 Y-2.6909
G01 X-5.6881 Y-2.6827
G01 X-5.6694 Y-2.6746
G01 X-5.6555 Y-2.6679
G01 X-5.6375 Y-2.6581
G01 X-5.6242 Y-2.6504
G01 X-5.6112 Y-2.6419
G01 X-5.5882 Y-2.6257
G01 X-5.5665 Y-2.6078
G01 X-5.5494 Y-2.5922
G01 X-5.5298 Y-2.5719
G01 X-5.5196 Y-2.5603
G01 X-5.5021 Y-2.5382
G01 X-5.4889 Y-2.5192
G01 X-5.4741 Y-2.4952
G01 X-5.4611 Y-2.4703
G01 X-5.4514 Y-2.4492
G01 X-5.4439 Y-2.4302
G01 X-5.4364 Y-2.4083
G01 X-5.4289 Y-2.3811
G01 X-5.4256 Y-2.3661
G01 X-5.4209 Y-2.3383
G01 X-5.0886 Y0.4643
G01 X-5.0871 Y0.4883
G01 X-5.0865 Y0.5065
G01 X-5.0865 Y1.5220
G01 X-5.0878 Y1.5547
G01 X-5.0829 Y1.6045
G01 X-5.0687 Y1.6515
G01 X-5.0455 Y1.6948
G01 X-5.0015 Y1.7486
G01 X-4.9855 Y1.7700
G01 X-4.9774 Y1.7822
G01 X-4.9635 Y1.8050
G01 X-4.9533 Y1.8244
G01 X-4.9420 Y1.8486
G01 X-4.9324 Y1.8735
G01 X-4.9255 Y1.8943
G01 X-4.9186 Y1.9201
G01 X-4.9155 Y1.9344
G01 X-4.9123 Y1.9535
G01 X-4.9102 Y1.9680
G01 X-4.8922 Y2.1193
G01 X49.3966 Y1.8722
G01 X49.4117 Y1.8725
G01 X49.4317 Y1.8735
G01 X49.4543 Y1.8759
G01 X49.4741 Y1.8789
G01 X49.4890 Y1.8818
G01 X49.5085 Y1.8864
G01 X49.5231 Y1.8904
G01 X49.5375 Y1.8951
G01 X49.5564 Y1.9018
G01 X49.5773 Y1.9107
G01 X49.5954 Y1.9193
G01 X49.6088 Y1.9263
G01 X49.6261 Y1.9365
G01 X49.6389 Y1.9445
G01 X49.6513 Y1.9532
G01 X49.6674 Y1.9651
G01 X49.6792 Y1.9747
G01 X49.6942 Y1.9880
G01 X49.7105 Y2.0038
G01 X49.7241 Y2.0185
G01 X49.7340 Y2.0299
G01 X49.7434 Y2.0418
G01 X49.7553 Y2.0579
G01 X49.7638 Y2.0705
G01 X49.7743 Y2.0875
G01 X49.7818 Y2.1007
G01 X49.7887 Y2.1142
G01 X49.7973 Y2.1323
G01 X49.8031 Y2.1463
G01 X49.8101 Y2.1651
G01 X49.8149 Y2.1794
G01 X49.8190 Y2.1940
G01 X49.8255 Y2.2208
G01 X49.8300 Y2.2481
G01 X49.8319 Y2.2631
G01 X49.8338 Y2.2906
G01 X49.8343 Y2.3058
G01 X50.0006 Y35.7515
G01 X50.0003 Y35.7667
G01 X49.9993 Y35.7868
G01 X49.9969 Y35.8095
G01 X49.9940 Y35.8295
G01 X49.9910 Y35.8444
G01 X49.9863 Y35.8640
G01 X49.9823 Y35.8787
G01 X49.9776 Y35.8932
G01 X49.9707 Y35.9121
G01 X49.9650 Y35.9262
G01 X49.9565 Y35.9445
G01 X49.9460 Y35.9648
G01 X49.9358 Y35.9822
G01 X49.9276 Y35.9950
G01 X49.9189 Y36.0075
G01 X49.9068 Y36.0237
G01 X49.8972 Y36.0354
G01 X49.8838 Y36.0505
G01 X49.8678 Y36.0668
G01 X49.8530 Y36.0804
G01 X49.8414 Y36.0904
G01 X49.8294 Y36.0997
G01 X49.8132 Y36.1117
G01 X49.8005 Y36.1201
G01 X49.7833 Y36.1306
G01 X49.7700 Y36.1381
G01 X49.7564 Y36.1449
G01 X49.7382 Y36.1534
G01 X49.7241 Y36.1592
G01 X49.7051 Y36.1661
G01 X49.6907 Y36.1708
G01 X49.6760 Y36.1749
G01 X49.6489 Y36.1812
G01 X49.6215 Y36.1856
G01 X49.6064 Y36.1874
G01 X49.5787 Y36.1890
G01 X49.5635 Y36.1894
G01 X1.2693 Y36.0276
G01 X1.2350 Y36.0261
G01 X1.2130 Y36.0237
G01 X1.1936 Y36.0207
G01 X1.1791 Y36.0179
G01 X1.1459 Y36.0093
G01 X1.1134 Y35.9982
G01 X1.0997 Y35.9926
G01 X1.0819 Y35.9845
G01 X1.0687 Y35.9779
G01 X1.0557 Y35.9708
G01 X1.0389 Y35.9608
G01 X1.0265 Y35.9527
G01 X0.9989 Y35.9324
G01 X0.9729 Y35.9099
G01 X0.9623 Y35.8996
G01 X0.9489 Y35.8854
G01 X0.9390 Y35.8744
G01 X0.9297 Y35.8629
G01 X0.9178 Y35.8474
G01 X0.9094 Y35.8352
G01 X0.8913 Y35.8060
G01 X0.8756 Y35.7755
G01 X0.8696 Y35.7620
G01 X0.8625 Y35.7438
G01 X0.8575 Y35.7299
G01 X0.8531 Y35.7157
G01 X0.8479 Y35.6969
G01 X0.8446 Y35.6825
G01 X0.8388 Y35.6486
G01 X0.8357 Y35.6144
G01 X0.4122 Y23.4263
G01 X0.4121 Y22.6037
G01 X0.4130 Y22.5837
G01 X0.4142 Y22.5686
G01 X0.4178 Y22.5412
G01 X0.4204 Y22.5263
G01 X0.4237 Y22.5115
G01 X0.4287 Y22.4921
G01 X0.4331 Y22.4776
G01 X0.4398 Y22.4587
G01 X0.4452 Y22.4446
G01 X0.4514 Y22.4307
G01 X0.4600 Y22.4126
G01 X0.4672 Y22.3993
G01 X0.4774 Y22.3820
G01 X0.4855 Y22.3692
G01 X0.5016 Y22.3468
G01 X0.5110 Y22.3349
G01 X0.5209 Y22.3234
G01 X0.5344 Y22.3086
G01 X0.5451 Y22.2979
G01 X0.5599 Y22.2844
G01 X0.5714 Y22.2745
G01 X0.5833 Y22.2652
G01 X0.5995 Y22.2533
G01 X0.6120 Y22.2449
G01 X0.6292 Y22.2345
G01 X0.6424 Y22.2271
G01 X0.6559 Y22.2202
G01 X0.6741 Y22.2118
G01 X0.6881 Y22.2060
G01 X0.7069 Y22.1991
G01 X0.7213 Y22.1944
G01 X0.7359 Y22.1903
G01 X0.7553 Y22.1855
G01 X0.7702 Y22.1826
