(G-CODE GENERATED BY FLATCAM v8.994 - www.flatcam.org - Version Date: 2020/11/7)

(Name: pick_n_place_head-F_Cu.gbr_iso_combined_cnc)
(Type: G-code from Geometry)
(Units: MM)

(Created on vendredi, 04 mars 2022 at 21:44)

(This preprocessor is the default preprocessor used by FlatCAM.)
(It is made to work with MACH3 compatible motion controllers.)

(TOOL DIAMETER: 0.3 mm)
(Feedrate_XY: 120.0 mm/min)
(Feedrate_Z: 60.0 mm/min)
(Feedrate rapids 1500.0 mm/min)

(Z_Cut: -0.08 mm)
(Z_Move: 2.0 mm)
(Z Start: None mm)
(Z End: 15.0 mm)
(X,Y End: None mm)
(Steps per circle: 64)
(Preprocessor Geometry: default)

(X range:  -12.5943 ...   50.1198  mm)
(Y range:   -0.3124 ...   39.4127  mm)

(Spindle Speed: 1000.0 RPM)
G21
G90
G94

G01 F120.00

M5
G00 Z15.0000
G00 X0.0000 Y0.0000
T1
M6    
(MSG, Change to Tool Dia = 0.3000)
M0
G00 Z15.0000

M03 S1000.0
G01 F120.00
G00 X4.2532 Y8.5070
G01 F60.00
G01 Z-0.0800
G01 F120.00
G01 X4.2045 Y8.4409
G01 X4.1584 Y8.3642
G01 X4.1202 Y8.2832
G01 X4.0900 Y8.1990
G01 X4.0683 Y8.1122
G01 X4.0552 Y8.0236
G01 X4.0508 Y7.9342
G01 X4.0546 Y7.8522
G01 X4.0561 Y7.8375
G01 X4.0670 Y7.7636
G01 X4.0699 Y7.7491
G01 X4.0900 Y7.6695
G01 X4.1175 Y7.5921
G01 X4.1232 Y7.5785
G01 X4.1584 Y7.5043
G01 X4.2045 Y7.4276
G01 X4.2578 Y7.3557
G01 X4.3179 Y7.2894
G01 X4.3842 Y7.2293
G01 X4.4561 Y7.1759
G01 X4.5328 Y7.1299
G01 X4.6070 Y7.0946
G01 X4.6206 Y7.0890
G01 X4.6980 Y7.0615
G01 X4.7777 Y7.0414
G01 X4.7921 Y7.0385
G01 X4.8661 Y7.0275
G01 X4.8807 Y7.0261
G01 X4.9628 Y7.0222
G01 X5.0522 Y7.0266
G01 X5.1407 Y7.0398
G01 X5.2275 Y7.0615
G01 X5.3118 Y7.0917
G01 X5.3927 Y7.1299
G01 X5.4694 Y7.1759
G01 X5.5385 Y7.2270
G01 X5.5469 Y7.2341
G01 X5.6023 Y7.2843
G01 X5.6127 Y7.2947
G01 X5.6677 Y7.3557
G01 X5.7211 Y7.4276
G01 X5.7671 Y7.5043
G01 X5.8024 Y7.5785
G01 X5.8080 Y7.5921
G01 X5.8332 Y7.6625
G01 X5.8375 Y7.6766
G01 X5.8572 Y7.7563
G01 X5.8704 Y7.8448
G01 X5.8748 Y7.9342
G01 X5.8709 Y8.0163
G01 X5.8695 Y8.0309
G01 X5.8585 Y8.1049
G01 X5.8556 Y8.1193
G01 X5.8355 Y8.1990
G01 X5.8058 Y8.2821
G01 X12.7839 Y15.2602
G01 X35.0550 Y15.2602
G01 X35.0893 Y15.2619
G01 X35.1233 Y15.2670
G01 X35.1566 Y15.2753
G01 X35.1889 Y15.2869
G01 X35.2200 Y15.3016
G01 X35.2495 Y15.3192
G01 X35.2771 Y15.3397
G01 X35.3025 Y15.3628
G01 X38.6905 Y18.7507
G01 X38.8979 Y18.7507
G01 X38.9003 Y18.7394
G01 X38.9033 Y18.7288
G01 X38.9072 Y18.7184
G01 X38.9135 Y18.7051
G01 X38.9190 Y18.6956
G01 X38.9253 Y18.6865
G01 X38.9322 Y18.6779
G01 X38.9423 Y18.6672
G01 X38.9535 Y18.6576
G01 X38.9624 Y18.6511
G01 X38.9751 Y18.6436
G01 X38.9850 Y18.6387
G01 X38.9952 Y18.6346
G01 X39.0058 Y18.6313
G01 X39.0165 Y18.6287
G01 X39.0311 Y18.6266
G01 X39.0458 Y18.6258
G01 X40.1058 Y18.6258
G01 X40.1168 Y18.6262
G01 X40.1314 Y18.6280
G01 X40.1458 Y18.6313
G01 X40.1597 Y18.6359
G01 X40.1732 Y18.6419
G01 X40.1829 Y18.6472
G01 X40.1951 Y18.6554
G01 X40.2037 Y18.6623
G01 X40.2118 Y18.6698
G01 X40.2217 Y18.6807
G01 X40.2305 Y18.6925
G01 X40.2363 Y18.7019
G01 X40.2429 Y18.7151
G01 X40.2470 Y18.7253
G01 X40.2513 Y18.7394
G01 X40.2536 Y18.7507
G01 X40.6097 Y18.7508
G01 X40.6367 Y18.7521
G01 X40.6477 Y18.7533
G01 X40.6744 Y18.7575
G01 X40.7042 Y18.7648
G01 X40.7147 Y18.7681
G01 X40.7400 Y18.7774
G01 X40.7711 Y18.7921
G01 X40.8006 Y18.8097
G01 X40.8282 Y18.8302
G01 X40.8536 Y18.8533
G01 X40.8767 Y18.8787
G01 X40.8972 Y18.9063
G01 X40.9130 Y18.9326
G01 X40.9181 Y18.9424
G01 X40.9295 Y18.9669
G01 X40.9411 Y18.9992
G01 X40.9494 Y19.0325
G01 X40.9545 Y19.0665
G01 X40.9562 Y19.1008
G01 X40.9562 Y19.3685
G01 X41.1637 Y19.5760
G01 X41.6960 Y19.5760
G01 X41.7229 Y19.5772
G01 X41.7339 Y19.5781
G01 X41.7643 Y19.5828
G01 X41.7976 Y19.5911
G01 X41.8299 Y19.6027
G01 X41.8544 Y19.6141
G01 X41.8674 Y19.6210
G01 X41.8874 Y19.6330
G01 X41.8965 Y19.6393
G01 X41.9181 Y19.6555
G01 X41.9435 Y19.6786
G01 X45.6637 Y23.3988
G01 X45.6868 Y23.4242
G01 X45.7030 Y23.4458
G01 X45.7093 Y23.4549
G01 X45.7249 Y23.4813
G01 X45.7366 Y23.5056
G01 X45.7410 Y23.5158
G01 X45.7512 Y23.5447
G01 X45.7588 Y23.5744
G01 X45.7608 Y23.5853
G01 X45.7646 Y23.6120
G01 X45.7662 Y23.6427
G01 X45.7662 Y25.5758
G01 X45.7646 Y25.6065
G01 X45.7595 Y25.6404
G01 X45.7512 Y25.6738
G01 X45.7396 Y25.7061
G01 X45.7249 Y25.7372
G01 X45.7073 Y25.7666
G01 X45.6868 Y25.7942
G01 X45.6637 Y25.8197
G01 X43.2973 Y28.1861
G01 X43.2719 Y28.2092
G01 X43.2503 Y28.2254
G01 X43.2380 Y28.2336
G01 X43.2180 Y28.2455
G01 X43.2115 Y28.2490
G01 X43.1871 Y28.2605
G01 X43.1769 Y28.2646
G01 X43.1514 Y28.2736
G01 X43.1252 Y28.2803
G01 X43.1144 Y28.2826
G01 X43.0841 Y28.2870
G01 X43.0498 Y28.2886
G01 X38.6044 Y28.2886
G01 X37.4038 Y29.4893
G01 X37.4038 Y30.0879
G01 X37.4021 Y30.1242
G01 X37.3982 Y30.1534
G01 X37.3956 Y30.1670
G01 X37.3896 Y30.1923
G01 X37.3867 Y30.2023
G01 X37.3759 Y30.2333
G01 X37.3654 Y30.2571
G01 X37.3609 Y30.2665
G01 X37.3448 Y30.2952
G01 X37.3242 Y30.3252
G01 X37.3010 Y30.3532
G01 X37.2778 Y30.3765
G01 X37.2701 Y30.3834
G01 X37.2500 Y30.4000
G01 X37.2231 Y30.4189
G01 X37.2113 Y30.4262
G01 X37.1886 Y30.4388
G01 X37.1792 Y30.4433
G01 X37.1522 Y30.4551
G01 X37.1178 Y30.4666
G01 X37.0824 Y30.4749
G01 X37.0463 Y30.4800
G01 X37.0100 Y30.4816
G01 X36.5151 Y30.4815
G01 X36.4839 Y30.4797
G01 X36.4457 Y30.4741
G01 X36.4082 Y30.4647
G01 X36.3718 Y30.4517
G01 X36.3435 Y30.4385
G01 X36.3305 Y30.4315
G01 X36.3038 Y30.4153
G01 X36.2785 Y30.3968
G01 X36.2671 Y30.3875
G01 X36.2441 Y30.3663
G01 X36.2229 Y30.3433
G01 X36.2136 Y30.3319
G01 X36.1951 Y30.3066
G01 X36.1789 Y30.2799
G01 X36.1719 Y30.2669
G01 X36.1587 Y30.2386
G01 X36.1480 Y30.2092
G01 X36.1438 Y30.1951
G01 X36.1363 Y30.1647
G01 X36.1311 Y30.1301
G01 X36.1301 Y30.1191
G01 X36.1288 Y30.0879
G01 X36.1288 Y29.1754
G01 X36.1300 Y29.1460
G01 X36.1312 Y29.1322
G01 X36.1361 Y29.0996
G01 X36.1438 Y29.0676
G01 X36.1530 Y29.0397
G01 X36.1580 Y29.0267
G01 X36.1700 Y28.9999
G01 X36.1842 Y28.9741
G01 X36.1915 Y28.9623
G01 X36.2083 Y28.9381
G01 X36.2270 Y28.9153
G01 X36.2339 Y28.9076
G01 X36.2522 Y28.8892
G01 X36.2598 Y28.8821
G01 X36.2825 Y28.8633
G01 X36.3094 Y28.8444
G01 X36.3212 Y28.8371
G01 X36.3470 Y28.8229
G01 X36.3803 Y28.8082
G01 X36.4148 Y28.7967
G01 X36.4502 Y28.7883
G01 X36.4862 Y28.7833
G01 X36.5190 Y28.7817
G01 X37.0100 Y28.7816
G01 X37.0413 Y28.7830
G01 X37.0523 Y28.7839
G01 X37.0868 Y28.7892
G01 X37.1084 Y28.7944
G01 X38.2118 Y27.6910
G01 X38.2344 Y27.6703
G01 X38.2431 Y27.6634
G01 X38.2649 Y27.6474
G01 X38.2911 Y27.6316
G01 X38.3009 Y27.6265
G01 X38.3254 Y27.6151
G01 X38.3542 Y27.6046
G01 X38.3648 Y27.6016
G01 X38.3911 Y27.5952
G01 X38.4177 Y27.5910
G01 X38.4287 Y27.5898
G01 X38.4594 Y27.5884
G01 X42.9047 Y27.5884
G01 X45.0661 Y25.4271
G01 X45.0661 Y23.7914
G01 X41.5509 Y20.2762
G01 X41.0187 Y20.2762
G01 X40.9880 Y20.2749
G01 X40.9770 Y20.2737
G01 X40.9504 Y20.2695
G01 X40.9206 Y20.2622
G01 X40.9100 Y20.2589
G01 X40.8847 Y20.2496
G01 X40.8602 Y20.2382
G01 X40.8504 Y20.2331
G01 X40.8272 Y20.2192
G01 X40.8181 Y20.2130
G01 X40.7966 Y20.1968
G01 X40.7711 Y20.1737
G01 X40.3585 Y19.7611
G01 X40.3378 Y19.7385
G01 X40.3309 Y19.7298
G01 X40.3170 Y19.7111
G01 X40.3130 Y19.7050
G01 X40.3009 Y19.6850
G01 X40.2956 Y19.6753
G01 X40.2826 Y19.6475
G01 X40.2733 Y19.6222
G01 X40.2700 Y19.6116
G01 X40.2627 Y19.5818
G01 X40.2576 Y19.5479
G01 X40.2560 Y19.5172
G01 X40.2560 Y19.4509
G01 X40.2536 Y19.4509
G01 X40.2513 Y19.4623
G01 X40.2470 Y19.4764
G01 X40.2429 Y19.4866
G01 X40.2363 Y19.4998
G01 X40.2305 Y19.5092
G01 X40.2240 Y19.5181
G01 X40.2169 Y19.5266
G01 X40.2065 Y19.5370
G01 X40.1980 Y19.5441
G01 X40.1891 Y19.5506
G01 X40.1797 Y19.5564
G01 X40.1665 Y19.5630
G01 X40.1563 Y19.5671
G01 X40.1458 Y19.5704
G01 X40.1350 Y19.5730
G01 X40.1205 Y19.5751
G01 X40.1058 Y19.5758
G01 X39.0421 Y19.5758
G01 X39.0311 Y19.5751
G01 X39.0165 Y19.5730
G01 X39.0022 Y19.5694
G01 X38.9918 Y19.5658
G01 X38.9783 Y19.5598
G01 X38.9686 Y19.5545
G01 X38.9564 Y19.5463
G01 X38.9478 Y19.5394
G01 X38.9397 Y19.5319
G01 X38.9298 Y19.5210
G01 X38.9210 Y19.5092
G01 X38.9152 Y19.4998
G01 X38.9086 Y19.4866
G01 X38.9045 Y19.4764
G01 X38.9003 Y19.4623
G01 X38.8979 Y19.4509
G01 X38.5455 Y19.4509
G01 X38.5111 Y19.4493
G01 X38.4772 Y19.4442
G01 X38.4474 Y19.4369
G01 X38.4368 Y19.4336
G01 X38.4115 Y19.4243
G01 X38.3870 Y19.4129
G01 X38.3772 Y19.4078
G01 X38.3540 Y19.3939
G01 X38.3449 Y19.3877
G01 X38.3234 Y19.3715
G01 X38.2979 Y19.3484
G01 X34.9099 Y15.9604
G01 X12.6389 Y15.9604
G01 X12.6082 Y15.9591
G01 X12.5972 Y15.9579
G01 X12.5706 Y15.9537
G01 X12.5372 Y15.9454
G01 X12.5083 Y15.9352
G01 X12.4982 Y15.9308
G01 X12.4738 Y15.9191
G01 X12.4506 Y15.9054
G01 X12.4413 Y15.8994
G01 X12.4168 Y15.8810
G01 X12.3913 Y15.8579
G01 X5.3107 Y8.7773
G01 X5.2275 Y8.8070
G01 X5.1479 Y8.8271
G01 X5.1334 Y8.8300
G01 X5.0595 Y8.8409
G01 X5.0448 Y8.8424
G01 X4.9628 Y8.8462
G01 X4.8734 Y8.8418
G01 X4.7848 Y8.8287
G01 X4.7051 Y8.8089
G01 X4.6910 Y8.8047
G01 X4.6206 Y8.7795
G01 X4.6070 Y8.7738
G01 X4.5328 Y8.7386
G01 X4.4561 Y8.6925
G01 X4.3842 Y8.6392
G01 X4.3232 Y8.5842
G01 X4.3128 Y8.5738
G01 X4.2626 Y8.5184
G01 X4.2532 Y8.5070
G00 Z2.0000
G00 X5.4839 Y9.1920
G01 F60.00
G01 Z-0.0800
G01 F120.00
G01 X5.4705 Y9.1844
G01 X5.4566 Y9.1775
G01 X5.3890 Y9.1455
G01 X5.3749 Y9.1392
G01 X5.3605 Y9.1337
G01 X5.2901 Y9.1085
G01 X5.2680 Y9.1015
G01 X5.1804 Y9.0795
G01 X5.1576 Y9.0753
G01 X5.0837 Y9.0643
G01 X5.0683 Y9.0624
G01 X5.0529 Y9.0613
G01 X4.9782 Y9.0576
G01 X4.9628 Y9.0572
G01 X4.9473 Y9.0576
G01 X4.8726 Y9.0613
G01 X4.8572 Y9.0624
G01 X4.8419 Y9.0643
G01 X4.7679 Y9.0753
G01 X4.7526 Y9.0779
G01 X4.7376 Y9.0813
G01 X4.6650 Y9.0995
G01 X4.6428 Y9.1060
G01 X4.5578 Y9.1364
G01 X4.5435 Y9.1423
G01 X4.5202 Y9.1532
G01 X4.5281 Y9.1205
G01 X4.5325 Y9.0929
G01 X4.5351 Y9.0699
G01 X4.5362 Y9.0497
G01 X4.5366 Y9.0342
G01 X4.5362 Y9.0188
G01 X4.5351 Y8.9986
G01 X4.5325 Y8.9756
G01 X4.5281 Y8.9480
G01 X4.5202 Y8.9153
G01 X4.5435 Y8.9262
G01 X4.5578 Y8.9321
G01 X4.6354 Y8.9600
G01 X4.6575 Y8.9670
G01 X4.7376 Y8.9872
G01 X4.7526 Y8.9905
G01 X4.7679 Y8.9932
G01 X4.8419 Y9.0042
G01 X4.8649 Y9.0067
G01 X4.9473 Y9.0109
G01 X4.9628 Y9.0112
G01 X4.9782 Y9.0109
G01 X5.0529 Y9.0072
G01 X5.0683 Y9.0061
G01 X5.0837 Y9.0042
G01 X5.1576 Y8.9932
G01 X5.1729 Y8.9905
G01 X5.1880 Y8.9872
G01 X5.2673 Y8.9672
G01 X5.5043 Y9.2043
G01 X5.4839 Y9.1920
G00 Z2.0000
G00 X6.0357 Y10.0441
G01 F60.00
G01 Z-0.0800
G01 F120.00
G01 X6.0346 Y10.0287
G01 X6.0327 Y10.0133
G01 X6.0217 Y9.9394
G01 X6.0191 Y9.9241
G01 X6.0157 Y9.9090
G01 X5.9975 Y9.8365
G01 X5.9934 Y9.8216
G01 X5.9885 Y9.8069
G01 X5.9633 Y9.7365
G01 X5.9547 Y9.7150
G01 X5.9161 Y9.6334
G01 X5.9089 Y9.6198
G01 X5.8927 Y9.5927
G01 X6.3304 Y10.0304
G01 X6.3122 Y10.0303
G01 X6.2920 Y10.0312
G01 X6.2766 Y10.0323
G01 X6.2612 Y10.0342
G01 X6.2413 Y10.0373
G01 X6.2261 Y10.0403
G01 X6.1990 Y10.0471
G01 X6.1842 Y10.0515
G01 X6.1652 Y10.0583
G01 X6.1507 Y10.0638
G01 X6.1366 Y10.0701
G01 X6.1115 Y10.0824
G01 X6.0981 Y10.0900
G01 X6.0743 Y10.1047
G01 X6.0617 Y10.1136
G01 X6.0397 Y10.1303
G01 X6.0357 Y10.0441
G00 Z2.0000
G00 X4.5506 Y11.1293
G01 F60.00
G01 Z-0.0800
G01 F120.00
G01 X4.5650 Y11.1348
G01 X4.6354 Y11.1600
G01 X4.6501 Y11.1649
G01 X4.6650 Y11.1690
G01 X4.7376 Y11.1872
G01 X4.7526 Y11.1905
G01 X4.7679 Y11.1932
G01 X4.8419 Y11.2042
G01 X4.8572 Y11.2061
G01 X4.8726 Y11.2072
G01 X4.9473 Y11.2109
G01 X4.9705 Y11.2111
G01 X5.0529 Y11.2072
G01 X5.0683 Y11.2061
G01 X5.0837 Y11.2042
G01 X5.1576 Y11.1932
G01 X5.1804 Y11.1889
G01 X5.2605 Y11.1690
G01 X5.2828 Y11.1625
G01 X5.3677 Y11.1321
G01 X5.3820 Y11.1262
G01 X5.4053 Y11.1153
G01 X5.3975 Y11.1480
G01 X5.3930 Y11.1756
G01 X5.3904 Y11.1986
G01 X5.3893 Y11.2188
G01 X5.3890 Y11.2342
G01 X5.3893 Y11.2497
G01 X5.3904 Y11.2699
G01 X5.3930 Y11.2929
G01 X5.3975 Y11.3205
G01 X5.4053 Y11.3532
G01 X5.3820 Y11.3423
G01 X5.3677 Y11.3364
G01 X5.2828 Y11.3060
G01 X5.2605 Y11.2995
G01 X5.1804 Y11.2795
G01 X5.1576 Y11.2753
G01 X5.0837 Y11.2643
G01 X5.0683 Y11.2624
G01 X5.0529 Y11.2613
G01 X4.9782 Y11.2576
G01 X4.9628 Y11.2572
G01 X4.9473 Y11.2576
G01 X4.8726 Y11.2613
G01 X4.8572 Y11.2624
G01 X4.8419 Y11.2643
G01 X4.7679 Y11.2753
G01 X4.7451 Y11.2795
G01 X4.6650 Y11.2995
G01 X4.6428 Y11.3060
G01 X4.5578 Y11.3364
G01 X4.5435 Y11.3423
G01 X4.5202 Y11.3532
G01 X4.5281 Y11.3205
G01 X4.5325 Y11.2929
G01 X4.5351 Y11.2699
G01 X4.5362 Y11.2497
G01 X4.5366 Y11.2342
G01 X4.5362 Y11.2188
G01 X4.5351 Y11.1986
G01 X4.5325 Y11.1756
G01 X4.5281 Y11.1480
G01 X4.5202 Y11.1153
G01 X4.5506 Y11.1293
G00 Z2.0000
G00 X4.2087 Y10.6469
G01 F60.00
G01 Z-0.0800
G01 F120.00
G01 X4.2005 Y10.6347
G01 X4.1584 Y10.5642
G01 X4.1202 Y10.4832
G01 X4.0900 Y10.3990
G01 X4.0683 Y10.3122
G01 X4.0552 Y10.2236
G01 X4.0508 Y10.1342
G01 X4.0552 Y10.0448
G01 X4.0683 Y9.9563
G01 X4.0900 Y9.8695
G01 X4.1202 Y9.7852
G01 X4.1584 Y9.7043
G01 X4.2045 Y9.6276
G01 X4.2578 Y9.5557
G01 X4.3179 Y9.4894
G01 X4.3842 Y9.4293
G01 X4.4561 Y9.3759
G01 X4.5328 Y9.3299
G01 X4.6138 Y9.2917
G01 X4.6980 Y9.2615
G01 X4.7848 Y9.2398
G01 X4.8734 Y9.2266
G01 X4.9628 Y9.2222
G01 X5.0522 Y9.2266
G01 X5.1407 Y9.2398
G01 X5.2275 Y9.2615
G01 X5.3118 Y9.2917
G01 X5.3927 Y9.3299
G01 X5.4694 Y9.3759
G01 X5.5413 Y9.4293
G01 X5.6076 Y9.4894
G01 X5.6677 Y9.5557
G01 X5.7211 Y9.6276
G01 X5.7671 Y9.7043
G01 X5.8053 Y9.7852
G01 X5.8355 Y9.8695
G01 X5.8572 Y9.9563
G01 X5.8704 Y10.0448
G01 X5.8748 Y10.1342
G01 X5.8704 Y10.2236
G01 X5.8572 Y10.3122
G01 X5.8355 Y10.3990
G01 X5.8053 Y10.4832
G01 X5.7671 Y10.5642
G01 X5.7211 Y10.6409
G01 X5.6677 Y10.7128
G01 X5.6076 Y10.7791
G01 X5.5413 Y10.8392
G01 X5.4694 Y10.8925
G01 X5.3927 Y10.9386
G01 X5.3118 Y10.9768
G01 X5.2275 Y11.0070
G01 X5.1407 Y11.0287
G01 X5.0522 Y11.0418
G01 X4.9628 Y11.0462
G01 X4.8734 Y11.0418
G01 X4.7848 Y11.0287
G01 X4.6980 Y11.0070
G01 X4.6138 Y10.9768
G01 X4.5328 Y10.9386
G01 X4.4561 Y10.8925
G01 X4.3842 Y10.8392
G01 X4.3179 Y10.7791
G01 X4.2578 Y10.7128
G01 X4.2087 Y10.6469
G00 Z2.0000
G00 X4.7376 Y13.3872
G01 F60.00
G01 Z-0.0800
G01 F120.00
G01 X4.7526 Y13.3905
G01 X4.7679 Y13.3932
G01 X4.8495 Y13.4052
G01 X4.8726 Y13.4072
G01 X4.9473 Y13.4109
G01 X4.9628 Y13.4112
G01 X4.9782 Y13.4109
G01 X5.0529 Y13.4072
G01 X5.0683 Y13.4061
G01 X5.0837 Y13.4042
G01 X5.1576 Y13.3932
G01 X5.1729 Y13.3905
G01 X5.1880 Y13.3872
G01 X5.2680 Y13.3670
G01 X5.2901 Y13.3600
G01 X5.3677 Y13.3321
G01 X5.3820 Y13.3262
G01 X5.4053 Y13.3153
G01 X5.3975 Y13.3480
G01 X5.3930 Y13.3756
G01 X5.3904 Y13.3986
G01 X5.3893 Y13.4188
G01 X5.3890 Y13.4342
G01 X5.3893 Y13.4497
G01 X5.3904 Y13.4699
G01 X5.3930 Y13.4929
G01 X5.3975 Y13.5205
G01 X5.4053 Y13.5532
G01 X5.3820 Y13.5423
G01 X5.3677 Y13.5364
G01 X5.2828 Y13.5060
G01 X5.2605 Y13.4995
G01 X5.1880 Y13.4813
G01 X5.1653 Y13.4765
G01 X5.0760 Y13.4633
G01 X5.0529 Y13.4613
G01 X4.9782 Y13.4576
G01 X4.9628 Y13.4572
G01 X4.9473 Y13.4576
G01 X4.8726 Y13.4613
G01 X4.8572 Y13.4624
G01 X4.8419 Y13.4643
G01 X4.7679 Y13.4753
G01 X4.7526 Y13.4779
G01 X4.7376 Y13.4813
G01 X4.6650 Y13.4995
G01 X4.6501 Y13.5036
G01 X4.6354 Y13.5085
G01 X4.5650 Y13.5337
G01 X4.5435 Y13.5423
G01 X4.4619 Y13.5809
G01 X4.4483 Y13.5881
G01 X4.4212 Y13.6043
G01 X4.6583 Y13.3672
G01 X4.7376 Y13.3872
G00 Z2.0000
G00 X4.7451 Y15.5889
G01 F60.00
G01 Z-0.0800
G01 F120.00
G01 X4.7679 Y15.5932
G01 X4.8419 Y15.6042
G01 X4.8572 Y15.6061
G01 X4.8726 Y15.6072
G01 X4.9473 Y15.6109
G01 X4.9628 Y15.6112
G01 X4.9782 Y15.6109
G01 X5.0529 Y15.6072
G01 X5.0760 Y15.6052
G01 X5.1576 Y15.5932
G01 X5.1729 Y15.5905
G01 X5.1880 Y15.5872
G01 X5.2680 Y15.5670
G01 X5.2901 Y15.5600
G01 X5.3677 Y15.5321
G01 X5.3820 Y15.5262
G01 X5.4053 Y15.5153
G01 X5.3975 Y15.5480
G01 X5.3930 Y15.5756
G01 X5.3904 Y15.5986
G01 X5.3893 Y15.6188
G01 X5.3890 Y15.6342
G01 X5.3893 Y15.6497
G01 X5.3904 Y15.6699
G01 X5.3930 Y15.6929
G01 X5.3975 Y15.7205
G01 X5.4053 Y15.7532
G01 X5.3820 Y15.7423
G01 X5.3677 Y15.7364
G01 X5.2828 Y15.7060
G01 X5.2605 Y15.6995
G01 X5.1880 Y15.6813
G01 X5.1653 Y15.6765
G01 X5.0760 Y15.6633
G01 X5.0529 Y15.6613
G01 X4.9782 Y15.6576
G01 X4.9628 Y15.6572
G01 X4.9473 Y15.6576
G01 X4.8726 Y15.6613
G01 X4.8572 Y15.6624
G01 X4.8419 Y15.6643
G01 X4.7679 Y15.6753
G01 X4.7526 Y15.6779
G01 X4.7376 Y15.6813
G01 X4.6650 Y15.6995
G01 X4.6501 Y15.7036
G01 X4.6354 Y15.7085
G01 X4.5650 Y15.7337
G01 X4.5435 Y15.7423
G01 X4.4619 Y15.7809
G01 X4.4483 Y15.7881
G01 X4.4212 Y15.8043
G01 X4.6583 Y15.5672
G01 X4.7451 Y15.5889
G00 Z2.0000
G00 X1.4662 Y16.5593
G01 F60.00
G01 Z-0.0800
G01 F120.00
G01 X4.0328 Y13.9927
G01 X4.0167 Y14.0198
G01 X4.0094 Y14.0334
G01 X3.9708 Y14.1150
G01 X3.9622 Y14.1365
G01 X3.9345 Y14.2142
G01 X3.9280 Y14.2365
G01 X3.9098 Y14.3090
G01 X3.9065 Y14.3241
G01 X3.9038 Y14.3394
G01 X3.8918 Y14.4210
G01 X3.8898 Y14.4441
G01 X3.8861 Y14.5188
G01 X3.8858 Y14.5342
G01 X3.8861 Y14.5497
G01 X3.8898 Y14.6244
G01 X3.8909 Y14.6398
G01 X3.8928 Y14.6551
G01 X3.9038 Y14.7291
G01 X3.9065 Y14.7444
G01 X3.9098 Y14.7594
G01 X3.9298 Y14.8387
G01 X1.7542 Y17.0143
G01 X1.7544 Y17.0038
G01 X1.7540 Y16.9883
G01 X1.7529 Y16.9682
G01 X1.7514 Y16.9528
G01 X1.7485 Y16.9328
G01 X1.7459 Y16.9176
G01 X1.7425 Y16.9025
G01 X1.7375 Y16.8829
G01 X1.7305 Y16.8608
G01 X1.7236 Y16.8418
G01 X1.7177 Y16.8275
G01 X1.7092 Y16.8092
G01 X1.7022 Y16.7954
G01 X1.6946 Y16.7820
G01 X1.6841 Y16.7647
G01 X1.6755 Y16.7518
G01 X1.6589 Y16.7294
G01 X1.6491 Y16.7174
G01 X1.6356 Y16.7024
G01 X1.6249 Y16.6912
G01 X1.6137 Y16.6805
G01 X1.5987 Y16.6671
G01 X1.5806 Y16.6526
G01 X1.5643 Y16.6406
G01 X1.5515 Y16.6320
G01 X1.5275 Y16.6177
G01 X1.5139 Y16.6104
G01 X1.4956 Y16.6016
G01 X1.4815 Y16.5954
G01 X1.4671 Y16.5898
G01 X1.4424 Y16.5813
G01 X1.4662 Y16.5593
G00 Z2.0000
G00 X1.1207 Y19.1047
G01 F60.00
G01 Z-0.0800
G01 F120.00
G01 X1.1262 Y19.0993
G01 X4.0328 Y16.1927
G01 X4.0167 Y16.2198
G01 X4.0094 Y16.2334
G01 X3.9708 Y16.3150
G01 X3.9622 Y16.3365
G01 X3.9345 Y16.4142
G01 X3.9280 Y16.4365
G01 X3.9098 Y16.5090
G01 X3.9065 Y16.5241
G01 X3.9038 Y16.5394
G01 X3.8918 Y16.6210
G01 X3.8898 Y16.6441
G01 X3.8861 Y16.7188
G01 X3.8858 Y16.7342
G01 X3.8861 Y16.7497
G01 X3.8898 Y16.8244
G01 X3.8909 Y16.8398
G01 X3.8928 Y16.8551
G01 X3.9038 Y16.9291
G01 X3.9065 Y16.9444
G01 X3.9098 Y16.9594
G01 X3.9298 Y17.0387
G01 X1.4142 Y19.5543
G01 X1.4144 Y19.5438
G01 X1.4140 Y19.5283
G01 X1.4129 Y19.5082
G01 X1.4114 Y19.4928
G01 X1.4085 Y19.4728
G01 X1.4059 Y19.4576
G01 X1.4025 Y19.4425
G01 X1.3954 Y19.4155
G01 X1.3905 Y19.4008
G01 X1.3836 Y19.3818
G01 X1.3777 Y19.3675
G01 X1.3692 Y19.3492
G01 X1.3585 Y19.3286
G01 X1.3482 Y19.3113
G01 X1.3399 Y19.2982
G01 X1.3236 Y19.2755
G01 X1.3141 Y19.2634
G01 X1.3040 Y19.2516
G01 X1.2903 Y19.2367
G01 X1.2794 Y19.2258
G01 X1.2645 Y19.2122
G01 X1.2528 Y19.2021
G01 X1.2406 Y19.1926
G01 X1.2243 Y19.1806
G01 X1.2115 Y19.1720
G01 X1.1875 Y19.1577
G01 X1.1739 Y19.1504
G01 X1.1556 Y19.1416
G01 X1.1415 Y19.1354
G01 X1.1271 Y19.1298
G01 X1.1024 Y19.1213
G01 X1.1207 Y19.1047
G00 Z2.0000
G00 X-8.5530 Y20.7416
G01 F60.00
G01 Z-0.0800
G01 F120.00
G01 X-8.5426 Y20.7526
G01 X-8.5350 Y20.7599
G01 X-8.5530 Y20.7599
G01 X-8.5530 Y20.7416
G00 Z2.0000
G00 X-8.9307 Y19.9612
G01 F60.00
G01 Z-0.0800
G01 F120.00
G01 X-8.9408 Y19.9441
G01 X-8.9509 Y19.9229
G01 X-8.9550 Y19.9127
G01 X-8.9626 Y19.8904
G01 X-8.9682 Y19.8676
G01 X-8.9712 Y19.8480
G01 X-8.9725 Y19.8370
G01 X-8.9735 Y19.8135
G01 X-8.9725 Y19.7900
G01 X-8.9712 Y19.7791
G01 X-8.9682 Y19.7595
G01 X-8.9616 Y19.7331
G01 X-8.9538 Y19.7109
G01 X-8.9494 Y19.7008
G01 X-8.9408 Y19.6829
G01 X-8.9288 Y19.6627
G01 X-8.9247 Y19.6566
G01 X-8.9129 Y19.6406
G01 X-8.9082 Y19.6349
G01 X-8.8949 Y19.6202
G01 X-8.7798 Y19.5051
G01 X-8.7203 Y19.4161
G01 X-8.7087 Y19.4001
G01 X-8.7018 Y19.3915
G01 X-8.6885 Y19.3768
G01 X-8.6833 Y19.3716
G01 X-8.6686 Y19.3582
G01 X-8.6499 Y19.3439
G01 X-8.6377 Y19.3357
G01 X-8.6173 Y19.3240
G01 X-8.5994 Y19.3155
G01 X-8.5926 Y19.3127
G01 X-8.5704 Y19.3049
G01 X-8.5440 Y19.2983
G01 X-8.5171 Y19.2943
G01 X-8.4973 Y19.2932
G01 X0.7209 Y19.2930
G01 X0.7444 Y19.2940
G01 X0.7620 Y19.2957
G01 X0.8713 Y19.2849
G01 X0.8954 Y19.2776
G01 X0.9147 Y19.2728
G01 X0.9219 Y19.2714
G01 X0.9415 Y19.2685
G01 X0.9488 Y19.2678
G01 X0.9687 Y19.2668
G01 X0.9760 Y19.2668
G01 X0.9995 Y19.2681
G01 X1.0264 Y19.2721
G01 X1.0528 Y19.2787
G01 X1.0784 Y19.2878
G01 X1.1029 Y19.2994
G01 X1.1263 Y19.3134
G01 X1.1481 Y19.3296
G01 X1.1682 Y19.3479
G01 X1.1865 Y19.3680
G01 X1.2027 Y19.3899
G01 X1.2167 Y19.4132
G01 X1.2269 Y19.4344
G01 X1.2297 Y19.4412
G01 X1.2364 Y19.4599
G01 X1.2385 Y19.4669
G01 X1.2433 Y19.4861
G01 X1.2448 Y19.4934
G01 X1.2477 Y19.5130
G01 X1.2492 Y19.5364
G01 X1.2494 Y19.5475
G01 X1.2484 Y19.5673
G01 X1.2477 Y19.5746
G01 X1.2448 Y19.5942
G01 X1.2433 Y19.6014
G01 X1.2385 Y19.6207
G01 X1.2364 Y19.6277
G01 X1.2297 Y19.6464
G01 X1.2253 Y19.6566
G01 X1.2167 Y19.6744
G01 X1.2027 Y19.6977
G01 X1.1865 Y19.7196
G01 X1.1683 Y19.7397
G01 X0.2720 Y20.6360
G01 X0.2574 Y20.6494
G01 X0.2461 Y20.6587
G01 X0.2331 Y20.6683
G01 X0.2238 Y20.6743
G01 X0.2034 Y20.6861
G01 X0.1855 Y20.6946
G01 X0.1787 Y20.6974
G01 X0.1565 Y20.7052
G01 X0.1301 Y20.7118
G01 X0.1032 Y20.7158
G01 X0.0835 Y20.7169
G01 X-8.2300 Y20.7171
G01 X-8.2535 Y20.7161
G01 X-8.2644 Y20.7149
G01 X-8.2840 Y20.7118
G01 X-8.3104 Y20.7052
G01 X-8.3291 Y20.6987
G01 X-8.3394 Y20.6946
G01 X-8.3573 Y20.6861
G01 X-8.3670 Y20.6808
G01 X-8.3839 Y20.6704
G01 X-8.3999 Y20.6587
G01 X-8.4086 Y20.6518
G01 X-8.4232 Y20.6385
G01 X-8.4310 Y20.6306
G01 X-8.4441 Y20.6158
G01 X-8.4603 Y20.5940
G01 X-8.4743 Y20.5706
G01 X-8.4845 Y20.5495
G01 X-8.4873 Y20.5426
G01 X-8.4940 Y20.5240
G01 X-8.5001 Y20.5013
G01 X-8.5024 Y20.4905
G01 X-8.5057 Y20.4672
G01 X-8.5070 Y20.4387
G01 X-8.5153 Y20.3549
G01 X-8.5357 Y20.2874
G01 X-8.5690 Y20.2252
G01 X-8.6137 Y20.1707
G01 X-8.6682 Y20.1260
G01 X-8.7304 Y20.0927
G01 X-8.7804 Y20.0775
G01 X-8.8024 Y20.0695
G01 X-8.8270 Y20.0579
G01 X-8.8503 Y20.0439
G01 X-8.8722 Y20.0277
G01 X-8.8870 Y20.0145
G01 X-8.8949 Y20.0068
G01 X-8.9082 Y19.9921
G01 X-8.9129 Y19.9864
G01 X-8.9247 Y19.9705
G01 X-8.9307 Y19.9612
G00 Z2.0000
G00 X-10.2604 Y19.7660
G01 F60.00
G01 Z-0.0800
G01 F120.00
G01 X-10.1780 Y19.8051
G01 X-10.1639 Y19.8114
G01 X-10.1494 Y19.8169
G01 X-10.0709 Y19.8450
G01 X-10.0562 Y19.8499
G01 X-10.0413 Y19.8540
G01 X-9.9604 Y19.8743
G01 X-9.9453 Y19.8777
G01 X-9.9301 Y19.8803
G01 X-9.8476 Y19.8925
G01 X-9.8322 Y19.8944
G01 X-9.8168 Y19.8956
G01 X-9.7335 Y19.8997
G01 X-9.7103 Y19.8999
G01 X-9.6193 Y19.8956
G01 X-9.6039 Y19.8944
G01 X-9.5885 Y19.8925
G01 X-9.5060 Y19.8803
G01 X-9.4908 Y19.8777
G01 X-9.4757 Y19.8743
G01 X-9.3873 Y19.8520
G01 X-9.3652 Y19.8450
G01 X-9.2866 Y19.8169
G01 X-9.2651 Y19.8083
G01 X-9.1757 Y19.7660
G01 X-9.1621 Y19.7588
G01 X-9.1324 Y19.7411
G01 X-9.1364 Y19.7702
G01 X-9.1381 Y19.7981
G01 X-9.1384 Y19.8213
G01 X-9.1370 Y19.8492
G01 X-9.1345 Y19.8722
G01 X-9.1300 Y19.8998
G01 X-9.1266 Y19.9149
G01 X-9.1194 Y19.9419
G01 X-9.1104 Y19.9683
G01 X-9.1048 Y19.9827
G01 X-9.0932 Y20.0081
G01 X-9.0826 Y20.0287
G01 X-9.0682 Y20.0526
G01 X-9.0596 Y20.0655
G01 X-9.0430 Y20.0879
G01 X-9.0332 Y20.0999
G01 X-9.0241 Y20.1100
G01 X-10.4120 Y20.1100
G01 X-10.4029 Y20.0999
G01 X-10.3931 Y20.0879
G01 X-10.3765 Y20.0655
G01 X-10.3679 Y20.0526
G01 X-10.3535 Y20.0287
G01 X-10.3428 Y20.0081
G01 X-10.3312 Y19.9827
G01 X-10.3257 Y19.9683
G01 X-10.3166 Y19.9419
G01 X-10.3095 Y19.9149
G01 X-10.3061 Y19.8998
G01 X-10.3016 Y19.8722
G01 X-10.2991 Y19.8492
G01 X-10.2977 Y19.8213
G01 X-10.2980 Y19.7981
G01 X-10.2997 Y19.7702
G01 X-10.3037 Y19.7411
G01 X-10.2740 Y19.7588
G01 X-10.2604 Y19.7660
G00 Z2.0000
G00 X-9.8087 Y17.7393
G01 F60.00
G01 Z-0.0800
G01 F120.00
G01 X-9.7180 Y17.7350
G01 X-9.6200 Y17.7399
G01 X-9.5229 Y17.7543
G01 X-9.4349 Y17.7761
G01 X-9.4208 Y17.7804
G01 X-9.3422 Y17.8085
G01 X-9.3286 Y17.8141
G01 X-9.2466 Y17.8531
G01 X-9.1656 Y17.9016
G01 X-9.1565 Y17.9078
G01 X-9.0895 Y17.9575
G01 X-9.0781 Y17.9668
G01 X-9.0109 Y18.0279
G01 X-8.9498 Y18.0951
G01 X-8.9427 Y18.1035
G01 X-8.8866 Y18.1795
G01 X-8.8379 Y18.2604
G01 X-8.8328 Y18.2702
G01 X-8.7956 Y18.3490
G01 X-8.7915 Y18.3592
G01 X-8.7823 Y18.3849
G01 X0.6169 Y18.3849
G01 X4.1197 Y14.8821
G01 X4.0900 Y14.7990
G01 X4.0699 Y14.7193
G01 X4.0670 Y14.7049
G01 X4.0561 Y14.6309
G01 X4.0546 Y14.6163
G01 X4.0508 Y14.5342
G01 X4.0552 Y14.4448
G01 X4.0683 Y14.3563
G01 X4.0881 Y14.2766
G01 X4.0923 Y14.2625
G01 X4.1175 Y14.1921
G01 X4.1232 Y14.1785
G01 X4.1584 Y14.1043
G01 X4.2045 Y14.0276
G01 X4.2578 Y13.9557
G01 X4.3128 Y13.8947
G01 X4.3232 Y13.8843
G01 X4.3786 Y13.8341
G01 X4.3871 Y13.8270
G01 X4.4501 Y13.7802
G01 X4.4623 Y13.7720
G01 X4.5328 Y13.7299
G01 X4.6070 Y13.6946
G01 X4.6206 Y13.6890
G01 X4.6980 Y13.6615
G01 X4.7777 Y13.6414
G01 X4.7921 Y13.6385
G01 X4.8734 Y13.6266
G01 X4.9554 Y13.6224
G01 X4.9701 Y13.6224
G01 X5.0522 Y13.6266
G01 X5.1334 Y13.6385
G01 X5.1479 Y13.6414
G01 X5.2275 Y13.6615
G01 X5.3049 Y13.6890
G01 X5.3185 Y13.6946
G01 X5.3927 Y13.7299
G01 X5.4632 Y13.7720
G01 X5.4755 Y13.7802
G01 X5.5413 Y13.8293
G01 X5.6023 Y13.8843
G01 X5.6127 Y13.8947
G01 X5.6677 Y13.9557
G01 X5.7211 Y14.0276
G01 X5.7634 Y14.0979
G01 X5.7704 Y14.1109
G01 X5.8053 Y14.1852
G01 X5.8332 Y14.2625
G01 X5.8375 Y14.2766
G01 X5.8565 Y14.3527
G01 X5.8585 Y14.3636
G01 X5.8704 Y14.4448
G01 X5.8746 Y14.5269
G01 X5.8746 Y14.5416
G01 X5.8704 Y14.6236
G01 X5.8585 Y14.7049
G01 X5.8556 Y14.7193
G01 X5.8355 Y14.7990
G01 X5.8080 Y14.8764
G01 X5.8024 Y14.8900
G01 X5.7671 Y14.9642
G01 X5.7250 Y15.0347
G01 X5.7168 Y15.0469
G01 X5.6677 Y15.1128
G01 X5.6127 Y15.1738
G01 X5.6050 Y15.1817
G01 X5.5413 Y15.2392
G01 X5.4755 Y15.2883
G01 X5.4632 Y15.2965
G01 X5.3927 Y15.3386
G01 X5.3185 Y15.3738
G01 X5.3049 Y15.3795
G01 X5.2275 Y15.4070
G01 X5.1407 Y15.4287
G01 X5.0522 Y15.4418
G01 X4.9701 Y15.4461
G01 X4.9554 Y15.4461
G01 X4.8734 Y15.4418
G01 X4.7921 Y15.4300
G01 X4.7777 Y15.4271
G01 X4.6980 Y15.4070
G01 X4.6149 Y15.3773
G01 X1.0095 Y18.9826
G01 X0.9869 Y19.0033
G01 X0.9783 Y19.0102
G01 X0.9565 Y19.0261
G01 X0.9270 Y19.0438
G01 X0.8993 Y19.0570
G01 X0.8891 Y19.0611
G01 X0.8636 Y19.0701
G01 X0.8339 Y19.0777
G01 X0.8230 Y19.0797
G01 X0.7963 Y19.0835
G01 X0.7620 Y19.0851
G01 X-8.7823 Y19.0851
G01 X-8.7915 Y19.1109
G01 X-8.7956 Y19.1211
G01 X-8.8328 Y19.1999
G01 X-8.8379 Y19.2097
G01 X-8.8866 Y19.2906
G01 X-8.9427 Y19.3666
G01 X-8.9498 Y19.3750
G01 X-9.0109 Y19.4421
G01 X-9.0781 Y19.5032
G01 X-9.0895 Y19.5126
G01 X-9.1565 Y19.5623
G01 X-9.1656 Y19.5685
G01 X-9.2466 Y19.6170
G01 X-9.3354 Y19.6589
G01 X-9.4278 Y19.6920
G01 X-9.5158 Y19.7142
G01 X-9.5302 Y19.7171
G01 X-9.6127 Y19.7293
G01 X-9.6274 Y19.7308
G01 X-9.7180 Y19.7350
G01 X-9.8087 Y19.7308
G01 X-9.8197 Y19.7298
G01 X-9.9131 Y19.7158
G01 X-10.0083 Y19.6920
G01 X-10.1007 Y19.6589
G01 X-10.1894 Y19.6170
G01 X-10.2736 Y19.5665
G01 X-10.3524 Y19.5081
G01 X-10.4251 Y19.4421
G01 X-10.4862 Y19.3750
G01 X-10.4956 Y19.3636
G01 X-10.5495 Y19.2906
G01 X-10.5963 Y19.2128
G01 X-10.6033 Y19.1999
G01 X-10.6389 Y19.1245
G01 X-10.6446 Y19.1109
G01 X-10.6750 Y19.0253
G01 X-10.6988 Y18.9301
G01 X-10.7132 Y18.8331
G01 X-10.7180 Y18.7350
G01 X-10.7132 Y18.6370
G01 X-10.6988 Y18.5399
G01 X-10.6750 Y18.4448
G01 X-10.6419 Y18.3524
G01 X-10.6000 Y18.2636
G01 X-10.5495 Y18.1795
G01 X-10.4911 Y18.1006
G01 X-10.4302 Y18.0333
G01 X-10.4198 Y18.0229
G01 X-10.3524 Y17.9620
G01 X-10.2736 Y17.9036
G01 X-10.1894 Y17.8531
G01 X-10.1075 Y17.8141
G01 X-10.0939 Y17.8085
G01 X-10.0153 Y17.7804
G01 X-10.0012 Y17.7761
G01 X-9.9131 Y17.7543
G01 X-9.8234 Y17.7408
G01 X-9.8087 Y17.7393
G00 Z2.0000
G00 X-10.0562 Y17.3099
G01 F60.00
G01 Z-0.0800
G01 F120.00
G01 X-10.0413 Y17.3140
G01 X-9.9604 Y17.3343
G01 X-9.9453 Y17.3377
G01 X-9.9301 Y17.3403
G01 X-9.8476 Y17.3525
G01 X-9.8322 Y17.3544
G01 X-9.8168 Y17.3556
G01 X-9.7335 Y17.3597
G01 X-9.7180 Y17.3600
G01 X-9.7026 Y17.3597
G01 X-9.6193 Y17.3556
G01 X-9.6039 Y17.3544
G01 X-9.5885 Y17.3525
G01 X-9.5060 Y17.3403
G01 X-9.4832 Y17.3361
G01 X-9.3948 Y17.3140
G01 X-9.3799 Y17.3099
G01 X-9.3567 Y17.3020
G01 X-9.3640 Y17.3220
G01 X-9.3688 Y17.3367
G01 X-9.3730 Y17.3516
G01 X-9.3794 Y17.3788
G01 X-9.3838 Y17.4064
G01 X-9.3857 Y17.4217
G01 X-9.3875 Y17.4496
G01 X-9.3879 Y17.4650
G01 X-9.3869 Y17.4930
G01 X-9.3857 Y17.5084
G01 X-9.3838 Y17.5237
G01 X-9.3794 Y17.5513
G01 X-9.3730 Y17.5785
G01 X-9.3688 Y17.5934
G01 X-9.3640 Y17.6080
G01 X-9.3567 Y17.6281
G01 X-9.3799 Y17.6202
G01 X-9.3948 Y17.6161
G01 X-9.4832 Y17.5940
G01 X-9.5060 Y17.5898
G01 X-9.5885 Y17.5775
G01 X-9.6039 Y17.5756
G01 X-9.6193 Y17.5745
G01 X-9.7026 Y17.5704
G01 X-9.7180 Y17.5700
G01 X-9.7335 Y17.5704
G01 X-9.8168 Y17.5745
G01 X-9.8322 Y17.5756
G01 X-9.8476 Y17.5775
G01 X-9.9301 Y17.5898
G01 X-9.9529 Y17.5940
G01 X-10.0413 Y17.6161
G01 X-10.0562 Y17.6202
G01 X-10.0794 Y17.6281
G01 X-10.0721 Y17.6080
G01 X-10.0673 Y17.5934
G01 X-10.0631 Y17.5785
G01 X-10.0567 Y17.5513
G01 X-10.0522 Y17.5237
G01 X-10.0503 Y17.5084
G01 X-10.0486 Y17.4805
G01 X-10.0482 Y17.4650
G01 X-10.0492 Y17.4371
G01 X-10.0503 Y17.4217
G01 X-10.0522 Y17.4064
G01 X-10.0567 Y17.3788
G01 X-10.0631 Y17.3516
G01 X-10.0673 Y17.3367
G01 X-10.0721 Y17.3220
G01 X-10.0794 Y17.3020
G01 X-10.0562 Y17.3099
G00 Z2.0000
G00 X-9.2206 Y17.4306
G01 F60.00
G01 Z-0.0800
G01 F120.00
G01 X-9.2175 Y17.4110
G01 X-9.2120 Y17.3881
G01 X-9.2086 Y17.3776
G01 X-9.2003 Y17.3556
G01 X-9.1901 Y17.3344
G01 X-9.1782 Y17.3142
G01 X-9.1645 Y17.2951
G01 X-9.1552 Y17.2837
G01 X-9.1417 Y17.2691
G01 X-9.1271 Y17.2557
G01 X-9.1187 Y17.2486
G01 X-9.1057 Y17.2389
G01 X-8.9480 Y17.1333
G01 X-8.7798 Y16.9651
G01 X-8.7161 Y16.8701
G01 X-8.7018 Y16.8515
G01 X-8.6885 Y16.8368
G01 X-8.6833 Y16.8316
G01 X-8.6657 Y16.8159
G01 X-8.6439 Y16.7997
G01 X-8.6206 Y16.7857
G01 X-8.5960 Y16.7741
G01 X-8.5704 Y16.7649
G01 X-8.5476 Y16.7591
G01 X-8.5404 Y16.7576
G01 X-8.5208 Y16.7547
G01 X-8.4973 Y16.7532
G01 X1.0609 Y16.7530
G01 X1.0844 Y16.7540
G01 X1.1020 Y16.7557
G01 X1.2113 Y16.7449
G01 X1.2354 Y16.7376
G01 X1.2547 Y16.7328
G01 X1.2619 Y16.7314
G01 X1.2815 Y16.7285
G01 X1.2888 Y16.7278
G01 X1.3087 Y16.7268
G01 X1.3160 Y16.7268
G01 X1.3395 Y16.7281
G01 X1.3664 Y16.7321
G01 X1.3928 Y16.7387
G01 X1.4184 Y16.7478
G01 X1.4429 Y16.7594
G01 X1.4663 Y16.7734
G01 X1.4881 Y16.7896
G01 X1.5082 Y16.8079
G01 X1.5265 Y16.8280
G01 X1.5427 Y16.8499
G01 X1.5567 Y16.8732
G01 X1.5669 Y16.8944
G01 X1.5697 Y16.9012
G01 X1.5764 Y16.9199
G01 X1.5785 Y16.9269
G01 X1.5833 Y16.9461
G01 X1.5848 Y16.9534
G01 X1.5877 Y16.9730
G01 X1.5892 Y16.9964
G01 X1.5894 Y17.0075
G01 X1.5884 Y17.0273
G01 X1.5877 Y17.0346
G01 X1.5848 Y17.0542
G01 X1.5833 Y17.0614
G01 X1.5785 Y17.0807
G01 X1.5764 Y17.0877
G01 X1.5697 Y17.1064
G01 X1.5653 Y17.1166
G01 X1.5567 Y17.1344
G01 X1.5427 Y17.1577
G01 X1.5265 Y17.1796
G01 X1.5083 Y17.1997
G01 X0.6120 Y18.0960
G01 X0.5974 Y18.1094
G01 X0.5861 Y18.1187
G01 X0.5731 Y18.1283
G01 X0.5638 Y18.1343
G01 X0.5434 Y18.1461
G01 X0.5255 Y18.1546
G01 X0.5187 Y18.1574
G01 X0.4965 Y18.1652
G01 X0.4701 Y18.1718
G01 X0.4432 Y18.1758
G01 X0.4235 Y18.1769
G01 X-8.4900 Y18.1771
G01 X-8.5135 Y18.1761
G01 X-8.5368 Y18.1730
G01 X-8.5512 Y18.1702
G01 X-8.5704 Y18.1652
G01 X-8.5960 Y18.1560
G01 X-8.6206 Y18.1444
G01 X-8.6377 Y18.1343
G01 X-8.6469 Y18.1283
G01 X-8.6657 Y18.1142
G01 X-8.6859 Y18.0960
G01 X-8.6993 Y18.0814
G01 X-8.7064 Y18.0729
G01 X-8.7203 Y18.0540
G01 X-8.7798 Y17.9650
G01 X-8.9480 Y17.7968
G01 X-9.1028 Y17.6933
G01 X-9.1187 Y17.6815
G01 X-9.1244 Y17.6768
G01 X-9.1391 Y17.6635
G01 X-9.1443 Y17.6583
G01 X-9.1576 Y17.6436
G01 X-9.1623 Y17.6379
G01 X-9.1741 Y17.6220
G01 X-9.1801 Y17.6127
G01 X-9.1901 Y17.5956
G01 X-9.1988 Y17.5778
G01 X-9.2031 Y17.5676
G01 X-9.2098 Y17.5490
G01 X-9.2129 Y17.5384
G01 X-9.2175 Y17.5191
G01 X-9.2215 Y17.4922
G01 X-9.2227 Y17.4724
G01 X-9.2228 Y17.4614
G01 X-9.2218 Y17.4416
G01 X-9.2206 Y17.4306
G00 Z2.0000
G00 X-9.8087 Y15.1993
G01 F60.00
G01 Z-0.0800
G01 F120.00
G01 X-9.7180 Y15.1950
G01 X-9.6200 Y15.1999
G01 X-9.5229 Y15.2143
G01 X-9.4349 Y15.2361
G01 X-9.4208 Y15.2404
G01 X-9.3422 Y15.2685
G01 X-9.3286 Y15.2741
G01 X-9.2466 Y15.3131
G01 X-9.1656 Y15.3616
G01 X-9.1565 Y15.3678
G01 X-9.0895 Y15.4175
G01 X-9.0781 Y15.4268
G01 X-9.0109 Y15.4879
G01 X-8.9498 Y15.5551
G01 X-8.9427 Y15.5635
G01 X-8.8866 Y15.6395
G01 X-8.8379 Y15.7204
G01 X-8.8328 Y15.7302
G01 X-8.7956 Y15.8090
G01 X-8.7915 Y15.8192
G01 X-8.7823 Y15.8449
G01 X0.9569 Y15.8449
G01 X4.1197 Y12.6821
G01 X4.0900 Y12.5990
G01 X4.0699 Y12.5193
G01 X4.0670 Y12.5049
G01 X4.0561 Y12.4309
G01 X4.0546 Y12.4163
G01 X4.0508 Y12.3342
G01 X4.0552 Y12.2448
G01 X4.0683 Y12.1563
G01 X4.0881 Y12.0766
G01 X4.0923 Y12.0625
G01 X4.1175 Y11.9921
G01 X4.1232 Y11.9785
G01 X4.1584 Y11.9043
G01 X4.2045 Y11.8276
G01 X4.2578 Y11.7557
G01 X4.3128 Y11.6947
G01 X4.3232 Y11.6843
G01 X4.3786 Y11.6341
G01 X4.3900 Y11.6247
G01 X4.4501 Y11.5802
G01 X4.4623 Y11.5720
G01 X4.5328 Y11.5299
G01 X4.6070 Y11.4946
G01 X4.6206 Y11.4890
G01 X4.6980 Y11.4615
G01 X4.7777 Y11.4414
G01 X4.7921 Y11.4385
G01 X4.8734 Y11.4266
G01 X4.9554 Y11.4224
G01 X4.9701 Y11.4224
G01 X5.0522 Y11.4266
G01 X5.1334 Y11.4385
G01 X5.1479 Y11.4414
G01 X5.2275 Y11.4615
G01 X5.3049 Y11.4890
G01 X5.3185 Y11.4946
G01 X5.3927 Y11.5299
G01 X5.4632 Y11.5720
G01 X5.4755 Y11.5802
G01 X5.5413 Y11.6293
G01 X5.6023 Y11.6843
G01 X5.6127 Y11.6947
G01 X5.6677 Y11.7557
G01 X5.7211 Y11.8276
G01 X5.7634 Y11.8979
G01 X5.7704 Y11.9109
G01 X5.8053 Y11.9852
G01 X5.8332 Y12.0625
G01 X5.8375 Y12.0766
G01 X5.8572 Y12.1563
G01 X5.8704 Y12.2448
G01 X5.8746 Y12.3269
G01 X5.8746 Y12.3416
G01 X5.8704 Y12.4236
G01 X5.8585 Y12.5049
G01 X5.8556 Y12.5193
G01 X5.8355 Y12.5990
G01 X5.8080 Y12.6764
G01 X5.8024 Y12.6900
G01 X5.7671 Y12.7642
G01 X5.7250 Y12.8347
G01 X5.7168 Y12.8469
G01 X5.6677 Y12.9128
G01 X5.6127 Y12.9738
G01 X5.6050 Y12.9817
G01 X5.5413 Y13.0392
G01 X5.4755 Y13.0883
G01 X5.4632 Y13.0965
G01 X5.3927 Y13.1386
G01 X5.3185 Y13.1738
G01 X5.3049 Y13.1795
G01 X5.2275 Y13.2070
G01 X5.1407 Y13.2287
G01 X5.0522 Y13.2418
G01 X4.9701 Y13.2461
G01 X4.9554 Y13.2461
G01 X4.8734 Y13.2418
G01 X4.7921 Y13.2300
G01 X4.7777 Y13.2271
G01 X4.6980 Y13.2070
G01 X4.6149 Y13.1773
G01 X1.3495 Y16.4426
G01 X1.3269 Y16.4633
G01 X1.3183 Y16.4702
G01 X1.2965 Y16.4861
G01 X1.2670 Y16.5038
G01 X1.2359 Y16.5185
G01 X1.2106 Y16.5278
G01 X1.2001 Y16.5311
G01 X1.1703 Y16.5384
G01 X1.1363 Y16.5435
G01 X1.1020 Y16.5451
G01 X-8.7823 Y16.5451
G01 X-8.7915 Y16.5709
G01 X-8.7956 Y16.5811
G01 X-8.8328 Y16.6599
G01 X-8.8379 Y16.6697
G01 X-8.8866 Y16.7506
G01 X-8.9427 Y16.8266
G01 X-8.9498 Y16.8350
G01 X-9.0109 Y16.9021
G01 X-9.0781 Y16.9632
G01 X-9.0895 Y16.9726
G01 X-9.1565 Y17.0223
G01 X-9.1656 Y17.0285
G01 X-9.2466 Y17.0770
G01 X-9.3354 Y17.1189
G01 X-9.4278 Y17.1520
G01 X-9.5158 Y17.1742
G01 X-9.5302 Y17.1771
G01 X-9.6127 Y17.1893
G01 X-9.6274 Y17.1908
G01 X-9.7180 Y17.1950
G01 X-9.8087 Y17.1908
G01 X-9.8197 Y17.1898
G01 X-9.9131 Y17.1758
G01 X-10.0083 Y17.1520
G01 X-10.1007 Y17.1189
G01 X-10.1894 Y17.0770
G01 X-10.2736 Y17.0265
G01 X-10.3524 Y16.9681
G01 X-10.4251 Y16.9021
G01 X-10.4862 Y16.8350
G01 X-10.4956 Y16.8236
G01 X-10.5495 Y16.7506
G01 X-10.5963 Y16.6728
G01 X-10.6033 Y16.6599
G01 X-10.6389 Y16.5845
G01 X-10.6446 Y16.5709
G01 X-10.6750 Y16.4853
G01 X-10.6988 Y16.3901
G01 X-10.7132 Y16.2931
G01 X-10.7180 Y16.1950
G01 X-10.7132 Y16.0970
G01 X-10.6988 Y15.9999
G01 X-10.6750 Y15.9048
G01 X-10.6419 Y15.8124
G01 X-10.6000 Y15.7236
G01 X-10.5495 Y15.6395
G01 X-10.4911 Y15.5606
G01 X-10.4302 Y15.4933
G01 X-10.4198 Y15.4829
G01 X-10.3524 Y15.4220
G01 X-10.2736 Y15.3636
G01 X-10.1894 Y15.3131
G01 X-10.1075 Y15.2741
G01 X-10.0939 Y15.2685
G01 X-10.0153 Y15.2404
G01 X-10.0012 Y15.2361
G01 X-9.9131 Y15.2143
G01 X-9.8234 Y15.2008
G01 X-9.8087 Y15.1993
G00 Z2.0000
G00 X-10.0562 Y14.7699
G01 F60.00
G01 Z-0.0800
G01 F120.00
G01 X-10.0413 Y14.7740
G01 X-9.9604 Y14.7943
G01 X-9.9453 Y14.7977
G01 X-9.9301 Y14.8003
G01 X-9.8476 Y14.8125
G01 X-9.8322 Y14.8144
G01 X-9.8168 Y14.8156
G01 X-9.7335 Y14.8197
G01 X-9.7180 Y14.8200
G01 X-9.7026 Y14.8197
G01 X-9.6193 Y14.8156
G01 X-9.6039 Y14.8144
G01 X-9.5885 Y14.8125
G01 X-9.5060 Y14.8003
G01 X-9.4832 Y14.7961
G01 X-9.3948 Y14.7740
G01 X-9.3799 Y14.7699
G01 X-9.3567 Y14.7620
G01 X-9.3640 Y14.7820
G01 X-9.3688 Y14.7967
G01 X-9.3730 Y14.8116
G01 X-9.3794 Y14.8388
G01 X-9.3838 Y14.8664
G01 X-9.3857 Y14.8817
G01 X-9.3875 Y14.9096
G01 X-9.3879 Y14.9250
G01 X-9.3869 Y14.9530
G01 X-9.3857 Y14.9684
G01 X-9.3838 Y14.9837
G01 X-9.3794 Y15.0113
G01 X-9.3730 Y15.0385
G01 X-9.3688 Y15.0534
G01 X-9.3640 Y15.0680
G01 X-9.3567 Y15.0881
G01 X-9.3799 Y15.0802
G01 X-9.3948 Y15.0761
G01 X-9.4832 Y15.0540
G01 X-9.5060 Y15.0498
G01 X-9.5885 Y15.0375
G01 X-9.6039 Y15.0356
G01 X-9.6193 Y15.0345
G01 X-9.7026 Y15.0304
G01 X-9.7180 Y15.0300
G01 X-9.7335 Y15.0304
G01 X-9.8168 Y15.0345
G01 X-9.8322 Y15.0356
G01 X-9.8476 Y15.0375
G01 X-9.9301 Y15.0498
G01 X-9.9529 Y15.0540
G01 X-10.0413 Y15.0761
G01 X-10.0562 Y15.0802
G01 X-10.0794 Y15.0881
G01 X-10.0721 Y15.0680
G01 X-10.0673 Y15.0534
G01 X-10.0631 Y15.0385
G01 X-10.0567 Y15.0113
G01 X-10.0522 Y14.9837
G01 X-10.0503 Y14.9684
G01 X-10.0486 Y14.9405
G01 X-10.0482 Y14.9250
G01 X-10.0492 Y14.8971
G01 X-10.0503 Y14.8817
G01 X-10.0522 Y14.8664
G01 X-10.0567 Y14.8388
G01 X-10.0631 Y14.8116
G01 X-10.0673 Y14.7967
G01 X-10.0721 Y14.7820
G01 X-10.0794 Y14.7620
G01 X-10.0562 Y14.7699
G00 Z2.0000
G00 X-9.8087 Y12.6593
G01 F60.00
G01 Z-0.0800
G01 F120.00
G01 X-9.7180 Y12.6550
G01 X-9.6200 Y12.6599
G01 X-9.5229 Y12.6743
G01 X-9.4278 Y12.6981
G01 X-9.3354 Y12.7312
G01 X-9.2466 Y12.7731
G01 X-9.1625 Y12.8236
G01 X-9.0836 Y12.8820
G01 X-9.0109 Y12.9479
G01 X-8.9450 Y13.0206
G01 X-8.8866 Y13.0995
G01 X-8.8361 Y13.1836
G01 X-8.7942 Y13.2724
G01 X-8.7611 Y13.3648
G01 X-8.7373 Y13.4599
G01 X-8.7229 Y13.5570
G01 X-8.7180 Y13.6550
G01 X-8.7229 Y13.7531
G01 X-8.7373 Y13.8501
G01 X-8.7611 Y13.9453
G01 X-8.7942 Y14.0377
G01 X-8.8361 Y14.1264
G01 X-8.8866 Y14.2106
G01 X-8.9450 Y14.2894
G01 X-9.0109 Y14.3621
G01 X-9.0836 Y14.4281
G01 X-9.1625 Y14.4865
G01 X-9.2466 Y14.5370
G01 X-9.3354 Y14.5789
G01 X-9.4278 Y14.6120
G01 X-9.5229 Y14.6358
G01 X-9.6200 Y14.6502
G01 X-9.7180 Y14.6550
G01 X-9.8161 Y14.6502
G01 X-9.9131 Y14.6358
G01 X-10.0083 Y14.6120
G01 X-10.1007 Y14.5789
G01 X-10.1894 Y14.5370
G01 X-10.2736 Y14.4865
G01 X-10.3524 Y14.4281
G01 X-10.4251 Y14.3621
G01 X-10.4911 Y14.2894
G01 X-10.5495 Y14.2106
G01 X-10.6000 Y14.1264
G01 X-10.6419 Y14.0377
G01 X-10.6750 Y13.9453
G01 X-10.6988 Y13.8501
G01 X-10.7132 Y13.7531
G01 X-10.7180 Y13.6550
G01 X-10.7132 Y13.5570
G01 X-10.6988 Y13.4599
G01 X-10.6750 Y13.3648
G01 X-10.6419 Y13.2724
G01 X-10.6000 Y13.1836
G01 X-10.5495 Y13.0995
G01 X-10.4911 Y13.0206
G01 X-10.4251 Y12.9479
G01 X-10.3524 Y12.8820
G01 X-10.2736 Y12.8236
G01 X-10.1894 Y12.7731
G01 X-10.1007 Y12.7312
G01 X-10.0083 Y12.6981
G01 X-9.9131 Y12.6743
G01 X-9.8234 Y12.6608
G01 X-9.8087 Y12.6593
G00 Z2.0000
G00 X-12.4224 Y10.2794
G01 F60.00
G01 Z-0.0800
G01 F120.00
G01 X-12.4174 Y10.2602
G01 X-12.4082 Y10.2346
G01 X-12.3966 Y10.2100
G01 X-12.3846 Y10.1898
G01 X-12.3709 Y10.1707
G01 X-12.3616 Y10.1593
G01 X-12.3482 Y10.1447
G01 X-12.3280 Y10.1265
G01 X-12.3062 Y10.1103
G01 X-12.2861 Y10.0981
G01 X-12.2650 Y10.0877
G01 X-12.2514 Y10.0820
G01 X-12.2327 Y10.0755
G01 X-12.2063 Y10.0689
G01 X-12.1794 Y10.0649
G01 X-12.1559 Y10.0636
G01 X-5.5222 Y10.0636
G01 X-5.4951 Y10.0649
G01 X-5.4718 Y10.0682
G01 X-5.4646 Y10.0697
G01 X-5.4453 Y10.0745
G01 X-5.4231 Y10.0820
G01 X-5.4128 Y10.0861
G01 X-5.3916 Y10.0963
G01 X-5.3714 Y10.1083
G01 X-5.3623 Y10.1145
G01 X-5.3465 Y10.1265
G01 X-5.3290 Y10.1422
G01 X-5.3129 Y10.1593
G01 X-5.3035 Y10.1707
G01 X-5.2919 Y10.1867
G01 X-5.2797 Y10.2068
G01 X-5.2692 Y10.2279
G01 X-5.2649 Y10.2380
G01 X-5.2571 Y10.2602
G01 X-5.2513 Y10.2830
G01 X-5.2474 Y10.3062
G01 X-5.2462 Y10.3172
G01 X-5.2452 Y10.3406
G01 X-5.2452 Y12.6002
G01 X-5.2462 Y12.6222
G01 X-5.2473 Y12.6344
G01 X-5.2517 Y12.6601
G01 X-5.6679 Y14.5382
G01 X-5.4823 Y14.5508
G01 X-5.4546 Y14.5541
G01 X-5.4273 Y14.5601
G01 X-5.4009 Y14.5689
G01 X-5.3754 Y14.5803
G01 X-5.3512 Y14.5942
G01 X-5.3285 Y14.6104
G01 X-5.3076 Y14.6289
G01 X-5.2886 Y14.6493
G01 X-5.2762 Y14.6654
G01 X-5.2697 Y14.6747
G01 X-5.2592 Y14.6921
G01 X-5.2556 Y14.6987
G01 X-5.2468 Y14.7171
G01 X-5.2439 Y14.7241
G01 X-5.2359 Y14.7468
G01 X-5.2159 Y14.8125
G01 X-5.1781 Y14.8834
G01 X-5.1271 Y14.9455
G01 X-5.0650 Y14.9965
G01 X-4.9941 Y15.0343
G01 X-4.9172 Y15.0577
G01 X-4.8372 Y15.0655
G01 X-4.8234 Y15.0644
G01 X-4.8036 Y15.0636
G01 X0.1291 Y15.0636
G01 X0.1489 Y15.0644
G01 X0.1628 Y15.0655
G01 X0.2427 Y15.0577
G01 X0.3196 Y15.0343
G01 X0.3905 Y14.9965
G01 X0.4526 Y14.9455
G01 X0.5036 Y14.8834
G01 X0.5415 Y14.8125
G01 X0.5648 Y14.7356
G01 X0.5727 Y14.6556
G01 X0.5715 Y14.6418
G01 X0.5707 Y14.6220
G01 X0.5707 Y0.4526
G01 X0.5720 Y0.4292
G01 X0.5760 Y0.4024
G01 X0.5825 Y0.3762
G01 X0.5903 Y0.3541
G01 X0.5930 Y0.3473
G01 X0.6015 Y0.3294
G01 X0.6131 Y0.3091
G01 X0.6212 Y0.2969
G01 X0.6354 Y0.2783
G01 X0.6512 Y0.2610
G01 X0.6712 Y0.2427
G01 X0.6929 Y0.2265
G01 X0.7128 Y0.2143
G01 X0.7193 Y0.2108
G01 X0.7371 Y0.2023
G01 X0.7589 Y0.1939
G01 X0.7729 Y0.1896
G01 X0.7957 Y0.1841
G01 X0.8189 Y0.1807
G01 X0.8459 Y0.1792
G01 X49.6759 Y-0.1474
G01 X49.7032 Y-0.1463
G01 X49.7302 Y-0.1424
G01 X49.7567 Y-0.1360
G01 X49.7791 Y-0.1282
G01 X49.8006 Y-0.1186
G01 X49.8137 Y-0.1117
G01 X49.8307 Y-0.1014
G01 X49.8527 Y-0.0852
G01 X49.8704 Y-0.0695
G01 X49.8781 Y-0.0616
G01 X49.8914 Y-0.0468
G01 X49.9077 Y-0.0249
G01 X49.9200 Y-0.0047
G01 X49.9252 Y0.0051
G01 X49.9336 Y0.0232
G01 X49.9428 Y0.0489
G01 X49.9487 Y0.0717
G01 X49.9507 Y0.0826
G01 X49.9535 Y0.1023
G01 X49.9548 Y0.1296
G01 X49.9548 Y33.9706
G01 X49.9535 Y33.9978
G01 X49.9495 Y34.0247
G01 X49.9429 Y34.0511
G01 X49.9351 Y34.0732
G01 X49.9254 Y34.0947
G01 X49.9185 Y34.1077
G01 X49.9081 Y34.1246
G01 X49.8919 Y34.1464
G01 X49.8737 Y34.1666
G01 X49.8591 Y34.1800
G01 X49.8507 Y34.1871
G01 X49.8317 Y34.2010
G01 X49.8116 Y34.2132
G01 X49.8018 Y34.2183
G01 X49.7838 Y34.2266
G01 X49.7582 Y34.2358
G01 X49.7318 Y34.2424
G01 X49.7122 Y34.2455
G01 X49.7012 Y34.2467
G01 X49.6778 Y34.2477
G01 X-4.8036 Y34.2477
G01 X-4.8234 Y34.2469
G01 X-4.8372 Y34.2457
G01 X-4.9172 Y34.2536
G01 X-4.9941 Y34.2769
G01 X-5.0734 Y34.3193
G01 X-5.0946 Y34.3295
G01 X-5.1014 Y34.3323
G01 X-5.1201 Y34.3390
G01 X-5.1271 Y34.3411
G01 X-5.1468 Y34.3460
G01 X-5.1518 Y34.3658
G01 X-5.1539 Y34.3728
G01 X-5.1606 Y34.3915
G01 X-5.1634 Y34.3983
G01 X-5.1736 Y34.4195
G01 X-5.2159 Y34.4988
G01 X-5.2393 Y34.5757
G01 X-5.2471 Y34.6556
G01 X-5.2460 Y34.6695
G01 X-5.2452 Y34.6893
G01 X-5.2452 Y38.9743
G01 X-5.2462 Y38.9941
G01 X-5.2474 Y39.0051
G01 X-5.2505 Y39.0247
G01 X-5.2551 Y39.0440
G01 X-5.2582 Y39.0546
G01 X-5.2649 Y39.0732
G01 X-5.2692 Y39.0834
G01 X-5.2779 Y39.1012
G01 X-5.2899 Y39.1215
G01 X-5.2961 Y39.1306
G01 X-5.3081 Y39.1464
G01 X-5.3212 Y39.1612
G01 X-5.3290 Y39.1691
G01 X-5.3437 Y39.1824
G01 X-5.3523 Y39.1893
G01 X-5.3683 Y39.2010
G01 X-5.3884 Y39.2132
G01 X-5.3982 Y39.2183
G01 X-5.4162 Y39.2266
G01 X-5.4418 Y39.2358
G01 X-5.4646 Y39.2416
G01 X-5.4754 Y39.2436
G01 X-5.4951 Y39.2464
G01 X-5.5222 Y39.2477
G01 X-12.1522 Y39.2477
G01 X-12.1794 Y39.2464
G01 X-12.2063 Y39.2424
G01 X-12.2327 Y39.2358
G01 X-12.2548 Y39.2280
G01 X-12.2763 Y39.2183
G01 X-12.2893 Y39.2114
G01 X-12.3062 Y39.2010
G01 X-12.3280 Y39.1848
G01 X-12.3455 Y39.1691
G01 X-12.3532 Y39.1612
G01 X-12.3664 Y39.1464
G01 X-12.3826 Y39.1246
G01 X-12.3966 Y39.1012
G01 X-12.4052 Y39.0834
G01 X-12.4096 Y39.0732
G01 X-12.4174 Y39.0511
G01 X-12.4232 Y39.0283
G01 X-12.4252 Y39.0174
G01 X-12.4280 Y38.9978
G01 X-12.4293 Y38.9706
G01 X-12.4293 Y10.3406
G01 X-12.4285 Y10.3208
G01 X-12.4276 Y10.3098
G01 X-12.4247 Y10.2902
G01 X-12.4224 Y10.2794
G00 Z2.0000
G00 X-12.5824 Y10.2393
G01 F60.00
G01 Z-0.0800
G01 F120.00
G01 X-12.5774 Y10.2197
G01 X-12.5729 Y10.2049
G01 X-12.5662 Y10.1859
G01 X-12.5607 Y10.1715
G01 X-12.5491 Y10.1461
G01 X-12.5421 Y10.1323
G01 X-12.5345 Y10.1188
G01 X-12.5240 Y10.1015
G01 X-12.5154 Y10.0887
G01 X-12.5035 Y10.0724
G01 X-12.4940 Y10.0602
G01 X-12.4839 Y10.0485
G01 X-12.4702 Y10.0336
G01 X-12.4593 Y10.0227
G01 X-12.4444 Y10.0090
G01 X-12.4327 Y9.9989
G01 X-12.4205 Y9.9894
G01 X-12.4042 Y9.9775
G01 X-12.3914 Y9.9689
G01 X-12.3741 Y9.9584
G01 X-12.3606 Y9.9508
G01 X-12.3468 Y9.9438
G01 X-12.3285 Y9.9353
G01 X-12.3142 Y9.9294
G01 X-12.2952 Y9.9225
G01 X-12.2806 Y9.9176
G01 X-12.2536 Y9.9105
G01 X-12.2385 Y9.9071
G01 X-12.2232 Y9.9044
G01 X-12.2033 Y9.9016
G01 X-12.1879 Y9.9000
G01 X-12.1677 Y9.8990
G01 X-12.1522 Y9.8986
G01 X-5.5222 Y9.8986
G01 X-5.5068 Y9.8990
G01 X-5.4789 Y9.9007
G01 X-5.4636 Y9.9026
G01 X-5.4436 Y9.9057
G01 X-5.4284 Y9.9087
G01 X-5.4013 Y9.9155
G01 X-5.3865 Y9.9199
G01 X-5.3675 Y9.9267
G01 X-5.3460 Y9.9353
G01 X-5.3277 Y9.9438
G01 X-5.3139 Y9.9508
G01 X-5.3004 Y9.9584
G01 X-5.2831 Y9.9689
G01 X-5.2640 Y9.9820
G01 X-5.2418 Y9.9989
G01 X-5.2301 Y10.0090
G01 X-5.2152 Y10.0227
G01 X-5.1990 Y10.0393
G01 X-5.1855 Y10.0543
G01 X-5.1757 Y10.0662
G01 X-5.1636 Y10.0824
G01 X-5.1547 Y10.0950
G01 X-5.1400 Y10.1188
G01 X-5.1288 Y10.1391
G01 X-5.1201 Y10.1573
G01 X-5.1138 Y10.1715
G01 X-5.1083 Y10.1859
G01 X-5.1015 Y10.2049
G01 X-5.0951 Y10.2272
G01 X-5.0903 Y10.2468
G01 X-5.0873 Y10.2620
G01 X-5.0842 Y10.2820
G01 X-5.0823 Y10.2973
G01 X-5.0806 Y10.3252
G01 X-5.0802 Y10.3406
G01 X-5.0803 Y12.6087
G01 X-5.0814 Y12.6312
G01 X-5.0828 Y12.6483
G01 X-5.0874 Y12.6789
G01 X-5.0906 Y12.6958
G01 X-5.4653 Y14.3866
G01 X-5.4426 Y14.3892
G01 X-5.4269 Y14.3914
G01 X-5.3988 Y14.3973
G01 X-5.3835 Y14.4011
G01 X-5.3683 Y14.4057
G01 X-5.3486 Y14.4123
G01 X-5.3338 Y14.4180
G01 X-5.3149 Y14.4264
G01 X-5.3006 Y14.4332
G01 X-5.2866 Y14.4408
G01 X-5.2687 Y14.4512
G01 X-5.2554 Y14.4597
G01 X-5.2385 Y14.4717
G01 X-5.2258 Y14.4813
G01 X-5.2136 Y14.4915
G01 X-5.1924 Y14.5107
G01 X-5.1813 Y14.5221
G01 X-5.1673 Y14.5373
G01 X-5.1523 Y14.5557
G01 X-5.1353 Y14.5788
G01 X-5.1267 Y14.5922
G01 X-5.1161 Y14.6099
G01 X-5.1050 Y14.6310
G01 X-5.0962 Y14.6497
G01 X-5.0901 Y14.6644
G01 X-5.0804 Y14.6913
G01 X-5.0628 Y14.7491
G01 X-5.0402 Y14.7913
G01 X-5.0099 Y14.8283
G01 X-4.9729 Y14.8586
G01 X-4.9307 Y14.8812
G01 X-4.8849 Y14.8951
G01 X-4.8362 Y14.8999
G01 X-4.8036 Y14.8986
G01 X0.1291 Y14.8986
G01 X0.1617 Y14.8999
G01 X0.2104 Y14.8951
G01 X0.2562 Y14.8812
G01 X0.2984 Y14.8586
G01 X0.3354 Y14.8283
G01 X0.3657 Y14.7913
G01 X0.3883 Y14.7491
G01 X0.4022 Y14.7033
G01 X0.4070 Y14.6546
G01 X0.4057 Y14.6220
G01 X0.4058 Y0.4486
G01 X0.4067 Y0.4285
G01 X0.4078 Y0.4131
G01 X0.4097 Y0.3978
G01 X0.4141 Y0.3704
G01 X0.4205 Y0.3433
G01 X0.4246 Y0.3285
G01 X0.4294 Y0.3138
G01 X0.4362 Y0.2949
G01 X0.4421 Y0.2807
G01 X0.4539 Y0.2555
G01 X0.4612 Y0.2419
G01 X0.4714 Y0.2246
G01 X0.4796 Y0.2116
G01 X0.4884 Y0.1990
G01 X0.5004 Y0.1828
G01 X0.5102 Y0.1709
G01 X0.5236 Y0.1559
G01 X0.5341 Y0.1447
G01 X0.5544 Y0.1257
G01 X0.5660 Y0.1156
G01 X0.5881 Y0.0986
G01 X0.6006 Y0.0897
G01 X0.6136 Y0.0814
G01 X0.6309 Y0.0711
G01 X0.6444 Y0.0638
G01 X0.6695 Y0.0518
G01 X0.6837 Y0.0458
G01 X0.7025 Y0.0388
G01 X0.7171 Y0.0339
G01 X0.7320 Y0.0297
G01 X0.7515 Y0.0248
G01 X0.7665 Y0.0217
G01 X0.7864 Y0.0186
G01 X0.8017 Y0.0166
G01 X0.8294 Y0.0147
G01 X0.8448 Y0.0142
G01 X49.6748 Y-0.3124
G01 X49.7028 Y-0.3116
G01 X49.7183 Y-0.3106
G01 X49.7338 Y-0.3088
G01 X49.7615 Y-0.3045
G01 X49.7888 Y-0.2982
G01 X49.8038 Y-0.2941
G01 X49.8186 Y-0.2893
G01 X49.8377 Y-0.2825
G01 X49.8520 Y-0.2766
G01 X49.8705 Y-0.2681
G01 X49.8844 Y-0.2612
G01 X49.8979 Y-0.2536
G01 X49.9153 Y-0.2432
G01 X49.9282 Y-0.2346
G01 X49.9446 Y-0.2227
G01 X49.9569 Y-0.2132
G01 X49.9687 Y-0.2031
G01 X49.9837 Y-0.1894
G01 X50.0000 Y-0.1728
G01 X50.0136 Y-0.1578
G01 X50.0235 Y-0.1458
G01 X50.0357 Y-0.1296
G01 X50.0447 Y-0.1169
G01 X50.0530 Y-0.1038
G01 X50.0634 Y-0.0864
G01 X50.0742 Y-0.0657
G01 X50.0828 Y-0.0474
G01 X50.0888 Y-0.0330
G01 X50.0957 Y-0.0140
G01 X50.1006 Y0.0008
G01 X50.1048 Y0.0157
G01 X50.1096 Y0.0354
G01 X50.1139 Y0.0583
G01 X50.1168 Y0.0784
G01 X50.1183 Y0.0938
G01 X50.1194 Y0.1141
G01 X50.1198 Y0.1296
G01 X50.1198 Y33.9706
G01 X50.1194 Y33.9861
G01 X50.1177 Y34.0140
G01 X50.1158 Y34.0293
G01 X50.1113 Y34.0569
G01 X50.1049 Y34.0841
G01 X50.1008 Y34.0990
G01 X50.0959 Y34.1136
G01 X50.0890 Y34.1326
G01 X50.0831 Y34.1469
G01 X50.0746 Y34.1652
G01 X50.0676 Y34.1790
G01 X50.0600 Y34.1925
G01 X50.0495 Y34.2098
G01 X50.0409 Y34.2226
G01 X50.0290 Y34.2389
G01 X50.0195 Y34.2511
G01 X50.0094 Y34.2628
G01 X49.9957 Y34.2777
G01 X49.9848 Y34.2886
G01 X49.9699 Y34.3023
G01 X49.9522 Y34.3172
G01 X49.9360 Y34.3293
G01 X49.9234 Y34.3382
G01 X49.9103 Y34.3465
G01 X49.8929 Y34.3568
G01 X49.8723 Y34.3675
G01 X49.8540 Y34.3760
G01 X49.8398 Y34.3819
G01 X49.8208 Y34.3888
G01 X49.8061 Y34.3937
G01 X49.7912 Y34.3978
G01 X49.7716 Y34.4026
G01 X49.7488 Y34.4069
G01 X49.7288 Y34.4097
G01 X49.7134 Y34.4112
G01 X49.6932 Y34.4123
G01 X49.6778 Y34.4127
G01 X-4.8036 Y34.4127
G01 X-4.8362 Y34.4114
G01 X-4.8849 Y34.4162
G01 X-4.9307 Y34.4301
G01 X-4.9956 Y34.4648
G01 X-5.0174 Y34.4755
G01 X-5.0281 Y34.4973
G01 X-5.0628 Y34.5622
G01 X-5.0767 Y34.6080
G01 X-5.0815 Y34.6567
G01 X-5.0802 Y34.6893
G01 X-5.0802 Y38.9706
G01 X-5.0806 Y38.9861
G01 X-5.0823 Y39.0140
G01 X-5.0860 Y39.0416
G01 X-5.0903 Y39.0644
G01 X-5.0971 Y39.0915
G01 X-5.1041 Y39.1136
G01 X-5.1138 Y39.1398
G01 X-5.1254 Y39.1652
G01 X-5.1361 Y39.1858
G01 X-5.1505 Y39.2098
G01 X-5.1636 Y39.2289
G01 X-5.1805 Y39.2511
G01 X-5.1990 Y39.2720
G01 X-5.2152 Y39.2886
G01 X-5.2359 Y39.3074
G01 X-5.2540 Y39.3219
G01 X-5.2766 Y39.3382
G01 X-5.2897 Y39.3465
G01 X-5.3071 Y39.3568
G01 X-5.3277 Y39.3675
G01 X-5.3460 Y39.3760
G01 X-5.3602 Y39.3819
G01 X-5.3792 Y39.3888
G01 X-5.3939 Y39.3937
G01 X-5.4088 Y39.3978
G01 X-5.4284 Y39.4026
G01 X-5.4512 Y39.4069
G01 X-5.4712 Y39.4097
G01 X-5.4866 Y39.4112
G01 X-5.5068 Y39.4123
G01 X-5.5222 Y39.4127
G01 X-12.1522 Y39.4127
G01 X-12.1677 Y39.4123
G01 X-12.1956 Y39.4106
G01 X-12.2232 Y39.4069
G01 X-12.2385 Y39.4042
G01 X-12.2657 Y39.3978
G01 X-12.2806 Y39.3937
G01 X-12.2952 Y39.3888
G01 X-12.3142 Y39.3819
G01 X-12.3285 Y39.3760
G01 X-12.3468 Y39.3675
G01 X-12.3606 Y39.3605
G01 X-12.3741 Y39.3529
G01 X-12.3914 Y39.3424
G01 X-12.4042 Y39.3338
G01 X-12.4205 Y39.3219
G01 X-12.4327 Y39.3124
G01 X-12.4444 Y39.3023
G01 X-12.4593 Y39.2886
G01 X-12.4755 Y39.2720
G01 X-12.4890 Y39.2570
G01 X-12.4988 Y39.2450
G01 X-12.5109 Y39.2289
G01 X-12.5198 Y39.2162
G01 X-12.5281 Y39.2032
G01 X-12.5384 Y39.1858
G01 X-12.5457 Y39.1722
G01 X-12.5544 Y39.1539
G01 X-12.5635 Y39.1326
G01 X-12.5704 Y39.1136
G01 X-12.5753 Y39.0990
G01 X-12.5794 Y39.0841
G01 X-12.5842 Y39.0644
G01 X-12.5885 Y39.0416
G01 X-12.5913 Y39.0217
G01 X-12.5928 Y39.0063
G01 X-12.5939 Y38.9861
G01 X-12.5943 Y38.9706
G01 X-12.5943 Y10.3406
G01 X-12.5933 Y10.3127
G01 X-12.5913 Y10.2896
G01 X-12.5872 Y10.2620
G01 X-12.5824 Y10.2393
G00 Z2.0000
G00 X-10.7169 Y22.1434
G01 F60.00
G01 Z-0.0800
G01 F120.00
G01 X-10.7179 Y22.1324
G01 X-10.7180 Y22.1250
G01 X-10.7180 Y20.4250
G01 X-10.7176 Y20.4140
G01 X-10.7164 Y20.4030
G01 X-10.7135 Y20.3886
G01 X-10.7093 Y20.3745
G01 X-10.7052 Y20.3643
G01 X-10.6986 Y20.3511
G01 X-10.6928 Y20.3417
G01 X-10.6863 Y20.3328
G01 X-10.6767 Y20.3216
G01 X-10.6688 Y20.3139
G01 X-10.6574 Y20.3046
G01 X-10.6452 Y20.2964
G01 X-10.6355 Y20.2911
G01 X-10.6220 Y20.2851
G01 X-10.6116 Y20.2815
G01 X-10.5973 Y20.2779
G01 X-10.5827 Y20.2758
G01 X-10.5680 Y20.2750
G01 X-8.8680 Y20.2750
G01 X-8.8570 Y20.2754
G01 X-8.8424 Y20.2772
G01 X-8.8316 Y20.2795
G01 X-8.8175 Y20.2838
G01 X-8.8073 Y20.2879
G01 X-8.7973 Y20.2928
G01 X-8.7909 Y20.2964
G01 X-8.7817 Y20.3024
G01 X-8.7758 Y20.3068
G01 X-8.7673 Y20.3139
G01 X-8.7594 Y20.3216
G01 X-8.7521 Y20.3299
G01 X-8.7454 Y20.3387
G01 X-8.7394 Y20.3479
G01 X-8.7341 Y20.3576
G01 X-8.7309 Y20.3643
G01 X-8.7281 Y20.3711
G01 X-8.7245 Y20.3815
G01 X-8.7217 Y20.3922
G01 X-8.7197 Y20.4030
G01 X-8.7184 Y20.4140
G01 X-8.7180 Y20.4250
G01 X-8.7180 Y20.9249
G01 X0.2769 Y20.9249
G01 X4.1197 Y17.0821
G01 X4.0900 Y16.9990
G01 X4.0699 Y16.9193
G01 X4.0670 Y16.9049
G01 X4.0561 Y16.8309
G01 X4.0546 Y16.8163
G01 X4.0508 Y16.7342
G01 X4.0552 Y16.6448
G01 X4.0683 Y16.5563
G01 X4.0881 Y16.4766
G01 X4.0923 Y16.4625
G01 X4.1175 Y16.3921
G01 X4.1232 Y16.3785
G01 X4.1584 Y16.3043
G01 X4.2045 Y16.2276
G01 X4.2578 Y16.1557
G01 X4.3128 Y16.0947
G01 X4.3232 Y16.0843
G01 X4.3842 Y16.0293
G01 X4.4561 Y15.9759
G01 X4.5264 Y15.9336
G01 X4.5394 Y15.9266
G01 X4.6138 Y15.8917
G01 X4.6910 Y15.8638
G01 X4.7051 Y15.8595
G01 X4.7848 Y15.8398
G01 X4.8734 Y15.8266
G01 X4.9554 Y15.8224
G01 X4.9701 Y15.8224
G01 X5.0522 Y15.8266
G01 X5.1334 Y15.8385
G01 X5.1479 Y15.8414
G01 X5.2275 Y15.8615
G01 X5.3049 Y15.8890
G01 X5.3185 Y15.8946
G01 X5.3927 Y15.9299
G01 X5.4632 Y15.9720
G01 X5.4755 Y15.9802
G01 X5.5413 Y16.0293
G01 X5.6076 Y16.0894
G01 X5.6677 Y16.1557
G01 X5.7168 Y16.2215
G01 X5.7250 Y16.2338
G01 X5.7671 Y16.3043
G01 X5.8024 Y16.3785
G01 X5.8080 Y16.3921
G01 X5.8344 Y16.4660
G01 X5.8375 Y16.4766
G01 X5.8556 Y16.5491
G01 X5.8585 Y16.5636
G01 X5.8704 Y16.6448
G01 X5.8746 Y16.7269
G01 X5.8746 Y16.7416
G01 X5.8704 Y16.8236
G01 X5.8585 Y16.9049
G01 X5.8556 Y16.9193
G01 X5.8355 Y16.9990
G01 X5.8080 Y17.0764
G01 X5.8024 Y17.0900
G01 X5.7671 Y17.1642
G01 X5.7211 Y17.2409
G01 X5.6723 Y17.3070
G01 X5.6629 Y17.3184
G01 X5.6127 Y17.3738
G01 X5.6050 Y17.3817
G01 X5.5413 Y17.4392
G01 X5.4755 Y17.4883
G01 X5.4632 Y17.4965
G01 X5.3927 Y17.5386
G01 X5.3185 Y17.5738
G01 X5.3049 Y17.5795
G01 X5.2275 Y17.6070
G01 X5.1407 Y17.6287
G01 X5.0522 Y17.6418
G01 X4.9701 Y17.6461
G01 X4.9554 Y17.6461
G01 X4.8734 Y17.6418
G01 X4.7921 Y17.6300
G01 X4.7777 Y17.6271
G01 X4.6980 Y17.6070
G01 X4.6149 Y17.5773
G01 X0.6695 Y21.5226
G01 X0.6441 Y21.5457
G01 X0.6195 Y21.5641
G01 X0.6102 Y21.5701
G01 X0.5870 Y21.5838
G01 X0.5627 Y21.5955
G01 X0.5525 Y21.5999
G01 X0.5271 Y21.6090
G01 X0.5201 Y21.6111
G01 X0.4974 Y21.6168
G01 X0.4830 Y21.6197
G01 X0.4563 Y21.6235
G01 X0.4220 Y21.6251
G01 X-8.7180 Y21.6251
G01 X-8.7180 Y22.1250
G01 X-8.7184 Y22.1361
G01 X-8.7202 Y22.1507
G01 X-8.7225 Y22.1615
G01 X-8.7256 Y22.1721
G01 X-8.7295 Y22.1824
G01 X-8.7341 Y22.1925
G01 X-8.7394 Y22.2022
G01 X-8.7454 Y22.2114
G01 X-8.7521 Y22.2202
G01 X-8.7594 Y22.2285
G01 X-8.7673 Y22.2362
G01 X-8.7758 Y22.2433
G01 X-8.7847 Y22.2498
G01 X-8.7941 Y22.2556
G01 X-8.8039 Y22.2606
G01 X-8.8106 Y22.2636
G01 X-8.8210 Y22.2675
G01 X-8.8316 Y22.2705
G01 X-8.8424 Y22.2728
G01 X-8.8497 Y22.2739
G01 X-8.8570 Y22.2746
G01 X-8.8680 Y22.2750
G01 X-10.5680 Y22.2750
G01 X-10.5791 Y22.2746
G01 X-10.5900 Y22.2734
G01 X-10.6045 Y22.2705
G01 X-10.6186 Y22.2663
G01 X-10.6288 Y22.2622
G01 X-10.6387 Y22.2573
G01 X-10.6514 Y22.2498
G01 X-10.6632 Y22.2410
G01 X-10.6715 Y22.2337
G01 X-10.6816 Y22.2230
G01 X-10.6885 Y22.2144
G01 X-10.6948 Y22.2053
G01 X-10.7020 Y22.1925
G01 X-10.7066 Y22.1824
G01 X-10.7116 Y22.1686
G01 X-10.7152 Y22.1543
G01 X-10.7169 Y22.1434
G00 Z2.0000
G00 X-8.5480 Y21.8030
G01 F60.00
G01 Z-0.0800
G01 F120.00
G01 X-8.5530 Y21.8085
G01 X-8.5530 Y21.7901
G01 X-8.5350 Y21.7901
G01 X-8.5480 Y21.8030
G00 Z2.0000
G00 X-9.6563 Y27.2897
G01 F60.00
G01 Z-0.0800
G01 F120.00
G01 X-9.5656 Y27.2854
G01 X-9.4676 Y27.2903
G01 X-9.3705 Y27.3047
G01 X-9.2825 Y27.3265
G01 X-9.2684 Y27.3308
G01 X-9.1898 Y27.3589
G01 X-9.1762 Y27.3645
G01 X-9.0942 Y27.4035
G01 X-9.0132 Y27.4520
G01 X-9.0041 Y27.4582
G01 X-8.9371 Y27.5079
G01 X-8.9257 Y27.5172
G01 X-8.8585 Y27.5783
G01 X-8.7974 Y27.6455
G01 X-8.7903 Y27.6539
G01 X-8.7342 Y27.7299
G01 X-8.6855 Y27.8108
G01 X-8.6804 Y27.8206
G01 X-8.6432 Y27.8994
G01 X-8.6391 Y27.9096
G01 X-8.6299 Y27.9353
G01 X25.0700 Y27.9353
G01 X25.1043 Y27.9370
G01 X25.1383 Y27.9421
G01 X25.1645 Y27.9485
G01 X25.1786 Y27.9527
G01 X25.2005 Y27.9606
G01 X25.2107 Y27.9650
G01 X25.2350 Y27.9767
G01 X25.2645 Y27.9943
G01 X25.2921 Y28.0148
G01 X25.3149 Y28.0353
G01 X26.9319 Y29.6522
G01 X27.0150 Y29.6225
G01 X27.0947 Y29.6024
G01 X27.1091 Y29.5995
G01 X27.1904 Y29.5876
G01 X27.2724 Y29.5834
G01 X27.2871 Y29.5834
G01 X27.3692 Y29.5876
G01 X27.4504 Y29.5995
G01 X27.4649 Y29.6024
G01 X27.5445 Y29.6225
G01 X27.6219 Y29.6500
G01 X27.6355 Y29.6556
G01 X27.7097 Y29.6909
G01 X27.7802 Y29.7330
G01 X27.7925 Y29.7412
G01 X27.8525 Y29.7857
G01 X27.8611 Y29.7926
G01 X27.9193 Y29.8453
G01 X27.9297 Y29.8557
G01 X27.9847 Y29.9167
G01 X28.0338 Y29.9825
G01 X28.0420 Y29.9948
G01 X28.0841 Y30.0653
G01 X28.1223 Y30.1462
G01 X28.1525 Y30.2305
G01 X28.1726 Y30.3101
G01 X28.1755 Y30.3246
G01 X28.1874 Y30.4058
G01 X28.1916 Y30.4879
G01 X28.1916 Y30.5026
G01 X28.1874 Y30.5846
G01 X28.1755 Y30.6659
G01 X28.1726 Y30.6803
G01 X28.1525 Y30.7600
G01 X28.1250 Y30.8374
G01 X28.1194 Y30.8510
G01 X28.0841 Y30.9252
G01 X28.0381 Y31.0019
G01 X27.9847 Y31.0738
G01 X27.9297 Y31.1348
G01 X27.9193 Y31.1452
G01 X27.8583 Y31.2002
G01 X27.7925 Y31.2493
G01 X27.7802 Y31.2575
G01 X27.7097 Y31.2996
G01 X27.6355 Y31.3348
G01 X27.6219 Y31.3405
G01 X27.5445 Y31.3680
G01 X27.4649 Y31.3881
G01 X27.4504 Y31.3910
G01 X27.3692 Y31.4028
G01 X27.2798 Y31.4072
G01 X27.1977 Y31.4034
G01 X27.1831 Y31.4019
G01 X27.1018 Y31.3897
G01 X27.0221 Y31.3699
G01 X27.0080 Y31.3657
G01 X26.9308 Y31.3378
G01 X26.8564 Y31.3029
G01 X26.8434 Y31.2959
G01 X26.7731 Y31.2535
G01 X26.7012 Y31.2002
G01 X26.6349 Y31.1401
G01 X26.5748 Y31.0738
G01 X26.5215 Y31.0019
G01 X26.4754 Y30.9252
G01 X26.4372 Y30.8442
G01 X26.4093 Y30.7670
G01 X26.4051 Y30.7529
G01 X26.3869 Y30.6803
G01 X26.3840 Y30.6659
G01 X26.3722 Y30.5846
G01 X26.3679 Y30.5026
G01 X26.3679 Y30.4879
G01 X26.3722 Y30.4058
G01 X26.3853 Y30.3173
G01 X26.4070 Y30.2305
G01 X26.4367 Y30.1473
G01 X24.9249 Y28.6355
G01 X-8.6299 Y28.6355
G01 X-8.6391 Y28.6613
G01 X-8.6432 Y28.6715
G01 X-8.6804 Y28.7503
G01 X-8.6855 Y28.7601
G01 X-8.7342 Y28.8410
G01 X-8.7903 Y28.9170
G01 X-8.7974 Y28.9254
G01 X-8.8585 Y28.9925
G01 X-8.9257 Y29.0536
G01 X-8.9371 Y29.0630
G01 X-9.0041 Y29.1127
G01 X-9.0132 Y29.1189
G01 X-9.0942 Y29.1674
G01 X-9.1830 Y29.2093
G01 X-9.2754 Y29.2424
G01 X-9.3634 Y29.2646
G01 X-9.3778 Y29.2675
G01 X-9.4603 Y29.2797
G01 X-9.4750 Y29.2812
G01 X-9.5656 Y29.2854
G01 X-9.6637 Y29.2806
G01 X-9.7607 Y29.2662
G01 X-9.8559 Y29.2424
G01 X-9.9483 Y29.2093
G01 X-10.0370 Y29.1674
G01 X-10.1212 Y29.1169
G01 X-10.2000 Y29.0585
G01 X-10.2727 Y28.9925
G01 X-10.3338 Y28.9254
G01 X-10.3432 Y28.9140
G01 X-10.3971 Y28.8410
G01 X-10.4439 Y28.7632
G01 X-10.4509 Y28.7503
G01 X-10.4865 Y28.6749
G01 X-10.4922 Y28.6613
G01 X-10.5226 Y28.5757
G01 X-10.5464 Y28.4805
G01 X-10.5608 Y28.3835
G01 X-10.5656 Y28.2854
G01 X-10.5608 Y28.1874
G01 X-10.5464 Y28.0903
G01 X-10.5226 Y27.9952
G01 X-10.4895 Y27.9028
G01 X-10.4476 Y27.8140
G01 X-10.3971 Y27.7299
G01 X-10.3387 Y27.6510
G01 X-10.2778 Y27.5837
G01 X-10.2674 Y27.5733
G01 X-10.2000 Y27.5124
G01 X-10.1212 Y27.4540
G01 X-10.0370 Y27.4035
G01 X-9.9551 Y27.3645
G01 X-9.9415 Y27.3589
G01 X-9.8629 Y27.3308
G01 X-9.8488 Y27.3265
G01 X-9.7607 Y27.3047
G01 X-9.6710 Y27.2912
G01 X-9.6563 Y27.2897
G00 Z2.0000
G00 X-9.0682 Y29.5210
G01 F60.00
G01 Z-0.0800
G01 F120.00
G01 X-9.0651 Y29.5014
G01 X-9.0585 Y29.4750
G01 X-9.0494 Y29.4494
G01 X-9.0394 Y29.4281
G01 X-9.0277 Y29.4077
G01 X-9.0195 Y29.3955
G01 X-9.0052 Y29.3769
G01 X-8.9919 Y29.3622
G01 X-8.9867 Y29.3570
G01 X-8.9692 Y29.3413
G01 X-8.9504 Y29.3272
G01 X-8.7956 Y29.2237
G01 X-8.6274 Y29.0555
G01 X-8.5679 Y28.9665
G01 X-8.5540 Y28.9475
G01 X-8.5469 Y28.9391
G01 X-8.5335 Y28.9245
G01 X-8.5133 Y28.9063
G01 X-8.4945 Y28.8922
G01 X-8.4853 Y28.8861
G01 X-8.4682 Y28.8761
G01 X-8.4436 Y28.8645
G01 X-8.4215 Y28.8564
G01 X-8.4109 Y28.8533
G01 X-8.3916 Y28.8487
G01 X-8.3647 Y28.8447
G01 X-8.3376 Y28.8434
G01 X-5.1512 Y28.8434
G01 X-5.1277 Y28.8444
G01 X-5.1204 Y28.8451
G01 X-5.1008 Y28.8480
G01 X-5.0779 Y28.8533
G01 X-5.0638 Y28.8576
G01 X-5.0486 Y28.8631
G01 X-5.0385 Y28.8675
G01 X-5.0174 Y28.8779
G01 X-5.0004 Y28.8881
G01 X-4.9942 Y28.8922
G01 X-4.9754 Y28.9063
G01 X-4.9553 Y28.9245
G01 X-4.9370 Y28.9447
G01 X-4.9229 Y28.9635
G01 X-4.9105 Y28.9834
G01 X-4.9036 Y28.9964
G01 X-4.8939 Y29.0178
G01 X-4.8872 Y29.0365
G01 X-4.8851 Y29.0435
G01 X-4.8795 Y29.0664
G01 X-4.8755 Y29.0933
G01 X-4.8741 Y29.1204
G01 X-4.8749 Y29.1403
G01 X-4.8759 Y29.1513
G01 X-4.8788 Y29.1709
G01 X-4.8802 Y29.1781
G01 X-4.8851 Y29.1973
G01 X-4.8884 Y29.2079
G01 X-4.8952 Y29.2265
G01 X-4.9036 Y29.2445
G01 X-4.9086 Y29.2543
G01 X-4.9188 Y29.2713
G01 X-4.9251 Y29.2804
G01 X-4.9370 Y29.2962
G01 X-4.9553 Y29.3164
G01 X-8.2376 Y32.5986
G01 X-8.2551 Y32.6143
G01 X-8.2769 Y32.6305
G01 X-8.3003 Y32.6445
G01 X-8.3181 Y32.6531
G01 X-8.3317 Y32.6587
G01 X-8.3540 Y32.6663
G01 X-8.3768 Y32.6718
G01 X-8.4037 Y32.6758
G01 X-8.4309 Y32.6772
G01 X-8.4580 Y32.6758
G01 X-8.4849 Y32.6718
G01 X-8.5113 Y32.6652
G01 X-8.5369 Y32.6561
G01 X-8.5615 Y32.6445
G01 X-8.5848 Y32.6305
G01 X-8.6038 Y32.6166
G01 X-8.6122 Y32.6095
G01 X-8.6268 Y32.5960
G01 X-8.7956 Y32.4272
G01 X-8.9504 Y32.3237
G01 X-8.9692 Y32.3096
G01 X-8.9893 Y32.2914
G01 X-9.0076 Y32.2712
G01 X-9.0195 Y32.2554
G01 X-9.0258 Y32.2463
G01 X-9.0377 Y32.2260
G01 X-9.0494 Y32.2015
G01 X-9.0562 Y32.1829
G01 X-9.0596 Y32.1723
G01 X-9.0651 Y32.1495
G01 X-9.0691 Y32.1226
G01 X-9.0705 Y32.0954
G01 X-9.0691 Y32.0683
G01 X-9.0664 Y32.0486
G01 X-9.0644 Y32.0378
G01 X-9.0596 Y32.0185
G01 X-9.0574 Y32.0115
G01 X-9.0507 Y31.9928
G01 X-9.0464 Y31.9827
G01 X-9.0377 Y31.9648
G01 X-9.0277 Y31.9477
G01 X-9.0217 Y31.9385
G01 X-9.0121 Y31.9255
G01 X-9.0052 Y31.9169
G01 X-8.9893 Y31.8995
G01 X-8.9720 Y31.8836
G01 X-8.9634 Y31.8767
G01 X-8.9473 Y31.8651
G01 X-8.7956 Y31.7637
G01 X-8.6274 Y31.5955
G01 X-8.4952 Y31.3976
G01 X-8.4041 Y31.1778
G01 X-8.3577 Y30.9444
G01 X-8.3577 Y30.7065
G01 X-8.4041 Y30.4731
G01 X-8.4952 Y30.2533
G01 X-8.6274 Y30.0554
G01 X-8.7956 Y29.8872
G01 X-8.9533 Y29.7816
G01 X-8.9692 Y29.7696
G01 X-8.9867 Y29.7539
G01 X-9.0028 Y29.7368
G01 X-9.0099 Y29.7283
G01 X-9.0217 Y29.7124
G01 X-9.0258 Y29.7063
G01 X-9.0360 Y29.6893
G01 X-9.0394 Y29.6828
G01 X-9.0479 Y29.6649
G01 X-9.0507 Y29.6580
G01 X-9.0574 Y29.6394
G01 X-9.0596 Y29.6323
G01 X-9.0644 Y29.6131
G01 X-9.0658 Y29.6059
G01 X-9.0687 Y29.5863
G01 X-9.0694 Y29.5789
G01 X-9.0704 Y29.5591
G01 X-9.0704 Y29.5518
G01 X-9.0694 Y29.5320
G01 X-9.0682 Y29.5210
G00 Z2.0000
G00 X-9.6563 Y29.8297
G01 F60.00
G01 Z-0.0800
G01 F120.00
G01 X-9.5656 Y29.8254
G01 X-9.4676 Y29.8303
G01 X-9.3705 Y29.8447
G01 X-9.2754 Y29.8685
G01 X-9.1830 Y29.9016
G01 X-9.0942 Y29.9435
G01 X-9.0101 Y29.9940
G01 X-8.9312 Y30.0524
G01 X-8.8585 Y30.1183
G01 X-8.7926 Y30.1910
G01 X-8.7342 Y30.2699
G01 X-8.6837 Y30.3540
G01 X-8.6418 Y30.4428
G01 X-8.6087 Y30.5352
G01 X-8.5849 Y30.6303
G01 X-8.5705 Y30.7274
G01 X-8.5656 Y30.8254
G01 X-8.5705 Y30.9235
G01 X-8.5849 Y31.0205
G01 X-8.6087 Y31.1157
G01 X-8.6418 Y31.2081
G01 X-8.6837 Y31.2968
G01 X-8.7342 Y31.3810
G01 X-8.7926 Y31.4598
G01 X-8.8585 Y31.5325
G01 X-8.9312 Y31.5985
G01 X-9.0101 Y31.6569
G01 X-9.0942 Y31.7074
G01 X-9.1830 Y31.7493
G01 X-9.2754 Y31.7824
G01 X-9.3705 Y31.8062
G01 X-9.4676 Y31.8206
G01 X-9.5656 Y31.8254
G01 X-9.6637 Y31.8206
G01 X-9.7607 Y31.8062
G01 X-9.8559 Y31.7824
G01 X-9.9483 Y31.7493
G01 X-10.0370 Y31.7074
G01 X-10.1212 Y31.6569
G01 X-10.2000 Y31.5985
G01 X-10.2727 Y31.5325
G01 X-10.3387 Y31.4598
G01 X-10.3971 Y31.3810
G01 X-10.4476 Y31.2968
G01 X-10.4895 Y31.2081
G01 X-10.5226 Y31.1157
G01 X-10.5464 Y31.0205
G01 X-10.5608 Y30.9235
G01 X-10.5656 Y30.8254
G01 X-10.5608 Y30.7274
G01 X-10.5464 Y30.6303
G01 X-10.5226 Y30.5352
G01 X-10.4895 Y30.4428
G01 X-10.4476 Y30.3540
G01 X-10.3971 Y30.2699
G01 X-10.3387 Y30.1910
G01 X-10.2727 Y30.1183
G01 X-10.2000 Y30.0524
G01 X-10.1212 Y29.9940
G01 X-10.0370 Y29.9435
G01 X-9.9483 Y29.9016
G01 X-9.8559 Y29.8685
G01 X-9.7607 Y29.8447
G01 X-9.6710 Y29.8312
G01 X-9.6563 Y29.8297
G00 Z2.0000
G00 X-9.9239 Y29.7102
G01 F60.00
G01 Z-0.0800
G01 F120.00
G01 X-9.9172 Y29.6911
G01 X-9.9127 Y29.6763
G01 X-9.9059 Y29.6492
G01 X-9.9029 Y29.6341
G01 X-9.8998 Y29.6141
G01 X-9.8979 Y29.5988
G01 X-9.8962 Y29.5709
G01 X-9.8958 Y29.5554
G01 X-9.8968 Y29.5275
G01 X-9.8979 Y29.5121
G01 X-9.8998 Y29.4968
G01 X-9.9043 Y29.4692
G01 X-9.9107 Y29.4420
G01 X-9.9149 Y29.4271
G01 X-9.9197 Y29.4124
G01 X-9.9270 Y29.3924
G01 X-9.9038 Y29.4003
G01 X-9.8889 Y29.4044
G01 X-9.8005 Y29.4265
G01 X-9.7777 Y29.4307
G01 X-9.6952 Y29.4429
G01 X-9.6798 Y29.4448
G01 X-9.6644 Y29.4460
G01 X-9.5811 Y29.4501
G01 X-9.5656 Y29.4504
G01 X-9.5502 Y29.4501
G01 X-9.4669 Y29.4460
G01 X-9.4515 Y29.4448
G01 X-9.4361 Y29.4429
G01 X-9.3536 Y29.4307
G01 X-9.3308 Y29.4265
G01 X-9.2424 Y29.4044
G01 X-9.2275 Y29.4003
G01 X-9.2043 Y29.3924
G01 X-9.2116 Y29.4124
G01 X-9.2164 Y29.4271
G01 X-9.2206 Y29.4420
G01 X-9.2270 Y29.4692
G01 X-9.2314 Y29.4968
G01 X-9.2333 Y29.5121
G01 X-9.2351 Y29.5400
G01 X-9.2355 Y29.5554
G01 X-9.2345 Y29.5834
G01 X-9.2333 Y29.5988
G01 X-9.2314 Y29.6141
G01 X-9.2270 Y29.6417
G01 X-9.2206 Y29.6689
G01 X-9.2164 Y29.6838
G01 X-9.2116 Y29.6984
G01 X-9.2043 Y29.7185
G01 X-9.2275 Y29.7106
G01 X-9.2424 Y29.7065
G01 X-9.3308 Y29.6844
G01 X-9.3536 Y29.6802
G01 X-9.4361 Y29.6679
G01 X-9.4515 Y29.6660
G01 X-9.4669 Y29.6649
G01 X-9.5502 Y29.6608
G01 X-9.5656 Y29.6604
G01 X-9.5811 Y29.6608
G01 X-9.6644 Y29.6649
G01 X-9.6798 Y29.6660
G01 X-9.6952 Y29.6679
G01 X-9.7777 Y29.6802
G01 X-9.8005 Y29.6844
G01 X-9.8964 Y29.7085
G01 X-9.9112 Y29.7129
G01 X-9.9270 Y29.7185
G01 X-9.9239 Y29.7102
G00 Z2.0000
G00 X-9.9239 Y32.2502
G01 F60.00
G01 Z-0.0800
G01 F120.00
G01 X-9.9172 Y32.2311
G01 X-9.9127 Y32.2163
G01 X-9.9059 Y32.1892
G01 X-9.9029 Y32.1741
G01 X-9.8998 Y32.1541
G01 X-9.8979 Y32.1388
G01 X-9.8962 Y32.1109
G01 X-9.8958 Y32.0954
G01 X-9.8968 Y32.0675
G01 X-9.8979 Y32.0521
G01 X-9.8998 Y32.0368
G01 X-9.9043 Y32.0092
G01 X-9.9107 Y31.9820
G01 X-9.9149 Y31.9671
G01 X-9.9197 Y31.9524
G01 X-9.9270 Y31.9324
G01 X-9.9038 Y31.9403
G01 X-9.8889 Y31.9444
G01 X-9.8005 Y31.9665
G01 X-9.7777 Y31.9707
G01 X-9.6952 Y31.9829
G01 X-9.6798 Y31.9848
G01 X-9.6644 Y31.9860
G01 X-9.5811 Y31.9901
G01 X-9.5656 Y31.9904
G01 X-9.5502 Y31.9901
G01 X-9.4669 Y31.9860
G01 X-9.4515 Y31.9848
G01 X-9.4361 Y31.9829
G01 X-9.3536 Y31.9707
G01 X-9.3308 Y31.9665
G01 X-9.2424 Y31.9444
G01 X-9.2275 Y31.9403
G01 X-9.2043 Y31.9324
G01 X-9.2116 Y31.9524
G01 X-9.2164 Y31.9671
G01 X-9.2206 Y31.9820
G01 X-9.2270 Y32.0092
G01 X-9.2314 Y32.0368
G01 X-9.2333 Y32.0521
G01 X-9.2351 Y32.0800
G01 X-9.2355 Y32.0954
G01 X-9.2345 Y32.1234
G01 X-9.2333 Y32.1388
G01 X-9.2314 Y32.1541
G01 X-9.2270 Y32.1817
G01 X-9.2206 Y32.2089
G01 X-9.2164 Y32.2238
G01 X-9.2116 Y32.2384
G01 X-9.2043 Y32.2585
G01 X-9.2275 Y32.2506
G01 X-9.2424 Y32.2465
G01 X-9.3308 Y32.2244
G01 X-9.3536 Y32.2202
G01 X-9.4361 Y32.2079
G01 X-9.4515 Y32.2060
G01 X-9.4669 Y32.2049
G01 X-9.5502 Y32.2008
G01 X-9.5656 Y32.2004
G01 X-9.5811 Y32.2008
G01 X-9.6644 Y32.2049
G01 X-9.6798 Y32.2060
G01 X-9.6952 Y32.2079
G01 X-9.7777 Y32.2202
G01 X-9.8005 Y32.2244
G01 X-9.8964 Y32.2485
G01 X-9.9112 Y32.2529
G01 X-9.9270 Y32.2585
G01 X-9.9239 Y32.2502
G00 Z2.0000
G00 X-9.6563 Y32.3697
G01 F60.00
G01 Z-0.0800
G01 F120.00
G01 X-9.5656 Y32.3654
G01 X-9.4750 Y32.3697
G01 X-9.4603 Y32.3712
G01 X-9.3705 Y32.3847
G01 X-9.2825 Y32.4065
G01 X-9.2684 Y32.4108
G01 X-9.1830 Y32.4416
G01 X-9.0975 Y32.4818
G01 X-9.0878 Y32.4871
G01 X-9.0101 Y32.5340
G01 X-8.9312 Y32.5924
G01 X-8.8585 Y32.6583
G01 X-8.7950 Y32.7282
G01 X-8.7881 Y32.7369
G01 X-8.7342 Y32.8099
G01 X-8.6855 Y32.8908
G01 X-8.6804 Y32.9006
G01 X-8.6432 Y32.9794
G01 X-8.6391 Y32.9896
G01 X-8.6299 Y33.0153
G01 X-8.3604 Y33.0153
G01 X-4.2981 Y28.9531
G01 X-4.2752 Y28.9326
G01 X-4.2476 Y28.9121
G01 X-4.2182 Y28.8945
G01 X-4.1905 Y28.8812
G01 X-4.1802 Y28.8771
G01 X-4.1583 Y28.8693
G01 X-4.1512 Y28.8672
G01 X-4.1286 Y28.8615
G01 X-4.1142 Y28.8586
G01 X-4.0911 Y28.8552
G01 X-4.0801 Y28.8543
G01 X-4.0531 Y28.8531
G01 X21.5878 Y28.8531
G01 X21.6147 Y28.8543
G01 X21.6294 Y28.8557
G01 X21.6524 Y28.8592
G01 X21.6632 Y28.8615
G01 X21.6894 Y28.8682
G01 X21.7217 Y28.8798
G01 X21.7528 Y28.8945
G01 X21.7760 Y28.9082
G01 X21.7883 Y28.9164
G01 X21.8070 Y28.9303
G01 X21.8127 Y28.9350
G01 X21.8353 Y28.9557
G01 X22.5319 Y29.6522
G01 X22.6080 Y29.6248
G01 X22.6221 Y29.6205
G01 X22.7018 Y29.6008
G01 X22.7831 Y29.5885
G01 X22.7977 Y29.5871
G01 X22.8798 Y29.5832
G01 X22.9692 Y29.5876
G01 X23.0504 Y29.5995
G01 X23.0649 Y29.6024
G01 X23.1445 Y29.6225
G01 X23.2219 Y29.6500
G01 X23.2355 Y29.6556
G01 X23.3097 Y29.6909
G01 X23.3802 Y29.7330
G01 X23.3895 Y29.7390
G01 X23.4583 Y29.7903
G01 X23.5193 Y29.8453
G01 X23.5297 Y29.8557
G01 X23.5847 Y29.9167
G01 X23.6338 Y29.9825
G01 X23.6420 Y29.9948
G01 X23.6804 Y30.0589
G01 X23.6874 Y30.0719
G01 X23.7223 Y30.1462
G01 X23.7525 Y30.2305
G01 X23.7742 Y30.3173
G01 X23.7865 Y30.3985
G01 X23.7879 Y30.4132
G01 X23.7916 Y30.4879
G01 X23.7916 Y30.5026
G01 X23.7874 Y30.5846
G01 X23.7755 Y30.6659
G01 X23.7726 Y30.6803
G01 X23.7525 Y30.7600
G01 X23.7250 Y30.8374
G01 X23.7194 Y30.8510
G01 X23.6841 Y30.9252
G01 X23.6381 Y31.0019
G01 X23.5847 Y31.0738
G01 X23.5297 Y31.1348
G01 X23.5193 Y31.1452
G01 X23.4583 Y31.2002
G01 X23.3864 Y31.2535
G01 X23.3097 Y31.2996
G01 X23.2288 Y31.3378
G01 X23.1445 Y31.3680
G01 X23.0577 Y31.3897
G01 X22.9692 Y31.4028
G01 X22.8871 Y31.4071
G01 X22.8761 Y31.4072
G01 X22.7904 Y31.4028
G01 X22.7091 Y31.3910
G01 X22.6947 Y31.3881
G01 X22.6150 Y31.3680
G01 X22.5376 Y31.3405
G01 X22.5240 Y31.3348
G01 X22.4564 Y31.3029
G01 X22.4434 Y31.2959
G01 X22.3731 Y31.2535
G01 X22.3012 Y31.2002
G01 X22.2349 Y31.1401
G01 X22.1796 Y31.0794
G01 X22.1725 Y31.0709
G01 X22.1215 Y31.0019
G01 X22.0791 Y30.9316
G01 X22.0721 Y30.9186
G01 X22.0372 Y30.8442
G01 X22.0093 Y30.7670
G01 X22.0051 Y30.7529
G01 X21.9853 Y30.6732
G01 X21.9731 Y30.5919
G01 X21.9716 Y30.5773
G01 X21.9678 Y30.4952
G01 X21.9716 Y30.4132
G01 X21.9731 Y30.3985
G01 X21.9853 Y30.3173
G01 X22.0051 Y30.2376
G01 X22.0093 Y30.2235
G01 X22.0367 Y30.1473
G01 X21.4427 Y29.5533
G01 X-3.9081 Y29.5533
G01 X-7.9678 Y33.6130
G01 X-7.9904 Y33.6337
G01 X-7.9961 Y33.6384
G01 X-8.0148 Y33.6523
G01 X-8.0271 Y33.6605
G01 X-8.0503 Y33.6742
G01 X-8.0814 Y33.6889
G01 X-8.1102 Y33.6994
G01 X-8.1208 Y33.7024
G01 X-8.1470 Y33.7088
G01 X-8.1774 Y33.7134
G01 X-8.1884 Y33.7144
G01 X-8.2153 Y33.7155
G01 X-8.6299 Y33.7155
G01 X-8.6391 Y33.7413
G01 X-8.6432 Y33.7515
G01 X-8.6820 Y33.8336
G01 X-8.6873 Y33.8432
G01 X-8.7302 Y33.9148
G01 X-8.7363 Y33.9240
G01 X-8.7926 Y33.9998
G01 X-8.8535 Y34.0672
G01 X-8.8639 Y34.0776
G01 X-8.9257 Y34.1336
G01 X-8.9341 Y34.1408
G01 X-9.0101 Y34.1969
G01 X-9.0878 Y34.2437
G01 X-9.1008 Y34.2507
G01 X-9.1830 Y34.2893
G01 X-9.2684 Y34.3201
G01 X-9.2825 Y34.3243
G01 X-9.3705 Y34.3462
G01 X-9.4676 Y34.3606
G01 X-9.5656 Y34.3654
G01 X-9.6637 Y34.3606
G01 X-9.7607 Y34.3462
G01 X-9.8559 Y34.3224
G01 X-9.9483 Y34.2893
G01 X-10.0370 Y34.2474
G01 X-10.1212 Y34.1969
G01 X-10.2000 Y34.1385
G01 X-10.2727 Y34.0725
G01 X-10.3387 Y33.9998
G01 X-10.3971 Y33.9210
G01 X-10.4476 Y33.8368
G01 X-10.4895 Y33.7481
G01 X-10.5226 Y33.6557
G01 X-10.5464 Y33.5605
G01 X-10.5608 Y33.4635
G01 X-10.5656 Y33.3654
G01 X-10.5608 Y33.2674
G01 X-10.5464 Y33.1703
G01 X-10.5226 Y33.0752
G01 X-10.4895 Y32.9828
G01 X-10.4476 Y32.8940
G01 X-10.3971 Y32.8099
G01 X-10.3387 Y32.7310
G01 X-10.2727 Y32.6583
G01 X-10.2000 Y32.5924
G01 X-10.1212 Y32.5340
G01 X-10.0370 Y32.4835
G01 X-9.9483 Y32.4416
G01 X-9.8559 Y32.4085
G01 X-9.7607 Y32.3847
G01 X-9.6710 Y32.3712
G01 X-9.6563 Y32.3697
G00 Z2.0000
G00 X-8.5095 Y32.8351
G01 F60.00
G01 Z-0.0800
G01 F120.00
G01 X-8.4819 Y32.8392
G01 X-8.4665 Y32.8407
G01 X-8.4386 Y32.8421
G01 X-8.4203 Y32.8420
G01 X-8.4287 Y32.8503
G01 X-8.5217 Y32.8503
G01 X-8.5310 Y32.8306
G01 X-8.5095 Y32.8351
G00 Z2.0000
G00 X-8.7783 Y34.5916
G01 F60.00
G01 Z-0.0800
G01 F120.00
G01 X-8.7884 Y34.5745
G01 X-8.7970 Y34.5567
G01 X-8.8014 Y34.5465
G01 X-8.8080 Y34.5279
G01 X-8.8111 Y34.5173
G01 X-8.8158 Y34.4980
G01 X-8.8188 Y34.4784
G01 X-8.8201 Y34.4674
G01 X-8.8210 Y34.4476
G01 X-8.8209 Y34.4366
G01 X-8.8197 Y34.4168
G01 X-8.8170 Y34.3971
G01 X-8.8150 Y34.3863
G01 X-8.8102 Y34.3670
G01 X-8.8068 Y34.3565
G01 X-8.8000 Y34.3379
G01 X-8.7884 Y34.3133
G01 X-8.7783 Y34.2962
G01 X-8.7723 Y34.2870
G01 X-8.7582 Y34.2682
G01 X-8.7399 Y34.2480
G01 X-8.6274 Y34.1355
G01 X-8.5637 Y34.0405
G01 X-8.5494 Y34.0219
G01 X-8.5361 Y34.0072
G01 X-8.5309 Y34.0020
G01 X-8.5133 Y33.9863
G01 X-8.4975 Y33.9743
G01 X-8.4884 Y33.9681
G01 X-8.4682 Y33.9561
G01 X-8.4470 Y33.9459
G01 X-8.4367 Y33.9418
G01 X-8.4180 Y33.9353
G01 X-8.3952 Y33.9295
G01 X-8.3880 Y33.9280
G01 X-8.3684 Y33.9251
G01 X-8.3611 Y33.9244
G01 X-8.3413 Y33.9234
G01 X-8.2527 Y33.9234
G01 X-8.2329 Y33.9244
G01 X-8.2153 Y33.9261
G01 X-8.1060 Y33.9153
G01 X-8.0008 Y33.8834
G01 X-7.9039 Y33.8316
G01 X-7.8189 Y33.7619
G01 X-7.8077 Y33.7483
G01 X-7.7918 Y33.7309
G01 X-3.9032 Y29.8423
G01 X-3.8859 Y29.8264
G01 X-3.8772 Y29.8195
G01 X-3.8612 Y29.8079
G01 X-3.8411 Y29.7957
G01 X-3.8313 Y29.7906
G01 X-3.8133 Y29.7823
G01 X-3.7912 Y29.7742
G01 X-3.7806 Y29.7711
G01 X-3.7577 Y29.7658
G01 X-3.7344 Y29.7625
G01 X-3.7110 Y29.7612
G01 X-3.5290 Y29.7612
G01 X-3.5092 Y29.7620
G01 X-3.4982 Y29.7629
G01 X-3.4786 Y29.7658
G01 X-3.4714 Y29.7673
G01 X-3.4521 Y29.7721
G01 X-3.4451 Y29.7742
G01 X-3.4264 Y29.7809
G01 X-3.4196 Y29.7837
G01 X-3.4017 Y29.7922
G01 X-3.3952 Y29.7957
G01 X-3.3782 Y29.8059
G01 X-3.3720 Y29.8100
G01 X-3.3561 Y29.8218
G01 X-3.3504 Y29.8264
G01 X-3.3357 Y29.8398
G01 X-3.3305 Y29.8450
G01 X-3.3172 Y29.8597
G01 X-3.3125 Y29.8653
G01 X-3.3007 Y29.8813
G01 X-3.2966 Y29.8874
G01 X-3.2864 Y29.9044
G01 X-3.2830 Y29.9109
G01 X-3.2745 Y29.9288
G01 X-3.2662 Y29.9508
G01 X-3.2628 Y29.9613
G01 X-3.2589 Y29.9770
G01 X-3.2560 Y29.9914
G01 X-3.2530 Y30.0148
G01 X-3.2520 Y30.0346
G01 X-3.2520 Y30.0419
G01 X-3.2533 Y30.0654
G01 X-3.2573 Y30.0923
G01 X-3.2639 Y30.1187
G01 X-3.2730 Y30.1443
G01 X-3.2847 Y30.1688
G01 X-3.2986 Y30.1922
G01 X-3.3148 Y30.2140
G01 X-3.3305 Y30.2315
G01 X-7.9922 Y34.8932
G01 X-8.0095 Y34.9091
G01 X-8.0281 Y34.9234
G01 X-8.0372 Y34.9297
G01 X-8.0575 Y34.9417
G01 X-8.0753 Y34.9503
G01 X-8.0855 Y34.9547
G01 X-8.1077 Y34.9624
G01 X-8.1304 Y34.9683
G01 X-8.1413 Y34.9703
G01 X-8.1609 Y34.9730
G01 X-8.1844 Y34.9743
G01 X-8.1954 Y34.9742
G01 X-8.2189 Y34.9726
G01 X-8.2421 Y34.9691
G01 X-8.2614 Y34.9644
G01 X-8.2720 Y34.9613
G01 X-8.2941 Y34.9533
G01 X-8.3187 Y34.9417
G01 X-8.3389 Y34.9297
G01 X-8.3580 Y34.9160
G01 X-8.3694 Y34.9067
G01 X-8.3840 Y34.8932
G01 X-8.3999 Y34.8759
G01 X-8.4613 Y34.8011
G01 X-8.5158 Y34.7564
G01 X-8.5780 Y34.7231
G01 X-8.6280 Y34.7079
G01 X-8.6500 Y34.6999
G01 X-8.6746 Y34.6883
G01 X-8.6949 Y34.6763
G01 X-8.7040 Y34.6701
G01 X-8.7198 Y34.6581
G01 X-8.7399 Y34.6398
G01 X-8.7534 Y34.6253
G01 X-8.7605 Y34.6168
G01 X-8.7723 Y34.6009
G01 X-8.7783 Y34.5916
G00 Z2.0000
G00 X-8.3644 Y35.1027
G01 F60.00
G01 Z-0.0800
G01 F120.00
G01 X-8.3428 Y35.1113
G01 X-8.3164 Y35.1203
G01 X-8.2894 Y35.1275
G01 X-8.2743 Y35.1309
G01 X-8.2468 Y35.1354
G01 X-8.2237 Y35.1379
G01 X-8.1958 Y35.1393
G01 X-8.1775 Y35.1392
G01 X-8.4006 Y35.3623
G01 X-8.4006 Y35.0849
G01 X-8.3896 Y35.0907
G01 X-8.3644 Y35.1027
G00 Z2.0000
G00 X-8.4006 Y36.4293
G01 F60.00
G01 Z-0.0800
G01 F120.00
G01 X-8.4006 Y36.4205
G01 X-8.3923 Y36.4205
G01 X-8.3956 Y36.4239
G01 X-8.4006 Y36.4293
G00 Z2.0000
G00 X-10.2505 Y34.7303
G01 F60.00
G01 Z-0.0800
G01 F120.00
G01 X-10.2360 Y34.7122
G01 X-10.2197 Y34.6895
G01 X-10.2114 Y34.6765
G01 X-10.1974 Y34.6523
G01 X-10.1851 Y34.6272
G01 X-10.1788 Y34.6131
G01 X-10.1691 Y34.5869
G01 X-10.1621 Y34.5648
G01 X-10.1553 Y34.5377
G01 X-10.1523 Y34.5226
G01 X-10.1482 Y34.4949
G01 X-10.1462 Y34.4718
G01 X-10.1452 Y34.4439
G01 X-10.1462 Y34.4160
G01 X-10.1482 Y34.3929
G01 X-10.1513 Y34.3715
G01 X-10.1216 Y34.3892
G01 X-10.1080 Y34.3964
G01 X-10.0186 Y34.4387
G01 X-9.9970 Y34.4473
G01 X-9.9185 Y34.4754
G01 X-9.8964 Y34.4824
G01 X-9.8080 Y34.5047
G01 X-9.7929 Y34.5081
G01 X-9.7777 Y34.5107
G01 X-9.6952 Y34.5229
G01 X-9.6798 Y34.5248
G01 X-9.6644 Y34.5260
G01 X-9.5811 Y34.5301
G01 X-9.5656 Y34.5304
G01 X-9.5502 Y34.5301
G01 X-9.4669 Y34.5260
G01 X-9.4515 Y34.5248
G01 X-9.4361 Y34.5229
G01 X-9.3536 Y34.5107
G01 X-9.3384 Y34.5081
G01 X-9.3233 Y34.5047
G01 X-9.2349 Y34.4824
G01 X-9.2128 Y34.4754
G01 X-9.1342 Y34.4473
G01 X-9.1127 Y34.4387
G01 X-9.0233 Y34.3964
G01 X-9.0097 Y34.3892
G01 X-8.9800 Y34.3715
G01 X-8.9840 Y34.4006
G01 X-8.9857 Y34.4285
G01 X-8.9860 Y34.4517
G01 X-8.9846 Y34.4796
G01 X-8.9821 Y34.5026
G01 X-8.9776 Y34.5302
G01 X-8.9742 Y34.5453
G01 X-8.9670 Y34.5723
G01 X-8.9580 Y34.5987
G01 X-8.9524 Y34.6131
G01 X-8.9408 Y34.6385
G01 X-8.9302 Y34.6591
G01 X-8.9158 Y34.6830
G01 X-8.9072 Y34.6959
G01 X-8.8906 Y34.7183
G01 X-8.8808 Y34.7303
G01 X-8.8717 Y34.7404
G01 X-10.2596 Y34.7404
G01 X-10.2505 Y34.7303
G00 Z2.0000
G00 X-10.4340 Y34.9066
G01 F60.00
G01 Z-0.0800
G01 F120.00
G01 X-10.4230 Y34.9056
G01 X-10.4156 Y34.9054
G01 X-8.7156 Y34.9054
G01 X-8.7046 Y34.9058
G01 X-8.6936 Y34.9071
G01 X-8.6828 Y34.9091
G01 X-8.6721 Y34.9119
G01 X-8.6651 Y34.9142
G01 X-8.6549 Y34.9183
G01 X-8.6449 Y34.9232
G01 X-8.6354 Y34.9287
G01 X-8.6263 Y34.9350
G01 X-8.6177 Y34.9419
G01 X-8.6096 Y34.9494
G01 X-8.6021 Y34.9575
G01 X-8.5952 Y34.9661
G01 X-8.5889 Y34.9752
G01 X-8.5834 Y34.9847
G01 X-8.5800 Y34.9913
G01 X-8.5757 Y35.0015
G01 X-8.5732 Y35.0084
G01 X-8.5701 Y35.0190
G01 X-8.5678 Y35.0298
G01 X-8.5660 Y35.0444
G01 X-8.5656 Y35.0554
G01 X-8.5656 Y35.5553
G01 X-8.3604 Y35.5553
G01 X-3.0527 Y30.2477
G01 X-3.0272 Y30.2246
G01 X-3.0057 Y30.2084
G01 X-2.9966 Y30.2021
G01 X-2.9766 Y30.1901
G01 X-2.9636 Y30.1832
G01 X-2.9391 Y30.1718
G01 X-2.9068 Y30.1602
G01 X-2.8734 Y30.1519
G01 X-2.8468 Y30.1477
G01 X-2.8358 Y30.1465
G01 X-2.8051 Y30.1451
G01 X19.8377 Y30.1451
G01 X19.8754 Y30.0653
G01 X19.9175 Y29.9948
G01 X19.9257 Y29.9825
G01 X19.9748 Y29.9167
G01 X20.0298 Y29.8557
G01 X20.0402 Y29.8453
G01 X20.1012 Y29.7903
G01 X20.1731 Y29.7369
G01 X20.2498 Y29.6909
G01 X20.3240 Y29.6556
G01 X20.3376 Y29.6500
G01 X20.4150 Y29.6225
G01 X20.4947 Y29.6024
G01 X20.5091 Y29.5995
G01 X20.5904 Y29.5876
G01 X20.6798 Y29.5832
G01 X20.7692 Y29.5876
G01 X20.8577 Y29.6008
G01 X20.9445 Y29.6225
G01 X21.0219 Y29.6500
G01 X21.0355 Y29.6556
G01 X21.1031 Y29.6876
G01 X21.1161 Y29.6946
G01 X21.1864 Y29.7369
G01 X21.2525 Y29.7857
G01 X21.2639 Y29.7951
G01 X21.3246 Y29.8504
G01 X21.3847 Y29.9167
G01 X21.4381 Y29.9886
G01 X21.4841 Y30.0653
G01 X21.5223 Y30.1462
G01 X21.5525 Y30.2305
G01 X21.5742 Y30.3173
G01 X21.5865 Y30.3985
G01 X21.5879 Y30.4132
G01 X21.5918 Y30.4952
G01 X21.5874 Y30.5846
G01 X21.5742 Y30.6732
G01 X21.5525 Y30.7600
G01 X21.5223 Y30.8442
G01 X21.4841 Y30.9252
G01 X21.4381 Y31.0019
G01 X21.3893 Y31.0680
G01 X21.3799 Y31.0794
G01 X21.3246 Y31.1401
G01 X21.2639 Y31.1954
G01 X21.2525 Y31.2048
G01 X21.1925 Y31.2493
G01 X21.1802 Y31.2575
G01 X21.1097 Y31.2996
G01 X21.0355 Y31.3348
G01 X21.0219 Y31.3405
G01 X20.9445 Y31.3680
G01 X20.8577 Y31.3897
G01 X20.7692 Y31.4028
G01 X20.6834 Y31.4072
G01 X20.6724 Y31.4071
G01 X20.5977 Y31.4034
G01 X20.5831 Y31.4019
G01 X20.5018 Y31.3897
G01 X20.4150 Y31.3680
G01 X20.3376 Y31.3405
G01 X20.3240 Y31.3348
G01 X20.2498 Y31.2996
G01 X20.1731 Y31.2535
G01 X20.1012 Y31.2002
G01 X20.0402 Y31.1452
G01 X20.0298 Y31.1348
G01 X19.9748 Y31.0738
G01 X19.9257 Y31.0079
G01 X19.9175 Y30.9957
G01 X19.8754 Y30.9252
G01 X19.8377 Y30.8453
G01 X-2.6601 Y30.8453
G01 X-7.9731 Y36.1581
G01 X-7.9932 Y36.1761
G01 X-8.0178 Y36.1945
G01 X-8.0239 Y36.1985
G01 X-8.0439 Y36.2106
G01 X-8.0536 Y36.2159
G01 X-8.0814 Y36.2289
G01 X-8.1067 Y36.2382
G01 X-8.1208 Y36.2424
G01 X-8.1434 Y36.2481
G01 X-8.1507 Y36.2495
G01 X-8.1810 Y36.2539
G01 X-8.2117 Y36.2555
G01 X-8.5656 Y36.2555
G01 X-8.5656 Y36.7554
G01 X-8.5658 Y36.7628
G01 X-8.5668 Y36.7738
G01 X-8.5685 Y36.7847
G01 X-8.5701 Y36.7919
G01 X-8.5732 Y36.8025
G01 X-8.5757 Y36.8094
G01 X-8.5785 Y36.8162
G01 X-8.5834 Y36.8261
G01 X-8.5889 Y36.8357
G01 X-8.5930 Y36.8418
G01 X-8.5974 Y36.8477
G01 X-8.6045 Y36.8562
G01 X-8.6149 Y36.8666
G01 X-8.6234 Y36.8737
G01 X-8.6293 Y36.8781
G01 X-8.6354 Y36.8822
G01 X-8.6449 Y36.8877
G01 X-8.6549 Y36.8926
G01 X-8.6617 Y36.8954
G01 X-8.6721 Y36.8990
G01 X-8.6792 Y36.9009
G01 X-8.6900 Y36.9032
G01 X-8.6973 Y36.9043
G01 X-8.7083 Y36.9053
G01 X-8.7156 Y36.9054
G01 X-10.4193 Y36.9054
G01 X-10.4303 Y36.9047
G01 X-10.4376 Y36.9038
G01 X-10.4521 Y36.9009
G01 X-10.4662 Y36.8967
G01 X-10.4798 Y36.8910
G01 X-10.4928 Y36.8841
G01 X-10.5050 Y36.8759
G01 X-10.5164 Y36.8666
G01 X-10.5268 Y36.8562
G01 X-10.5339 Y36.8477
G01 X-10.5424 Y36.8357
G01 X-10.5496 Y36.8229
G01 X-10.5542 Y36.8128
G01 X-10.5592 Y36.7990
G01 X-10.5620 Y36.7883
G01 X-10.5645 Y36.7738
G01 X-10.5656 Y36.7591
G01 X-10.5655 Y35.0481
G01 X-10.5640 Y35.0334
G01 X-10.5620 Y35.0226
G01 X-10.5592 Y35.0119
G01 X-10.5542 Y34.9980
G01 X-10.5479 Y34.9847
G01 X-10.5424 Y34.9752
G01 X-10.5339 Y34.9632
G01 X-10.5243 Y34.9520
G01 X-10.5164 Y34.9443
G01 X-10.5050 Y34.9350
G01 X-10.4959 Y34.9287
G01 X-10.4831 Y34.9215
G01 X-10.4696 Y34.9155
G01 X-10.4592 Y34.9119
G01 X-10.4485 Y34.9091
G01 X-10.4340 Y34.9066
G00 Z2.0000
G00 X-5.4983 Y34.0238
G01 F60.00
G01 Z-0.0800
G01 F120.00
G01 X-5.5205 Y34.0315
G01 X-5.5307 Y34.0359
G01 X-5.5485 Y34.0445
G01 X-5.5656 Y34.0546
G01 X-5.5749 Y34.0606
G01 X-5.5908 Y34.0724
G01 X-5.5993 Y34.0795
G01 X-5.6138 Y34.0930
G01 X-7.7918 Y36.2709
G01 X-7.8077 Y36.2883
G01 X-7.8189 Y36.3019
G01 X-7.9039 Y36.3716
G01 X-8.0008 Y36.4234
G01 X-8.1060 Y36.4553
G01 X-8.1316 Y36.4592
G01 X-8.1509 Y36.4638
G01 X-8.1615 Y36.4669
G01 X-8.1836 Y36.4749
G01 X-8.2082 Y36.4866
G01 X-8.2315 Y36.5005
G01 X-8.2533 Y36.5167
G01 X-8.2735 Y36.5350
G01 X-8.2894 Y36.5523
G01 X-8.2963 Y36.5609
G01 X-8.3079 Y36.5770
G01 X-8.3183 Y36.5939
G01 X-8.3236 Y36.6036
G01 X-8.3321 Y36.6215
G01 X-8.3362 Y36.6318
G01 X-8.3427 Y36.6505
G01 X-8.3493 Y36.6769
G01 X-8.3529 Y36.7001
G01 X-8.3545 Y36.7236
G01 X-8.3546 Y36.7418
G01 X-8.3629 Y36.8256
G01 X-8.3833 Y36.8931
G01 X-8.4166 Y36.9553
G01 X-8.4613 Y37.0098
G01 X-8.5158 Y37.0545
G01 X-8.5780 Y37.0877
G01 X-8.6455 Y37.1082
G01 X-8.7293 Y37.1164
G01 X-10.4020 Y37.1164
G01 X-10.4858 Y37.1082
G01 X-10.5533 Y37.0877
G01 X-10.6155 Y37.0545
G01 X-10.6700 Y37.0098
G01 X-10.7147 Y36.9553
G01 X-10.7479 Y36.8931
G01 X-10.7684 Y36.8256
G01 X-10.7766 Y36.7418
G01 X-10.7766 Y35.0691
G01 X-10.7684 Y34.9853
G01 X-10.7479 Y34.9178
G01 X-10.7147 Y34.8556
G01 X-10.6700 Y34.8011
G01 X-10.6155 Y34.7564
G01 X-10.5533 Y34.7231
G01 X-10.5033 Y34.7079
G01 X-10.4847 Y34.7013
G01 X-10.4778 Y34.6984
G01 X-10.4599 Y34.6900
G01 X-10.4396 Y34.6782
G01 X-10.4273 Y34.6701
G01 X-10.4087 Y34.6557
G01 X-10.3913 Y34.6398
G01 X-10.3731 Y34.6197
G01 X-10.3569 Y34.5979
G01 X-10.3447 Y34.5778
G01 X-10.3412 Y34.5713
G01 X-10.3327 Y34.5533
G01 X-10.3244 Y34.5313
G01 X-10.3211 Y34.5208
G01 X-10.3171 Y34.5052
G01 X-10.3143 Y34.4907
G01 X-10.3112 Y34.4674
G01 X-10.3102 Y34.4476
G01 X-10.3102 Y34.4402
G01 X-10.3112 Y34.4204
G01 X-10.3124 Y34.4095
G01 X-10.3155 Y34.3899
G01 X-10.3211 Y34.3670
G01 X-10.3244 Y34.3565
G01 X-10.3313 Y34.3379
G01 X-10.3396 Y34.3199
G01 X-10.3447 Y34.3101
G01 X-10.3549 Y34.2931
G01 X-10.3611 Y34.2840
G01 X-10.3731 Y34.2682
G01 X-10.3863 Y34.2533
G01 X-10.5039 Y34.1355
G01 X-10.6361 Y33.9376
G01 X-10.7272 Y33.7178
G01 X-10.7736 Y33.4844
G01 X-10.7736 Y33.2465
G01 X-10.7272 Y33.0131
G01 X-10.6361 Y32.7933
G01 X-10.5039 Y32.5954
G01 X-10.3357 Y32.4272
G01 X-10.1779 Y32.3216
G01 X-10.1621 Y32.3096
G01 X-10.1473 Y32.2964
G01 X-10.1394 Y32.2887
G01 X-10.1237 Y32.2712
G01 X-10.1075 Y32.2494
G01 X-10.0972 Y32.2325
G01 X-10.0902 Y32.2195
G01 X-10.0805 Y32.1980
G01 X-10.0727 Y32.1759
G01 X-10.0661 Y32.1495
G01 X-10.0622 Y32.1226
G01 X-10.0610 Y32.1028
G01 X-10.0609 Y32.0918
G01 X-10.0616 Y32.0756
G01 X-10.0631 Y32.0610
G01 X-10.0669 Y32.0378
G01 X-10.0717 Y32.0185
G01 X-10.0739 Y32.0115
G01 X-10.0819 Y31.9894
G01 X-10.0935 Y31.9648
G01 X-10.1075 Y31.9415
G01 X-10.1237 Y31.9197
G01 X-10.1394 Y31.9022
G01 X-10.1473 Y31.8944
G01 X-10.1621 Y31.8813
G01 X-10.1779 Y31.8693
G01 X-10.3357 Y31.7637
G01 X-10.5039 Y31.5955
G01 X-10.6361 Y31.3976
G01 X-10.7272 Y31.1778
G01 X-10.7736 Y30.9444
G01 X-10.7736 Y30.7065
G01 X-10.7272 Y30.4731
G01 X-10.6361 Y30.2533
G01 X-10.5039 Y30.0554
G01 X-10.3357 Y29.8872
G01 X-10.1779 Y29.7816
G01 X-10.1621 Y29.7696
G01 X-10.1473 Y29.7564
G01 X-10.1394 Y29.7487
G01 X-10.1261 Y29.7340
G01 X-10.1192 Y29.7254
G01 X-10.1055 Y29.7063
G01 X-10.0935 Y29.6860
G01 X-10.0834 Y29.6649
G01 X-10.0751 Y29.6429
G01 X-10.0717 Y29.6323
G01 X-10.0661 Y29.6095
G01 X-10.0626 Y29.5863
G01 X-10.0618 Y29.5789
G01 X-10.0609 Y29.5591
G01 X-10.0609 Y29.5518
G01 X-10.0618 Y29.5320
G01 X-10.0626 Y29.5246
G01 X-10.0655 Y29.5050
G01 X-10.0669 Y29.4978
G01 X-10.0717 Y29.4785
G01 X-10.0739 Y29.4715
G01 X-10.0805 Y29.4528
G01 X-10.0834 Y29.4460
G01 X-10.0918 Y29.4281
G01 X-10.0953 Y29.4216
G01 X-10.1055 Y29.4046
G01 X-10.1096 Y29.3985
G01 X-10.1214 Y29.3825
G01 X-10.1285 Y29.3741
G01 X-10.1446 Y29.3570
G01 X-10.1621 Y29.3413
G01 X-10.1779 Y29.3293
G01 X-10.3357 Y29.2237
G01 X-10.5039 Y29.0555
G01 X-10.6361 Y28.8576
G01 X-10.7272 Y28.6378
G01 X-10.7736 Y28.4044
G01 X-10.7736 Y28.1665
G01 X-10.7272 Y27.9331
G01 X-10.6361 Y27.7133
G01 X-10.5039 Y27.5154
G01 X-10.3357 Y27.3472
G01 X-10.1378 Y27.2150
G01 X-9.9180 Y27.1239
G01 X-9.6846 Y27.0775
G01 X-9.4467 Y27.0775
G01 X-9.2133 Y27.1239
G01 X-8.9935 Y27.2150
G01 X-8.7956 Y27.3472
G01 X-8.6274 Y27.5154
G01 X-8.5679 Y27.6044
G01 X-8.5540 Y27.6233
G01 X-8.5469 Y27.6318
G01 X-8.5335 Y27.6464
G01 X-8.5189 Y27.6598
G01 X-8.5105 Y27.6669
G01 X-8.4915 Y27.6808
G01 X-8.4682 Y27.6948
G01 X-8.4436 Y27.7064
G01 X-8.4250 Y27.7133
G01 X-8.4109 Y27.7175
G01 X-8.3880 Y27.7229
G01 X-8.3647 Y27.7262
G01 X-8.3376 Y27.7275
G01 X25.0289 Y27.7275
G01 X25.0524 Y27.7265
G01 X25.0700 Y27.7248
G01 X25.1793 Y27.7356
G01 X25.2845 Y27.7675
G01 X25.3814 Y27.8193
G01 X25.4664 Y27.8890
G01 X25.4776 Y27.9026
G01 X25.4935 Y27.9199
G01 X26.8807 Y29.3072
G01 X26.9009 Y29.3254
G01 X26.9227 Y29.3416
G01 X26.9396 Y29.3520
G01 X26.9493 Y29.3573
G01 X26.9672 Y29.3658
G01 X26.9775 Y29.3699
G01 X26.9962 Y29.3764
G01 X27.0154 Y29.3814
G01 X27.0262 Y29.3837
G01 X27.0458 Y29.3866
G01 X27.0568 Y29.3875
G01 X27.0767 Y29.3883
G01 X27.1038 Y29.3870
G01 X27.1271 Y29.3837
G01 X27.1695 Y29.3753
G01 X27.3901 Y29.3753
G01 X27.6064 Y29.4183
G01 X27.8102 Y29.5028
G01 X27.9937 Y29.6253
G01 X28.1497 Y29.7813
G01 X28.1656 Y29.8027
G01 X28.1838 Y29.8229
G01 X28.1984 Y29.8363
G01 X28.2069 Y29.8434
G01 X28.2228 Y29.8553
G01 X28.2321 Y29.8613
G01 X28.2492 Y29.8713
G01 X28.2737 Y29.8829
G01 X28.2993 Y29.8921
G01 X28.3185 Y29.8971
G01 X28.3330 Y29.9000
G01 X28.3563 Y29.9030
G01 X28.3798 Y29.9040
G01 X28.4032 Y29.9030
G01 X28.4142 Y29.9018
G01 X28.4374 Y29.8980
G01 X28.4602 Y29.8921
G01 X28.4789 Y29.8856
G01 X28.4892 Y29.8815
G01 X28.5104 Y29.8713
G01 X28.5306 Y29.8594
G01 X28.5397 Y29.8531
G01 X28.5555 Y29.8411
G01 X28.5757 Y29.8229
G01 X28.5939 Y29.8027
G01 X28.6098 Y29.7813
G01 X28.7658 Y29.6253
G01 X28.9493 Y29.5028
G01 X29.1531 Y29.4183
G01 X29.3695 Y29.3753
G01 X29.4167 Y29.3753
G01 X29.4402 Y29.3740
G01 X29.4671 Y29.3700
G01 X29.4935 Y29.3634
G01 X29.5191 Y29.3542
G01 X29.5371 Y29.3459
G01 X29.5469 Y29.3408
G01 X29.5639 Y29.3306
G01 X29.5700 Y29.3265
G01 X29.5859 Y29.3147
G01 X29.5944 Y29.3076
G01 X29.6090 Y29.2942
G01 X34.8261 Y24.0770
G01 X34.8420 Y24.0597
G01 X34.8594 Y24.0385
G01 X34.9748 Y23.9438
G01 X35.1065 Y23.8734
G01 X35.2494 Y23.8301
G01 X35.3980 Y23.8154
G01 X35.4253 Y23.8181
G01 X35.4488 Y23.8191
G01 X35.9662 Y23.8191
G01 X35.9934 Y23.8178
G01 X36.0130 Y23.8150
G01 X36.0239 Y23.8130
G01 X36.0466 Y23.8072
G01 X36.0722 Y23.7980
G01 X36.0968 Y23.7864
G01 X36.1201 Y23.7724
G01 X36.1420 Y23.7562
G01 X36.1621 Y23.7380
G01 X36.1780 Y23.7206
G01 X36.1998 Y23.6941
G01 X36.2913 Y23.6191
G01 X36.3956 Y23.5633
G01 X36.5088 Y23.5290
G01 X36.6401 Y23.5160
G01 X37.1004 Y23.5160
G01 X37.2317 Y23.5290
G01 X37.3449 Y23.5633
G01 X37.4493 Y23.6191
G01 X37.5407 Y23.6941
G01 X37.5960 Y23.7614
G01 X37.6093 Y23.7761
G01 X37.6172 Y23.7838
G01 X37.6320 Y23.7970
G01 X37.6478 Y23.8089
G01 X37.6569 Y23.8152
G01 X37.6772 Y23.8271
G01 X37.7017 Y23.8388
G01 X37.7203 Y23.8456
G01 X37.7309 Y23.8490
G01 X37.7537 Y23.8545
G01 X37.7806 Y23.8585
G01 X37.8004 Y23.8597
G01 X37.8114 Y23.8598
G01 X37.8349 Y23.8585
G01 X37.8582 Y23.8552
G01 X37.8690 Y23.8529
G01 X37.8882 Y23.8479
G01 X37.9069 Y23.8414
G01 X37.9172 Y23.8373
G01 X37.9384 Y23.8271
G01 X37.9555 Y23.8171
G01 X37.9647 Y23.8111
G01 X37.9807 Y23.7993
G01 X37.9863 Y23.7946
G01 X38.0010 Y23.7813
G01 X38.0062 Y23.7761
G01 X38.0219 Y23.7586
G01 X38.0748 Y23.6941
G01 X38.1663 Y23.6191
G01 X38.2706 Y23.5633
G01 X38.3838 Y23.5290
G01 X38.5151 Y23.5160
G01 X38.9754 Y23.5160
G01 X39.1067 Y23.5290
G01 X39.2199 Y23.5633
G01 X39.3243 Y23.6191
G01 X39.4157 Y23.6941
G01 X39.4907 Y23.7855
G01 X39.5373 Y23.8726
G01 X39.5493 Y23.8929
G01 X39.5555 Y23.9020
G01 X39.5675 Y23.9178
G01 X39.5806 Y23.9326
G01 X39.5884 Y23.9405
G01 X39.6059 Y23.9562
G01 X39.6277 Y23.9724
G01 X39.6510 Y23.9864
G01 X39.6689 Y23.9950
G01 X39.6825 Y24.0007
G01 X39.7047 Y24.0082
G01 X39.7276 Y24.0138
G01 X39.7508 Y24.0174
G01 X39.7618 Y24.0183
G01 X39.7816 Y24.0191
G01 X43.0419 Y24.0191
G01 X43.0691 Y24.0178
G01 X43.0960 Y24.0138
G01 X43.1223 Y24.0072
G01 X43.1479 Y23.9980
G01 X43.1725 Y23.9864
G01 X43.1958 Y23.9724
G01 X43.2177 Y23.9562
G01 X43.2378 Y23.9380
G01 X43.2561 Y23.9178
G01 X43.2702 Y23.8990
G01 X43.2762 Y23.8897
G01 X43.2862 Y23.8726
G01 X43.2964 Y23.8515
G01 X43.2992 Y23.8446
G01 X43.3059 Y23.8260
G01 X43.3385 Y23.7187
G01 X43.3948 Y23.6133
G01 X43.4707 Y23.5209
G01 X43.5630 Y23.4451
G01 X43.6685 Y23.3888
G01 X43.7675 Y23.3587
G01 X43.7896 Y23.3506
G01 X43.8109 Y23.3407
G01 X43.8174 Y23.3372
G01 X43.8344 Y23.3270
G01 X43.8406 Y23.3229
G01 X43.8565 Y23.3111
G01 X43.8622 Y23.3065
G01 X43.8769 Y23.2931
G01 X43.8930 Y23.2760
G01 X43.9001 Y23.2675
G01 X43.9119 Y23.2516
G01 X43.9179 Y23.2424
G01 X43.9280 Y23.2253
G01 X43.9366 Y23.2074
G01 X43.9409 Y23.1973
G01 X43.9476 Y23.1786
G01 X43.9507 Y23.1680
G01 X43.9553 Y23.1487
G01 X43.9584 Y23.1291
G01 X43.9597 Y23.1181
G01 X43.9606 Y23.0983
G01 X43.9605 Y23.0873
G01 X43.9593 Y23.0675
G01 X43.9566 Y23.0479
G01 X43.9546 Y23.0370
G01 X43.9487 Y23.0142
G01 X43.9422 Y22.9955
G01 X43.9381 Y22.9852
G01 X43.9280 Y22.9640
G01 X43.9140 Y22.9407
G01 X43.9023 Y22.9247
G01 X43.8954 Y22.9161
G01 X43.8795 Y22.8987
G01 X41.5460 Y20.5652
G01 X41.5259 Y20.5470
G01 X41.5040 Y20.5308
G01 X41.4871 Y20.5204
G01 X41.4774 Y20.5151
G01 X41.4595 Y20.5066
G01 X41.4493 Y20.5025
G01 X41.4305 Y20.4960
G01 X41.4113 Y20.4910
G01 X41.4005 Y20.4887
G01 X41.3809 Y20.4858
G01 X41.3699 Y20.4849
G01 X41.3501 Y20.4841
G01 X41.0597 Y20.4841
G01 X41.0362 Y20.4851
G01 X41.0187 Y20.4868
G01 X40.9093 Y20.4760
G01 X40.8041 Y20.4441
G01 X40.7072 Y20.3923
G01 X40.6222 Y20.3226
G01 X40.6110 Y20.3090
G01 X40.5951 Y20.2917
G01 X40.2405 Y19.9371
G01 X40.2232 Y19.9212
G01 X40.2096 Y19.9100
G01 X40.1893 Y19.8853
G01 X40.1760 Y19.8706
G01 X40.1681 Y19.8629
G01 X40.1533 Y19.8497
G01 X40.1375 Y19.8378
G01 X40.1284 Y19.8315
G01 X40.1114 Y19.8213
G01 X40.1016 Y19.8163
G01 X40.0836 Y19.8079
G01 X40.0650 Y19.8011
G01 X40.0544 Y19.7978
G01 X40.0316 Y19.7922
G01 X40.0120 Y19.7891
G01 X40.0010 Y19.7879
G01 X39.9812 Y19.7869
G01 X39.0594 Y19.7868
G01 X38.9756 Y19.7786
G01 X38.9081 Y19.7581
G01 X38.8459 Y19.7249
G01 X38.8362 Y19.7171
G01 X38.8202 Y19.7055
G01 X38.8033 Y19.6951
G01 X38.7936 Y19.6898
G01 X38.7757 Y19.6813
G01 X38.7654 Y19.6772
G01 X38.7467 Y19.6707
G01 X38.7275 Y19.6657
G01 X38.7167 Y19.6634
G01 X38.6971 Y19.6605
G01 X38.6897 Y19.6598
G01 X38.6699 Y19.6588
G01 X38.5828 Y19.6588
G01 X38.5630 Y19.6598
G01 X38.5455 Y19.6615
G01 X38.4361 Y19.6507
G01 X38.3309 Y19.6188
G01 X38.2340 Y19.5670
G01 X38.1490 Y19.4973
G01 X38.1378 Y19.4837
G01 X38.1219 Y19.4664
G01 X37.1318 Y18.4763
G01 X37.1173 Y18.4628
G01 X37.1059 Y18.4535
G01 X37.0868 Y18.4398
G01 X37.0665 Y18.4278
G01 X37.0420 Y18.4162
G01 X37.0164 Y18.4070
G01 X36.9972 Y18.4021
G01 X36.9827 Y18.3992
G01 X36.9594 Y18.3961
G01 X36.9359 Y18.3951
G01 X36.9088 Y18.3965
G01 X36.8819 Y18.4004
G01 X36.8626 Y18.4051
G01 X36.8485 Y18.4094
G01 X36.8265 Y18.4177
G01 X36.8053 Y18.4278
G01 X36.7820 Y18.4418
G01 X36.7602 Y18.4580
G01 X36.7427 Y18.4737
G01 X36.7375 Y18.4789
G01 X36.7241 Y18.4936
G01 X36.7098 Y18.5122
G01 X36.7016 Y18.5245
G01 X36.6899 Y18.5448
G01 X36.6800 Y18.5662
G01 X36.6708 Y18.5918
G01 X36.6650 Y18.6145
G01 X36.6629 Y18.6254
G01 X36.6602 Y18.6450
G01 X36.6589 Y18.6722
G01 X36.6599 Y18.6957
G01 X36.6611 Y18.7066
G01 X36.6635 Y18.7226
G01 X36.6729 Y18.7698
G01 X36.6729 Y19.4415
G01 X36.5418 Y20.1003
G01 X36.2847 Y20.7209
G01 X35.9116 Y21.2794
G01 X35.4366 Y21.7544
G01 X34.8780 Y22.1276
G01 X34.2574 Y22.3847
G01 X33.5986 Y22.5157
G01 X32.9269 Y22.5157
G01 X32.2681 Y22.3847
G01 X31.6475 Y22.1276
G01 X31.0890 Y21.7544
G01 X30.6140 Y21.2794
G01 X30.2408 Y20.7209
G01 X29.9837 Y20.1003
G01 X29.8527 Y19.4415
G01 X29.8527 Y18.7698
G01 X29.9837 Y18.1110
G01 X30.2408 Y17.4904
G01 X30.6140 Y16.9318
G01 X30.9045 Y16.6413
G01 X30.9204 Y16.6239
G01 X30.9273 Y16.6153
G01 X30.9390 Y16.5993
G01 X30.9530 Y16.5759
G01 X30.9616 Y16.5581
G01 X30.9660 Y16.5479
G01 X30.9727 Y16.5293
G01 X30.9757 Y16.5187
G01 X30.9804 Y16.4994
G01 X30.9835 Y16.4798
G01 X30.9847 Y16.4688
G01 X30.9856 Y16.4490
G01 X30.9855 Y16.4380
G01 X30.9844 Y16.4182
G01 X30.9804 Y16.3913
G01 X30.9738 Y16.3649
G01 X30.9673 Y16.3462
G01 X30.9632 Y16.3359
G01 X30.9547 Y16.3180
G01 X30.9493 Y16.3083
G01 X30.9390 Y16.2914
G01 X30.9273 Y16.2754
G01 X30.9204 Y16.2668
G01 X30.9071 Y16.2521
G01 X30.8992 Y16.2443
G01 X30.8844 Y16.2312
G01 X30.8626 Y16.2150
G01 X30.8456 Y16.2046
G01 X30.8360 Y16.1993
G01 X30.8180 Y16.1908
G01 X30.8078 Y16.1867
G01 X30.7891 Y16.1802
G01 X30.7699 Y16.1752
G01 X30.7591 Y16.1729
G01 X30.7394 Y16.1700
G01 X30.7321 Y16.1693
G01 X30.7123 Y16.1683
G01 X19.8169 Y16.1683
G01 X19.7897 Y16.1696
G01 X19.7628 Y16.1736
G01 X19.7365 Y16.1802
G01 X19.7177 Y16.1867
G01 X19.7075 Y16.1908
G01 X19.6863 Y16.2010
G01 X19.6630 Y16.2150
G01 X19.6411 Y16.2312
G01 X19.6210 Y16.2494
G01 X19.6027 Y16.2696
G01 X19.5865 Y16.2914
G01 X19.5725 Y16.3147
G01 X19.5609 Y16.3393
G01 X19.5518 Y16.3649
G01 X19.5452 Y16.3913
G01 X19.5412 Y16.4182
G01 X19.5398 Y16.4453
G01 X19.5412 Y16.4725
G01 X19.5452 Y16.4994
G01 X19.5518 Y16.5258
G01 X19.5596 Y16.5479
G01 X19.5624 Y16.5548
G01 X19.5708 Y16.5727
G01 X19.5743 Y16.5792
G01 X19.5845 Y16.5962
G01 X19.5886 Y16.6023
G01 X19.6004 Y16.6182
G01 X19.6159 Y16.6359
G01 X19.9116 Y16.9318
G01 X20.2847 Y17.4904
G01 X20.5418 Y18.1110
G01 X20.6729 Y18.7698
G01 X20.6729 Y19.4415
G01 X20.5418 Y20.1003
G01 X20.2847 Y20.7209
G01 X19.9116 Y21.2794
G01 X19.4366 Y21.7544
G01 X18.8780 Y22.1276
G01 X18.2574 Y22.3847
G01 X17.5986 Y22.5157
G01 X16.9269 Y22.5157
G01 X16.2681 Y22.3847
G01 X15.6475 Y22.1276
G01 X15.0890 Y21.7544
G01 X14.6140 Y21.2794
G01 X14.2408 Y20.7209
G01 X13.9837 Y20.1003
G01 X13.8527 Y19.4415
G01 X13.8527 Y18.7698
G01 X13.9837 Y18.1110
G01 X14.2408 Y17.4904
G01 X14.6140 Y16.9318
G01 X14.9071 Y16.6386
G01 X14.9228 Y16.6211
G01 X14.9369 Y16.6023
G01 X14.9493 Y16.5824
G01 X14.9547 Y16.5727
G01 X14.9646 Y16.5514
G01 X14.9715 Y16.5328
G01 X14.9748 Y16.5222
G01 X14.9804 Y16.4994
G01 X14.9844 Y16.4725
G01 X14.9855 Y16.4527
G01 X14.9856 Y16.4417
G01 X14.9844 Y16.4182
G01 X14.9810 Y16.3949
G01 X14.9788 Y16.3841
G01 X14.9738 Y16.3649
G01 X14.9646 Y16.3393
G01 X14.9530 Y16.3147
G01 X14.9429 Y16.2976
G01 X14.9369 Y16.2884
G01 X14.9228 Y16.2696
G01 X14.9045 Y16.2494
G01 X14.8844 Y16.2312
G01 X14.8626 Y16.2150
G01 X14.8392 Y16.2010
G01 X14.8147 Y16.1894
G01 X14.7891 Y16.1802
G01 X14.7627 Y16.1736
G01 X14.7431 Y16.1705
G01 X14.7321 Y16.1693
G01 X14.7086 Y16.1683
G01 X12.6799 Y16.1683
G01 X12.6564 Y16.1693
G01 X12.6389 Y16.1710
G01 X12.5295 Y16.1602
G01 X12.4243 Y16.1283
G01 X12.3274 Y16.0765
G01 X12.2424 Y16.0068
G01 X12.2312 Y15.9932
G01 X12.2153 Y15.9759
G01 X6.5158 Y10.2763
G01 X6.4957 Y10.2581
G01 X6.4738 Y10.2419
G01 X6.4505 Y10.2279
G01 X6.4259 Y10.2163
G01 X6.4003 Y10.2071
G01 X6.3739 Y10.2005
G01 X6.3471 Y10.1965
G01 X6.3199 Y10.1952
G01 X6.3001 Y10.1960
G01 X6.2891 Y10.1969
G01 X6.2695 Y10.1998
G01 X6.2587 Y10.2021
G01 X6.2395 Y10.2071
G01 X6.2207 Y10.2136
G01 X6.2105 Y10.2177
G01 X6.1926 Y10.2262
G01 X6.1829 Y10.2315
G01 X6.1660 Y10.2419
G01 X6.1441 Y10.2581
G01 X6.1293 Y10.2713
G01 X6.1214 Y10.2790
G01 X6.1081 Y10.2937
G01 X6.1012 Y10.3023
G01 X6.0895 Y10.3183
G01 X6.0792 Y10.3352
G01 X6.0739 Y10.3449
G01 X6.0639 Y10.3662
G01 X6.0559 Y10.3883
G01 X6.0528 Y10.3989
G01 X6.0489 Y10.4146
G01 X6.0397 Y10.4609
G01 X5.9552 Y10.6647
G01 X5.8327 Y10.8482
G01 X5.6767 Y11.0042
G01 X5.6553 Y11.0201
G01 X5.6351 Y11.0383
G01 X5.6169 Y11.0585
G01 X5.6049 Y11.0743
G01 X5.5986 Y11.0834
G01 X5.5867 Y11.1036
G01 X5.5765 Y11.1248
G01 X5.5724 Y11.1351
G01 X5.5659 Y11.1538
G01 X5.5600 Y11.1766
G01 X5.5562 Y11.1998
G01 X5.5548 Y11.2144
G01 X5.5540 Y11.2342
G01 X5.5553 Y11.2614
G01 X5.5593 Y11.2883
G01 X5.5649 Y11.3111
G01 X5.5724 Y11.3334
G01 X5.5780 Y11.3470
G01 X5.5867 Y11.3648
G01 X5.6007 Y11.3882
G01 X5.6169 Y11.4100
G01 X5.6351 Y11.4302
G01 X5.6553 Y11.4484
G01 X5.6767 Y11.4643
G01 X5.8327 Y11.6203
G01 X5.9552 Y11.8038
G01 X6.0397 Y12.0076
G01 X6.0827 Y12.2239
G01 X6.0827 Y12.4445
G01 X6.0397 Y12.6609
G01 X5.9552 Y12.8647
G01 X5.8327 Y13.0482
G01 X5.6767 Y13.2042
G01 X5.6553 Y13.2201
G01 X5.6351 Y13.2383
G01 X5.6169 Y13.2585
G01 X5.6027 Y13.2773
G01 X5.5967 Y13.2865
G01 X5.5850 Y13.3069
G01 X5.5751 Y13.3282
G01 X5.5670 Y13.3503
G01 X5.5639 Y13.3609
G01 X5.5586 Y13.3838
G01 X5.5553 Y13.4071
G01 X5.5540 Y13.4306
G01 X5.5548 Y13.4541
G01 X5.5562 Y13.4687
G01 X5.5593 Y13.4883
G01 X5.5659 Y13.5147
G01 X5.5751 Y13.5403
G01 X5.5834 Y13.5583
G01 X5.5903 Y13.5713
G01 X5.6027 Y13.5912
G01 X5.6169 Y13.6100
G01 X5.6351 Y13.6302
G01 X5.6553 Y13.6484
G01 X5.6767 Y13.6643
G01 X5.8327 Y13.8203
G01 X5.9552 Y14.0038
G01 X6.0397 Y14.2076
G01 X6.0827 Y14.4239
G01 X6.0827 Y14.6445
G01 X6.0397 Y14.8609
G01 X5.9552 Y15.0647
G01 X5.8327 Y15.2482
G01 X5.6767 Y15.4042
G01 X5.6553 Y15.4201
G01 X5.6351 Y15.4383
G01 X5.6169 Y15.4585
G01 X5.6027 Y15.4773
G01 X5.5967 Y15.4865
G01 X5.5850 Y15.5069
G01 X5.5751 Y15.5282
G01 X5.5670 Y15.5503
G01 X5.5639 Y15.5609
G01 X5.5586 Y15.5838
G01 X5.5553 Y15.6071
G01 X5.5541 Y15.6269
G01 X5.5541 Y15.6416
G01 X5.5557 Y15.6651
G01 X5.5593 Y15.6883
G01 X5.5649 Y15.7111
G01 X5.5724 Y15.7334
G01 X5.5765 Y15.7437
G01 X5.5867 Y15.7648
G01 X5.5986 Y15.7851
G01 X5.6049 Y15.7942
G01 X5.6169 Y15.8100
G01 X5.6351 Y15.8302
G01 X5.6553 Y15.8484
G01 X5.6767 Y15.8643
G01 X5.8327 Y16.0203
G01 X5.9552 Y16.2038
G01 X6.0397 Y16.4076
G01 X6.0827 Y16.6239
G01 X6.0827 Y16.8445
G01 X6.0397 Y17.0609
G01 X5.9552 Y17.2647
G01 X5.8327 Y17.4482
G01 X5.6767 Y17.6042
G01 X5.4932 Y17.7267
G01 X5.2894 Y17.8111
G01 X5.0731 Y17.8542
G01 X4.8525 Y17.8542
G01 X4.8101 Y17.8458
G01 X4.7868 Y17.8425
G01 X4.7597 Y17.8411
G01 X4.7325 Y17.8425
G01 X4.7092 Y17.8458
G01 X4.6984 Y17.8481
G01 X4.6792 Y17.8531
G01 X4.6536 Y17.8622
G01 X4.6291 Y17.8739
G01 X4.6120 Y17.8839
G01 X4.5997 Y17.8921
G01 X4.5811 Y17.9064
G01 X4.5637 Y17.9223
G01 X0.8455 Y21.6405
G01 X0.8296 Y21.6579
G01 X0.8184 Y21.6715
G01 X0.7334 Y21.7412
G01 X0.6365 Y21.7930
G01 X0.5313 Y21.8249
G01 X0.4220 Y21.8357
G01 X0.4044 Y21.8340
G01 X0.3809 Y21.8330
G01 X-8.2300 Y21.8330
G01 X-8.2535 Y21.8340
G01 X-8.2608 Y21.8347
G01 X-8.2804 Y21.8376
G01 X-8.2876 Y21.8391
G01 X-8.3069 Y21.8439
G01 X-8.3139 Y21.8460
G01 X-8.3326 Y21.8527
G01 X-8.3394 Y21.8555
G01 X-8.3573 Y21.8640
G01 X-8.3638 Y21.8675
G01 X-8.3808 Y21.8777
G01 X-8.3869 Y21.8818
G01 X-8.4029 Y21.8936
G01 X-8.4086 Y21.8982
G01 X-8.4232 Y21.9116
G01 X-8.4285 Y21.9168
G01 X-8.4418 Y21.9315
G01 X-8.4464 Y21.9371
G01 X-8.4583 Y21.9531
G01 X-8.4623 Y21.9592
G01 X-8.4725 Y21.9762
G01 X-8.4760 Y21.9827
G01 X-8.4845 Y22.0006
G01 X-8.4873 Y22.0074
G01 X-8.4940 Y22.0261
G01 X-8.4961 Y22.0331
G01 X-8.5009 Y22.0524
G01 X-8.5024 Y22.0596
G01 X-8.5053 Y22.0792
G01 X-8.5062 Y22.0902
G01 X-8.5070 Y22.1114
G01 X-8.5153 Y22.1952
G01 X-8.5357 Y22.2627
G01 X-8.5690 Y22.3249
G01 X-8.6137 Y22.3794
G01 X-8.6682 Y22.4241
G01 X-8.7304 Y22.4573
G01 X-8.7979 Y22.4778
G01 X-8.8817 Y22.4860
G01 X-10.5544 Y22.4860
G01 X-10.6382 Y22.4778
G01 X-10.7057 Y22.4573
G01 X-10.7679 Y22.4241
G01 X-10.8224 Y22.3794
G01 X-10.8671 Y22.3249
G01 X-10.9003 Y22.2627
G01 X-10.9208 Y22.1952
G01 X-10.9290 Y22.1114
G01 X-10.9290 Y20.4387
G01 X-10.9208 Y20.3549
G01 X-10.9003 Y20.2874
G01 X-10.8671 Y20.2252
G01 X-10.8224 Y20.1707
G01 X-10.7679 Y20.1260
G01 X-10.7057 Y20.0927
G01 X-10.6592 Y20.0787
G01 X-10.6405 Y20.0721
G01 X-10.6302 Y20.0680
G01 X-10.6091 Y20.0579
G01 X-10.5857 Y20.0439
G01 X-10.5668 Y20.0300
G01 X-10.5491 Y20.0145
G01 X-10.5387 Y20.0041
G01 X-10.5232 Y19.9864
G01 X-10.5114 Y19.9705
G01 X-10.5054 Y19.9612
G01 X-10.4953 Y19.9441
G01 X-10.4867 Y19.9263
G01 X-10.4823 Y19.9161
G01 X-10.4768 Y19.9009
G01 X-10.4735 Y19.8904
G01 X-10.4687 Y19.8712
G01 X-10.4672 Y19.8640
G01 X-10.4643 Y19.8443
G01 X-10.4636 Y19.8370
G01 X-10.4626 Y19.8172
G01 X-10.4626 Y19.8098
G01 X-10.4636 Y19.7900
