(G-CODE GENERATED BY FLATCAM v8.994 - www.flatcam.org - Version Date: 2020/11/7)

(Name: test-Edge_Cuts.gbr_cutout_cnc)
(Type: G-code from Geometry)
(Units: MM)

(Created on mardi, 01 mars 2022 at 19:12)

(This preprocessor is the default preprocessor used by FlatCAM.)
(It is made to work with MACH3 compatible motion controllers.)

(TOOL DIAMETER: 1.5 mm)
(Feedrate_XY: 100.0 mm/min)
(Feedrate_Z: 60.0 mm/min)
(Feedrate rapids 1500.0 mm/min)

(Z_Cut: -1.0 mm)
(DepthPerCut: 0.1 mm <=>10 passes)
(Z_Move: 2.0 mm)
(Z Start: None mm)
(Z End: 10.0 mm)
(X,Y End: None mm)
(Steps per circle: 64)
(Preprocessor Geometry: default)

(X range:   -0.8331 ...  100.9148  mm)
(Y range:   -0.8534 ...    0.8967  mm)

(Spindle Speed: 0.0 RPM)
G21
G90
G94

G01 F100.00

M5
G00 Z15.0000
G00 X0.0000 Y0.0000
T1
M6    
(MSG, Change to Tool Dia = 1.5000)
M0
G00 Z15.0000

M03
G01 F100.00
G00 X100.0408 Y0.8967
G01 F60.00
G01 Z-0.1000
G01 F100.00
G01 X100.0850 Y0.8955
G01 X100.1680 Y0.8873
G01 X100.2523 Y0.8707
G01 X100.3345 Y0.8459
G01 X100.4138 Y0.8131
G01 X100.4896 Y0.7728
G01 X100.5611 Y0.7252
G01 X100.6275 Y0.6708
G01 X100.6883 Y0.6102
G01 X100.7429 Y0.5439
G01 X100.7907 Y0.4725
G01 X100.8313 Y0.3969
G01 X100.8643 Y0.3176
G01 X100.8893 Y0.2354
G01 X100.9062 Y0.1512
G01 X100.9147 Y0.0658
G01 X100.9148 Y-0.0201
G01 X100.9065 Y-0.1055
G01 X100.8899 Y-0.1898
G01 X100.8651 Y-0.2720
G01 X100.8323 Y-0.3514
G01 X100.7920 Y-0.4271
G01 X100.7444 Y-0.4986
G01 X100.6900 Y-0.5651
G01 X100.6294 Y-0.6259
G01 X100.5631 Y-0.6804
G01 X100.4917 Y-0.7282
G01 X100.4161 Y-0.7688
G01 X100.3368 Y-0.8018
G01 X100.2546 Y-0.8268
G01 X100.1704 Y-0.8437
G01 X100.0850 Y-0.8522
G01 X100.0408 Y-0.8534
G01 X0.0408 Y-0.8534
G01 X-0.0033 Y-0.8522
G01 X-0.0888 Y-0.8437
G01 X-0.1730 Y-0.8268
G01 X-0.2551 Y-0.8018
G01 X-0.3344 Y-0.7688
G01 X-0.4100 Y-0.7282
G01 X-0.4814 Y-0.6804
G01 X-0.5477 Y-0.6259
G01 X-0.6083 Y-0.5651
G01 X-0.6627 Y-0.4986
G01 X-0.7103 Y-0.4271
G01 X-0.7507 Y-0.3514
G01 X-0.7834 Y-0.2720
G01 X-0.8082 Y-0.1898
G01 X-0.8249 Y-0.1055
G01 X-0.8331 Y-0.0201
G01 X-0.8330 Y0.0658
G01 X-0.8245 Y0.1512
G01 X-0.8076 Y0.2354
G01 X-0.7826 Y0.3176
G01 X-0.7496 Y0.3969
G01 X-0.7090 Y0.4725
G01 X-0.6612 Y0.5439
G01 X-0.6067 Y0.6102
G01 X-0.5459 Y0.6708
G01 X-0.4794 Y0.7252
G01 X-0.4079 Y0.7728
G01 X-0.3322 Y0.8131
G01 X-0.2528 Y0.8459
G01 X-0.1706 Y0.8707
G01 X-0.0863 Y0.8873
G01 X-0.0033 Y0.8955
G01 X0.0408 Y0.8967
G01 X100.0408 Y0.8967
G00 X100.0408 Y0.8967
G01 F60.00
G01 Z-0.2000
G01 F100.00
G01 X100.0850 Y0.8955
G01 X100.1680 Y0.8873
G01 X100.2523 Y0.8707
G01 X100.3345 Y0.8459
G01 X100.4138 Y0.8131
G01 X100.4896 Y0.7728
G01 X100.5611 Y0.7252
G01 X100.6275 Y0.6708
G01 X100.6883 Y0.6102
G01 X100.7429 Y0.5439
G01 X100.7907 Y0.4725
G01 X100.8313 Y0.3969
G01 X100.8643 Y0.3176
G01 X100.8893 Y0.2354
G01 X100.9062 Y0.1512
G01 X100.9147 Y0.0658
G01 X100.9148 Y-0.0201
G01 X100.9065 Y-0.1055
G01 X100.8899 Y-0.1898
G01 X100.8651 Y-0.2720
G01 X100.8323 Y-0.3514
G01 X100.7920 Y-0.4271
G01 X100.7444 Y-0.4986
G01 X100.6900 Y-0.5651
G01 X100.6294 Y-0.6259
G01 X100.5631 Y-0.6804
G01 X100.4917 Y-0.7282
G01 X100.4161 Y-0.7688
G01 X100.3368 Y-0.8018
G01 X100.2546 Y-0.8268
G01 X100.1704 Y-0.8437
G01 X100.0850 Y-0.8522
G01 X100.0408 Y-0.8534
G01 X0.0408 Y-0.8534
G01 X-0.0033 Y-0.8522
G01 X-0.0888 Y-0.8437
G01 X-0.1730 Y-0.8268
G01 X-0.2551 Y-0.8018
G01 X-0.3344 Y-0.7688
G01 X-0.4100 Y-0.7282
G01 X-0.4814 Y-0.6804
G01 X-0.5477 Y-0.6259
G01 X-0.6083 Y-0.5651
G01 X-0.6627 Y-0.4986
G01 X-0.7103 Y-0.4271
G01 X-0.7507 Y-0.3514
G01 X-0.7834 Y-0.2720
G01 X-0.8082 Y-0.1898
G01 X-0.8249 Y-0.1055
G01 X-0.8331 Y-0.0201
G01 X-0.8330 Y0.0658
G01 X-0.8245 Y0.1512
G01 X-0.8076 Y0.2354
G01 X-0.7826 Y0.3176
G01 X-0.7496 Y0.3969
G01 X-0.7090 Y0.4725
G01 X-0.6612 Y0.5439
G01 X-0.6067 Y0.6102
G01 X-0.5459 Y0.6708
G01 X-0.4794 Y0.7252
G01 X-0.4079 Y0.7728
G01 X-0.3322 Y0.8131
G01 X-0.2528 Y0.8459
G01 X-0.1706 Y0.8707
G01 X-0.0863 Y0.8873
G01 X-0.0033 Y0.8955
G01 X0.0408 Y0.8967
G01 X100.0408 Y0.8967
G00 X100.0408 Y0.8967
G01 F60.00
G01 Z-0.3000
G01 F100.00
G01 X100.0850 Y0.8955
G01 X100.1680 Y0.8873
G01 X100.2523 Y0.8707
G01 X100.3345 Y0.8459
G01 X100.4138 Y0.8131
G01 X100.4896 Y0.7728
G01 X100.5611 Y0.7252
G01 X100.6275 Y0.6708
G01 X100.6883 Y0.6102
G01 X100.7429 Y0.5439
G01 X100.7907 Y0.4725
G01 X100.8313 Y0.3969
G01 X100.8643 Y0.3176
G01 X100.8893 Y0.2354
G01 X100.9062 Y0.1512
G01 X100.9147 Y0.0658
G01 X100.9148 Y-0.0201
G01 X100.9065 Y-0.1055
G01 X100.8899 Y-0.1898
G01 X100.8651 Y-0.2720
G01 X100.8323 Y-0.3514
G01 X100.7920 Y-0.4271
G01 X100.7444 Y-0.4986
G01 X100.6900 Y-0.5651
G01 X100.6294 Y-0.6259
G01 X100.5631 Y-0.6804
G01 X100.4917 Y-0.7282
G01 X100.4161 Y-0.7688
G01 X100.3368 Y-0.8018
G01 X100.2546 Y-0.8268
G01 X100.1704 Y-0.8437
G01 X100.0850 Y-0.8522
G01 X100.0408 Y-0.8534
G01 X0.0408 Y-0.8534
G01 X-0.0033 Y-0.8522
G01 X-0.0888 Y-0.8437
G01 X-0.1730 Y-0.8268
G01 X-0.2551 Y-0.8018
G01 X-0.3344 Y-0.7688
G01 X-0.4100 Y-0.7282
G01 X-0.4814 Y-0.6804
G01 X-0.5477 Y-0.6259
G01 X-0.6083 Y-0.5651
G01 X-0.6627 Y-0.4986
G01 X-0.7103 Y-0.4271
G01 X-0.7507 Y-0.3514
G01 X-0.7834 Y-0.2720
G01 X-0.8082 Y-0.1898
G01 X-0.8249 Y-0.1055
G01 X-0.8331 Y-0.0201
G01 X-0.8330 Y0.0658
G01 X-0.8245 Y0.1512
G01 X-0.8076 Y0.2354
G01 X-0.7826 Y0.3176
G01 X-0.7496 Y0.3969
G01 X-0.7090 Y0.4725
G01 X-0.6612 Y0.5439
G01 X-0.6067 Y0.6102
G01 X-0.5459 Y0.6708
G01 X-0.4794 Y0.7252
G01 X-0.4079 Y0.7728
G01 X-0.3322 Y0.8131
G01 X-0.2528 Y0.8459
G01 X-0.1706 Y0.8707
G01 X-0.0863 Y0.8873
G01 X-0.0033 Y0.8955
G01 X0.0408 Y0.8967
G01 X100.0408 Y0.8967
G00 X100.0408 Y0.8967
G01 F60.00
G01 Z-0.4000
G01 F100.00
G01 X100.0850 Y0.8955
G01 X100.1680 Y0.8873
G01 X100.2523 Y0.8707
G01 X100.3345 Y0.8459
G01 X100.4138 Y0.8131
G01 X100.4896 Y0.7728
G01 X100.5611 Y0.7252
G01 X100.6275 Y0.6708
G01 X100.6883 Y0.6102
G01 X100.7429 Y0.5439
G01 X100.7907 Y0.4725
G01 X100.8313 Y0.3969
G01 X100.8643 Y0.3176
G01 X100.8893 Y0.2354
G01 X100.9062 Y0.1512
G01 X100.9147 Y0.0658
G01 X100.9148 Y-0.0201
G01 X100.9065 Y-0.1055
G01 X100.8899 Y-0.1898
G01 X100.8651 Y-0.2720
G01 X100.8323 Y-0.3514
G01 X100.7920 Y-0.4271
G01 X100.7444 Y-0.4986
G01 X100.6900 Y-0.5651
G01 X100.6294 Y-0.6259
G01 X100.5631 Y-0.6804
G01 X100.4917 Y-0.7282
G01 X100.4161 Y-0.7688
G01 X100.3368 Y-0.8018
G01 X100.2546 Y-0.8268
G01 X100.1704 Y-0.8437
G01 X100.0850 Y-0.8522
G01 X100.0408 Y-0.8534
G01 X0.0408 Y-0.8534
G01 X-0.0033 Y-0.8522
G01 X-0.0888 Y-0.8437
G01 X-0.1730 Y-0.8268
G01 X-0.2551 Y-0.8018
G01 X-0.3344 Y-0.7688
G01 X-0.4100 Y-0.7282
G01 X-0.4814 Y-0.6804
G01 X-0.5477 Y-0.6259
G01 X-0.6083 Y-0.5651
G01 X-0.6627 Y-0.4986
G01 X-0.7103 Y-0.4271
G01 X-0.7507 Y-0.3514
G01 X-0.7834 Y-0.2720
G01 X-0.8082 Y-0.1898
G01 X-0.8249 Y-0.1055
G01 X-0.8331 Y-0.0201
G01 X-0.8330 Y0.0658
G01 X-0.8245 Y0.1512
G01 X-0.8076 Y0.2354
G01 X-0.7826 Y0.3176
G01 X-0.7496 Y0.3969
G01 X-0.7090 Y0.4725
G01 X-0.6612 Y0.5439
G01 X-0.6067 Y0.6102
G01 X-0.5459 Y0.6708
G01 X-0.4794 Y0.7252
G01 X-0.4079 Y0.7728
G01 X-0.3322 Y0.8131
G01 X-0.2528 Y0.8459
G01 X-0.1706 Y0.8707
G01 X-0.0863 Y0.8873
G01 X-0.0033 Y0.8955
G01 X0.0408 Y0.8967
G01 X100.0408 Y0.8967
G00 X100.0408 Y0.8967
G01 F60.00
G01 Z-0.5000
G01 F100.00
G01 X100.0850 Y0.8955
G01 X100.1680 Y0.8873
G01 X100.2523 Y0.8707
G01 X100.3345 Y0.8459
G01 X100.4138 Y0.8131
G01 X100.4896 Y0.7728
G01 X100.5611 Y0.7252
G01 X100.6275 Y0.6708
G01 X100.6883 Y0.6102
G01 X100.7429 Y0.5439
G01 X100.7907 Y0.4725
G01 X100.8313 Y0.3969
G01 X100.8643 Y0.3176
G01 X100.8893 Y0.2354
G01 X100.9062 Y0.1512
G01 X100.9147 Y0.0658
G01 X100.9148 Y-0.0201
G01 X100.9065 Y-0.1055
G01 X100.8899 Y-0.1898
G01 X100.8651 Y-0.2720
G01 X100.8323 Y-0.3514
G01 X100.7920 Y-0.4271
G01 X100.7444 Y-0.4986
G01 X100.6900 Y-0.5651
G01 X100.6294 Y-0.6259
G01 X100.5631 Y-0.6804
G01 X100.4917 Y-0.7282
G01 X100.4161 Y-0.7688
G01 X100.3368 Y-0.8018
G01 X100.2546 Y-0.8268
G01 X100.1704 Y-0.8437
G01 X100.0850 Y-0.8522
G01 X100.0408 Y-0.8534
G01 X0.0408 Y-0.8534
G01 X-0.0033 Y-0.8522
G01 X-0.0888 Y-0.8437
G01 X-0.1730 Y-0.8268
G01 X-0.2551 Y-0.8018
G01 X-0.3344 Y-0.7688
G01 X-0.4100 Y-0.7282
G01 X-0.4814 Y-0.6804
G01 X-0.5477 Y-0.6259
G01 X-0.6083 Y-0.5651
G01 X-0.6627 Y-0.4986
G01 X-0.7103 Y-0.4271
G01 X-0.7507 Y-0.3514
G01 X-0.7834 Y-0.2720
G01 X-0.8082 Y-0.1898
G01 X-0.8249 Y-0.1055
G01 X-0.8331 Y-0.0201
G01 X-0.8330 Y0.0658
G01 X-0.8245 Y0.1512
G01 X-0.8076 Y0.2354
G01 X-0.7826 Y0.3176
G01 X-0.7496 Y0.3969
G01 X-0.7090 Y0.4725
G01 X-0.6612 Y0.5439
G01 X-0.6067 Y0.6102
G01 X-0.5459 Y0.6708
G01 X-0.4794 Y0.7252
G01 X-0.4079 Y0.7728
G01 X-0.3322 Y0.8131
G01 X-0.2528 Y0.8459
G01 X-0.1706 Y0.8707
G01 X-0.0863 Y0.8873
G01 X-0.0033 Y0.8955
G01 X0.0408 Y0.8967
G01 X100.0408 Y0.8967
G00 X100.0408 Y0.8967
G01 F60.00
G01 Z-0.6000
G01 F100.00
G01 X100.0850 Y0.8955
G01 X100.1680 Y0.8873
G01 X100.2523 Y0.8707
G01 X100.3345 Y0.8459
G01 X100.4138 Y0.8131
G01 X100.4896 Y0.7728
G01 X100.5611 Y0.7252
G01 X100.6275 Y0.6708
G01 X100.6883 Y0.6102
G01 X100.7429 Y0.5439
G01 X100.7907 Y0.4725
G01 X100.8313 Y0.3969
G01 X100.8643 Y0.3176
G01 X100.8893 Y0.2354
G01 X100.9062 Y0.1512
G01 X100.9147 Y0.0658
G01 X100.9148 Y-0.0201
G01 X100.9065 Y-0.1055
G01 X100.8899 Y-0.1898
G01 X100.8651 Y-0.2720
G01 X100.8323 Y-0.3514
G01 X100.7920 Y-0.4271
G01 X100.7444 Y-0.4986
G01 X100.6900 Y-0.5651
G01 X100.6294 Y-0.6259
G01 X100.5631 Y-0.6804
G01 X100.4917 Y-0.7282
G01 X100.4161 Y-0.7688
G01 X100.3368 Y-0.8018
G01 X100.2546 Y-0.8268
G01 X100.1704 Y-0.8437
G01 X100.0850 Y-0.8522
G01 X100.0408 Y-0.8534
G01 X0.0408 Y-0.8534
G01 X-0.0033 Y-0.8522
G01 X-0.0888 Y-0.8437
G01 X-0.1730 Y-0.8268
G01 X-0.2551 Y-0.8018
G01 X-0.3344 Y-0.7688
G01 X-0.4100 Y-0.7282
G01 X-0.4814 Y-0.6804
G01 X-0.5477 Y-0.6259
G01 X-0.6083 Y-0.5651
G01 X-0.6627 Y-0.4986
G01 X-0.7103 Y-0.4271
G01 X-0.7507 Y-0.3514
G01 X-0.7834 Y-0.2720
G01 X-0.8082 Y-0.1898
G01 X-0.8249 Y-0.1055
G01 X-0.8331 Y-0.0201
G01 X-0.8330 Y0.0658
G01 X-0.8245 Y0.1512
G01 X-0.8076 Y0.2354
G01 X-0.7826 Y0.3176
G01 X-0.7496 Y0.3969
G01 X-0.7090 Y0.4725
G01 X-0.6612 Y0.5439
G01 X-0.6067 Y0.6102
G01 X-0.5459 Y0.6708
G01 X-0.4794 Y0.7252
G01 X-0.4079 Y0.7728
G01 X-0.3322 Y0.8131
G01 X-0.2528 Y0.8459
G01 X-0.1706 Y0.8707
G01 X-0.0863 Y0.8873
G01 X-0.0033 Y0.8955
G01 X0.0408 Y0.8967
G01 X100.0408 Y0.8967
G00 X100.0408 Y0.8967
G01 F60.00
G01 Z-0.7000
G01 F100.00
G01 X100.0850 Y0.8955
G01 X100.1680 Y0.8873
G01 X100.2523 Y0.8707
G01 X100.3345 Y0.8459
G01 X100.4138 Y0.8131
G01 X100.4896 Y0.7728
G01 X100.5611 Y0.7252
G01 X100.6275 Y0.6708
G01 X100.6883 Y0.6102
G01 X100.7429 Y0.5439
G01 X100.7907 Y0.4725
G01 X100.8313 Y0.3969
G01 X100.8643 Y0.3176
G01 X100.8893 Y0.2354
G01 X100.9062 Y0.1512
G01 X100.9147 Y0.0658
G01 X100.9148 Y-0.0201
G01 X100.9065 Y-0.1055
G01 X100.8899 Y-0.1898
G01 X100.8651 Y-0.2720
G01 X100.8323 Y-0.3514
G01 X100.7920 Y-0.4271
G01 X100.7444 Y-0.4986
G01 X100.6900 Y-0.5651
G01 X100.6294 Y-0.6259
G01 X100.5631 Y-0.6804
G01 X100.4917 Y-0.7282
G01 X100.4161 Y-0.7688
G01 X100.3368 Y-0.8018
G01 X100.2546 Y-0.8268
G01 X100.1704 Y-0.8437
G01 X100.0850 Y-0.8522
G01 X100.0408 Y-0.8534
G01 X0.0408 Y-0.8534
G01 X-0.0033 Y-0.8522
G01 X-0.0888 Y-0.8437
G01 X-0.1730 Y-0.8268
G01 X-0.2551 Y-0.8018
G01 X-0.3344 Y-0.7688
G01 X-0.4100 Y-0.7282
G01 X-0.4814 Y-0.6804
G01 X-0.5477 Y-0.6259
G01 X-0.6083 Y-0.5651
G01 X-0.6627 Y-0.4986
G01 X-0.7103 Y-0.4271
G01 X-0.7507 Y-0.3514
G01 X-0.7834 Y-0.2720
G01 X-0.8082 Y-0.1898
G01 X-0.8249 Y-0.1055
G01 X-0.8331 Y-0.0201
G01 X-0.8330 Y0.0658
G01 X-0.8245 Y0.1512
G01 X-0.8076 Y0.2354
G01 X-0.7826 Y0.3176
G01 X-0.7496 Y0.3969
G01 X-0.7090 Y0.4725
G01 X-0.6612 Y0.5439
G01 X-0.6067 Y0.6102
G01 X-0.5459 Y0.6708
G01 X-0.4794 Y0.7252
G01 X-0.4079 Y0.7728
G01 X-0.3322 Y0.8131
G01 X-0.2528 Y0.8459
G01 X-0.1706 Y0.8707
G01 X-0.0863 Y0.8873
G01 X-0.0033 Y0.8955
G01 X0.0408 Y0.8967
G01 X100.0408 Y0.8967
G00 X100.0408 Y0.8967
G01 F60.00
G01 Z-0.8000
G01 F100.00
G01 X100.0850 Y0.8955
G01 X100.1680 Y0.8873
G01 X100.2523 Y0.8707
G01 X100.3345 Y0.8459
G01 X100.4138 Y0.8131
G01 X100.4896 Y0.7728
G01 X100.5611 Y0.7252
G01 X100.6275 Y0.6708
G01 X100.6883 Y0.6102
G01 X100.7429 Y0.5439
G01 X100.7907 Y0.4725
G01 X100.8313 Y0.3969
G01 X100.8643 Y0.3176
G01 X100.8893 Y0.2354
G01 X100.9062 Y0.1512
G01 X100.9147 Y0.0658
G01 X100.9148 Y-0.0201
G01 X100.9065 Y-0.1055
G01 X100.8899 Y-0.1898
G01 X100.8651 Y-0.2720
G01 X100.8323 Y-0.3514
G01 X100.7920 Y-0.4271
G01 X100.7444 Y-0.4986
G01 X100.6900 Y-0.5651
G01 X100.6294 Y-0.6259
G01 X100.5631 Y-0.6804
G01 X100.4917 Y-0.7282
G01 X100.4161 Y-0.7688
G01 X100.3368 Y-0.8018
G01 X100.2546 Y-0.8268
G01 X100.1704 Y-0.8437
G01 X100.0850 Y-0.8522
G01 X100.0408 Y-0.8534
G01 X0.0408 Y-0.8534
G01 X-0.0033 Y-0.8522
G01 X-0.0888 Y-0.8437
G01 X-0.1730 Y-0.8268
G01 X-0.2551 Y-0.8018
G01 X-0.3344 Y-0.7688
G01 X-0.4100 Y-0.7282
G01 X-0.4814 Y-0.6804
G01 X-0.5477 Y-0.6259
G01 X-0.6083 Y-0.5651
G01 X-0.6627 Y-0.4986
G01 X-0.7103 Y-0.4271
G01 X-0.7507 Y-0.3514
G01 X-0.7834 Y-0.2720
G01 X-0.8082 Y-0.1898
G01 X-0.8249 Y-0.1055
G01 X-0.8331 Y-0.0201
G01 X-0.8330 Y0.0658
G01 X-0.8245 Y0.1512
G01 X-0.8076 Y0.2354
G01 X-0.7826 Y0.3176
G01 X-0.7496 Y0.3969
G01 X-0.7090 Y0.4725
G01 X-0.6612 Y0.5439
G01 X-0.6067 Y0.6102
G01 X-0.5459 Y0.6708
G01 X-0.4794 Y0.7252
G01 X-0.4079 Y0.7728
G01 X-0.3322 Y0.8131
G01 X-0.2528 Y0.8459
G01 X-0.1706 Y0.8707
G01 X-0.0863 Y0.8873
G01 X-0.0033 Y0.8955
G01 X0.0408 Y0.8967
G01 X100.0408 Y0.8967
G00 X100.0408 Y0.8967
G01 F60.00
G01 Z-0.9000
G01 F100.00
G01 X100.0850 Y0.8955
G01 X100.1680 Y0.8873
G01 X100.2523 Y0.8707
G01 X100.3345 Y0.8459
G01 X100.4138 Y0.8131
G01 X100.4896 Y0.7728
G01 X100.5611 Y0.7252
G01 X100.6275 Y0.6708
G01 X100.6883 Y0.6102
G01 X100.7429 Y0.5439
G01 X100.7907 Y0.4725
G01 X100.8313 Y0.3969
G01 X100.8643 Y0.3176
G01 X100.8893 Y0.2354
G01 X100.9062 Y0.1512
G01 X100.9147 Y0.0658
G01 X100.9148 Y-0.0201
G01 X100.9065 Y-0.1055
G01 X100.8899 Y-0.1898
G01 X100.8651 Y-0.2720
G01 X100.8323 Y-0.3514
G01 X100.7920 Y-0.4271
G01 X100.7444 Y-0.4986
G01 X100.6900 Y-0.5651
G01 X100.6294 Y-0.6259
G01 X100.5631 Y-0.6804
G01 X100.4917 Y-0.7282
G01 X100.4161 Y-0.7688
G01 X100.3368 Y-0.8018
G01 X100.2546 Y-0.8268
G01 X100.1704 Y-0.8437
G01 X100.0850 Y-0.8522
G01 X100.0408 Y-0.8534
G01 X0.0408 Y-0.8534
G01 X-0.0033 Y-0.8522
G01 X-0.0888 Y-0.8437
G01 X-0.1730 Y-0.8268
G01 X-0.2551 Y-0.8018
G01 X-0.3344 Y-0.7688
G01 X-0.4100 Y-0.7282
G01 X-0.4814 Y-0.6804
G01 X-0.5477 Y-0.6259
G01 X-0.6083 Y-0.5651
G01 X-0.6627 Y-0.4986
G01 X-0.7103 Y-0.4271
G01 X-0.7507 Y-0.3514
G01 X-0.7834 Y-0.2720
G01 X-0.8082 Y-0.1898
G01 X-0.8249 Y-0.1055
G01 X-0.8331 Y-0.0201
G01 X-0.8330 Y0.0658
G01 X-0.8245 Y0.1512
G01 X-0.8076 Y0.2354
G01 X-0.7826 Y0.3176
G01 X-0.7496 Y0.3969
G01 X-0.7090 Y0.4725
G01 X-0.6612 Y0.5439
G01 X-0.6067 Y0.6102
G01 X-0.5459 Y0.6708
G01 X-0.4794 Y0.7252
G01 X-0.4079 Y0.7728
G01 X-0.3322 Y0.8131
G01 X-0.2528 Y0.8459
G01 X-0.1706 Y0.8707
G01 X-0.0863 Y0.8873
G01 X-0.0033 Y0.8955
G01 X0.0408 Y0.8967
G01 X100.0408 Y0.8967
G00 X100.0408 Y0.8967
G01 F60.00
G01 Z-1.0000
G01 F100.00
G01 X100.0850 Y0.8955
G01 X100.1680 Y0.8873
G01 X100.2523 Y0.8707
G01 X100.3345 Y0.8459
G01 X100.4138 Y0.8131
G01 X100.4896 Y0.7728
G01 X100.5611 Y0.7252
G01 X100.6275 Y0.6708
G01 X100.6883 Y0.6102
G01 X100.7429 Y0.5439
G01 X100.7907 Y0.4725
G01 X100.8313 Y0.3969
G01 X100.8643 Y0.3176
G01 X100.8893 Y0.2354
G01 X100.9062 Y0.1512
G01 X100.9147 Y0.0658
G01 X100.9148 Y-0.0201
G01 X100.9065 Y-0.1055
G01 X100.8899 Y-0.1898
G01 X100.8651 Y-0.2720
G01 X100.8323 Y-0.3514
G01 X100.7920 Y-0.4271
G01 X100.7444 Y-0.4986
G01 X100.6900 Y-0.5651
G01 X100.6294 Y-0.6259
G01 X100.5631 Y-0.6804
G01 X100.4917 Y-0.7282
G01 X100.4161 Y-0.7688
G01 X100.3368 Y-0.8018
G01 X100.2546 Y-0.8268
G01 X100.1704 Y-0.8437
G01 X100.0850 Y-0.8522
G01 X100.0408 Y-0.8534
G01 X0.0408 Y-0.8534
G01 X-0.0033 Y-0.8522
G01 X-0.0888 Y-0.8437
G01 X-0.1730 Y-0.8268
G01 X-0.2551 Y-0.8018
G01 X-0.3344 Y-0.7688
G01 X-0.4100 Y-0.7282
G01 X-0.4814 Y-0.6804
G01 X-0.5477 Y-0.6259
G01 X-0.6083 Y-0.5651
G01 X-0.6627 Y-0.4986
G01 X-0.7103 Y-0.4271
G01 X-0.7507 Y-0.3514
G01 X-0.7834 Y-0.2720
G01 X-0.8082 Y-0.1898
G01 X-0.8249 Y-0.1055
G01 X-0.8331 Y-0.0201
G01 X-0.8330 Y0.0658
G01 X-0.8245 Y0.1512
G01 X-0.8076 Y0.2354
G01 X-0.7826 Y0.3176
G01 X-0.7496 Y0.3969
G01 X-0.7090 Y0.4725
G01 X-0.6612 Y0.5439
G01 X-0.6067 Y0.6102
G01 X-0.5459 Y0.6708
G01 X-0.4794 Y0.7252
G01 X-0.4079 Y0.7728
G01 X-0.3322 Y0.8131
G01 X-0.2528 Y0.8459
G01 X-0.1706 Y0.8707
G01 X-0.0863 Y0.8873
G01 X-0.0033 Y0.8955
G01 X0.0408 Y0.8967
G01 X100.0408 Y0.8967
G00 Z2.0000
M05
G00 Z2.0000
G00 Z10.00


