(G-CODE GENERATED BY FLATCAM v8.994 - www.flatcam.org - Version Date: 2020/11/7)

(Name: interface_down_left_side_arm-F_Cu.gbr_iso_combined_cnc)
(Type: G-code from Geometry)
(Units: MM)

(Created on jeudi, 26 mai 2022 at 15:55)

(This preprocessor is the default preprocessor used by FlatCAM.)
(It is made to work with MACH3 compatible motion controllers.)

(TOOL DIAMETER: 0.3 mm)
(Feedrate_XY: 120.0 mm/min)
(Feedrate_Z: 60.0 mm/min)
(Feedrate rapids 1500.0 mm/min)

(Z_Cut: -0.08 mm)
(Z_Move: 2.0 mm)
(Z Start: None mm)
(Z End: 15.0 mm)
(X,Y End: None mm)
(Steps per circle: 64)
(Preprocessor Geometry: default)

(X range:    1.8102 ...   44.9802  mm)
(Y range:    0.0423 ...   17.9732  mm)

(Spindle Speed: 1000.0 RPM)
G21
G90
G94

G01 F120.00

M5
G00 Z15.0000
G00 X0.0000 Y0.0000
T1
M6    
(MSG, Change to Tool Dia = 0.3000)
M0
G00 Z15.0000

M03 S1000.0
G01 F120.00
G00 X5.6426 Y3.6251
G01 F60.00
G01 Z-0.0800
G01 F120.00
G01 X5.6502 Y3.7832
G01 X5.6423 Y3.9449
G01 X5.6185 Y4.1051
G01 X5.5792 Y4.2621
G01 X5.5246 Y4.4146
G01 X5.4554 Y4.5610
G01 X5.3721 Y4.6999
G01 X5.2757 Y4.8299
G01 X5.1669 Y4.9499
G01 X5.0469 Y5.0586
G01 X4.9169 Y5.1551
G01 X4.7780 Y5.2383
G01 X4.6316 Y5.3076
G01 X4.4792 Y5.3621
G01 X4.3221 Y5.4015
G01 X4.1619 Y5.4252
G01 X4.0002 Y5.4332
G01 X3.8385 Y5.4252
G01 X3.6783 Y5.4015
G01 X3.5212 Y5.3621
G01 X3.3688 Y5.3076
G01 X3.2224 Y5.2383
G01 X3.0835 Y5.1551
G01 X2.9535 Y5.0586
G01 X2.8335 Y4.9499
G01 X2.7247 Y4.8299
G01 X2.6283 Y4.6999
G01 X2.5450 Y4.5610
G01 X2.4758 Y4.4146
G01 X2.4212 Y4.2621
G01 X2.3819 Y4.1051
G01 X2.3581 Y3.9449
G01 X2.3502 Y3.7832
G01 X2.3581 Y3.6214
G01 X2.3819 Y3.4613
G01 X2.4212 Y3.3042
G01 X2.4758 Y3.1517
G01 X2.5450 Y3.0054
G01 X2.6283 Y2.8665
G01 X2.7247 Y2.7364
G01 X2.8335 Y2.6164
G01 X2.9535 Y2.5077
G01 X3.0835 Y2.4112
G01 X3.2224 Y2.3280
G01 X3.3688 Y2.2588
G01 X3.5212 Y2.2042
G01 X3.6783 Y2.1649
G01 X3.8385 Y2.1411
G01 X4.0002 Y2.1332
G01 X4.1619 Y2.1411
G01 X4.3221 Y2.1649
G01 X4.4792 Y2.2042
G01 X4.6316 Y2.2588
G01 X4.7780 Y2.3280
G01 X4.9169 Y2.4112
G01 X5.0469 Y2.5077
G01 X5.1669 Y2.6164
G01 X5.2757 Y2.7364
G01 X5.3721 Y2.8665
G01 X5.4554 Y3.0054
G01 X5.5246 Y3.1517
G01 X5.5792 Y3.3042
G01 X5.6185 Y3.4613
G01 X5.6414 Y3.6141
G01 X5.6426 Y3.6251
G00 Z2.0000
G00 X5.9118 Y3.6052
G01 F60.00
G01 Z-0.0800
G01 F120.00
G01 X5.9197 Y3.7626
G01 X5.9202 Y3.7832
G01 X5.9197 Y3.8038
G01 X5.9125 Y3.9508
G01 X5.9110 Y3.9714
G01 X5.9084 Y3.9918
G01 X5.8868 Y4.1374
G01 X5.8833 Y4.1577
G01 X5.8788 Y4.1778
G01 X5.8430 Y4.3206
G01 X5.8375 Y4.3405
G01 X5.8311 Y4.3601
G01 X5.7815 Y4.4987
G01 X5.7740 Y4.5179
G01 X5.7657 Y4.5368
G01 X5.7028 Y4.6698
G01 X5.6935 Y4.6882
G01 X5.6833 Y4.7062
G01 X5.6077 Y4.8324
G01 X5.5966 Y4.8499
G01 X5.5848 Y4.8667
G01 X5.4971 Y4.9849
G01 X5.4844 Y5.0012
G01 X5.4709 Y5.0168
G01 X5.3721 Y5.1259
G01 X5.3578 Y5.1408
G01 X5.3429 Y5.1550
G01 X5.2338 Y5.2539
G01 X5.2182 Y5.2673
G01 X5.2020 Y5.2800
G01 X5.0837 Y5.3677
G01 X5.0669 Y5.3796
G01 X5.0495 Y5.3906
G01 X4.9232 Y5.4663
G01 X4.9053 Y5.4764
G01 X4.8869 Y5.4857
G01 X4.7538 Y5.5487
G01 X4.7350 Y5.5570
G01 X4.7157 Y5.5644
G01 X4.5771 Y5.6140
G01 X4.5575 Y5.6205
G01 X4.5377 Y5.6260
G01 X4.3949 Y5.6618
G01 X4.3748 Y5.6663
G01 X4.3545 Y5.6698
G01 X4.2089 Y5.6914
G01 X4.1884 Y5.6939
G01 X4.1678 Y5.6954
G01 X4.0208 Y5.7027
G01 X4.0002 Y5.7032
G01 X3.9796 Y5.7027
G01 X3.8326 Y5.6954
G01 X3.8120 Y5.6939
G01 X3.7915 Y5.6914
G01 X3.6459 Y5.6698
G01 X3.6256 Y5.6663
G01 X3.6055 Y5.6618
G01 X3.4627 Y5.6260
G01 X3.4429 Y5.6205
G01 X3.4233 Y5.6140
G01 X3.2847 Y5.5644
G01 X3.2654 Y5.5570
G01 X3.2466 Y5.5487
G01 X3.1135 Y5.4857
G01 X3.0951 Y5.4764
G01 X3.0772 Y5.4663
G01 X2.9509 Y5.3906
G01 X2.9335 Y5.3796
G01 X2.9167 Y5.3677
G01 X2.7984 Y5.2800
G01 X2.7822 Y5.2673
G01 X2.7666 Y5.2539
G01 X2.6575 Y5.1550
G01 X2.6426 Y5.1408
G01 X2.6283 Y5.1259
G01 X2.5295 Y5.0168
G01 X2.5160 Y5.0012
G01 X2.5033 Y4.9849
G01 X2.4156 Y4.8667
G01 X2.4038 Y4.8499
G01 X2.3927 Y4.8324
G01 X2.3171 Y4.7062
G01 X2.3069 Y4.6882
G01 X2.2976 Y4.6698
G01 X2.2347 Y4.5368
G01 X2.2264 Y4.5179
G01 X2.2189 Y4.4987
G01 X2.1693 Y4.3601
G01 X2.1629 Y4.3405
G01 X2.1574 Y4.3206
G01 X2.1216 Y4.1778
G01 X2.1171 Y4.1577
G01 X2.1136 Y4.1374
G01 X2.0920 Y3.9918
G01 X2.0894 Y3.9714
G01 X2.0879 Y3.9508
G01 X2.0807 Y3.8038
G01 X2.0802 Y3.7832
G01 X2.0807 Y3.7626
G01 X2.0879 Y3.6155
G01 X2.0894 Y3.5950
G01 X2.0920 Y3.5745
G01 X2.1136 Y3.4289
G01 X2.1171 Y3.4086
G01 X2.1216 Y3.3885
G01 X2.1574 Y3.2457
G01 X2.1629 Y3.2258
G01 X2.1693 Y3.2062
G01 X2.2189 Y3.0676
G01 X2.2264 Y3.0484
G01 X2.2347 Y3.0296
G01 X2.2976 Y2.8965
G01 X2.3069 Y2.8781
G01 X2.3171 Y2.8601
G01 X2.3927 Y2.7339
G01 X2.4038 Y2.7165
G01 X2.4156 Y2.6996
G01 X2.5033 Y2.5814
G01 X2.5160 Y2.5651
G01 X2.5295 Y2.5495
G01 X2.6283 Y2.4404
G01 X2.6426 Y2.4255
G01 X2.6575 Y2.4113
G01 X2.7666 Y2.3124
G01 X2.7822 Y2.2990
G01 X2.7984 Y2.2863
G01 X2.9167 Y2.1986
G01 X2.9335 Y2.1867
G01 X2.9509 Y2.1757
G01 X3.0772 Y2.1000
G01 X3.0951 Y2.0899
G01 X3.1135 Y2.0806
G01 X3.2466 Y2.0177
G01 X3.2654 Y2.0093
G01 X3.2847 Y2.0019
G01 X3.4233 Y1.9523
G01 X3.4429 Y1.9458
G01 X3.4627 Y1.9403
G01 X3.6055 Y1.9046
G01 X3.6256 Y1.9001
G01 X3.6459 Y1.8965
G01 X3.7915 Y1.8749
G01 X3.8120 Y1.8724
G01 X3.8326 Y1.8709
G01 X3.9796 Y1.8637
G01 X4.0002 Y1.8632
G01 X4.0208 Y1.8637
G01 X4.1678 Y1.8709
G01 X4.1884 Y1.8724
G01 X4.2089 Y1.8749
G01 X4.3545 Y1.8965
G01 X4.3748 Y1.9001
G01 X4.3949 Y1.9046
G01 X4.5377 Y1.9403
G01 X4.5575 Y1.9458
G01 X4.5771 Y1.9523
G01 X4.7157 Y2.0019
G01 X4.7350 Y2.0093
G01 X4.7538 Y2.0177
G01 X4.8869 Y2.0806
G01 X4.9053 Y2.0899
G01 X4.9232 Y2.1000
G01 X5.0495 Y2.1757
G01 X5.0669 Y2.1867
G01 X5.0837 Y2.1986
G01 X5.2020 Y2.2863
G01 X5.2182 Y2.2990
G01 X5.2338 Y2.3124
G01 X5.3429 Y2.4113
G01 X5.3578 Y2.4255
G01 X5.3721 Y2.4404
G01 X5.4709 Y2.5495
G01 X5.4844 Y2.5651
G01 X5.4971 Y2.5814
G01 X5.5848 Y2.6996
G01 X5.5966 Y2.7165
G01 X5.6077 Y2.7339
G01 X5.6833 Y2.8601
G01 X5.6935 Y2.8781
G01 X5.7028 Y2.8965
G01 X5.7657 Y3.0296
G01 X5.7740 Y3.0484
G01 X5.7815 Y3.0676
G01 X5.8311 Y3.2062
G01 X5.8375 Y3.2258
G01 X5.8430 Y3.2457
G01 X5.8788 Y3.3885
G01 X5.8833 Y3.4086
G01 X5.8868 Y3.4289
G01 X5.9084 Y3.5745
G01 X5.9098 Y3.5847
G01 X5.9118 Y3.6052
G00 Z2.0000
G00 X6.1811 Y3.5854
G01 F60.00
G01 Z-0.0800
G01 F120.00
G01 X6.1894 Y3.7493
G01 X6.1902 Y3.7832
G01 X6.1894 Y3.8170
G01 X6.1819 Y3.9686
G01 X6.2002 Y3.9558
G01 X6.2288 Y3.9377
G01 X6.2919 Y3.8999
G01 X6.3214 Y3.8832
G01 X6.3516 Y3.8680
G01 X6.4182 Y3.8365
G01 X6.4491 Y3.8228
G01 X6.4807 Y3.8106
G01 X6.5500 Y3.7858
G01 X6.5822 Y3.7752
G01 X6.6148 Y3.7661
G01 X6.6862 Y3.7482
G01 X6.7193 Y3.7408
G01 X6.7526 Y3.7350
G01 X6.8254 Y3.7242
G01 X6.8591 Y3.7201
G01 X6.8928 Y3.7176
G01 X6.9663 Y3.7140
G01 X6.9833 Y3.7134
G01 X7.0171 Y3.7134
G01 X7.1076 Y3.7176
G01 X7.1245 Y3.7186
G01 X7.1582 Y3.7220
G01 X7.2645 Y3.7377
G01 X7.2811 Y3.7408
G01 X7.3142 Y3.7482
G01 X7.3856 Y3.7661
G01 X7.4182 Y3.7752
G01 X7.4504 Y3.7858
G01 X7.5197 Y3.8106
G01 X7.5355 Y3.8165
G01 X7.5668 Y3.8294
G01 X7.6488 Y3.8680
G01 X7.6640 Y3.8754
G01 X7.6938 Y3.8914
G01 X7.7860 Y3.9466
G01 X7.8142 Y3.9654
G01 X7.8870 Y4.0192
G01 X7.9005 Y4.0294
G01 X7.9267 Y4.0509
G01 X8.0063 Y4.1231
G01 X8.0303 Y4.1470
G01 X8.0418 Y4.1595
G01 X8.1024 Y4.2267
G01 X8.1239 Y4.2529
G01 X8.1342 Y4.2663
G01 X8.1780 Y4.3254
G01 X8.1975 Y4.3531
G01 X8.2156 Y4.3818
G01 X8.2535 Y4.4449
G01 X8.2702 Y4.4744
G01 X8.2869 Y4.4449
G01 X8.3248 Y4.3818
G01 X8.3429 Y4.3531
G01 X8.3525 Y4.3392
G01 X8.4165 Y4.2529
G01 X8.4380 Y4.2267
G01 X8.4492 Y4.2140
G01 X8.4986 Y4.1595
G01 X8.5220 Y4.1349
G01 X8.5465 Y4.1116
G01 X8.6010 Y4.0621
G01 X8.6137 Y4.0509
G01 X8.6399 Y4.0294
G01 X8.7125 Y3.9753
G01 X8.7402 Y3.9558
G01 X8.7688 Y3.9377
G01 X8.8466 Y3.8914
G01 X8.8614 Y3.8832
G01 X8.8916 Y3.8680
G01 X8.9582 Y3.8365
G01 X8.9891 Y3.8228
G01 X9.0207 Y3.8106
G01 X9.1060 Y3.7803
G01 X9.1385 Y3.7704
G01 X9.1548 Y3.7661
G01 X9.2262 Y3.7482
G01 X9.2593 Y3.7408
G01 X9.2926 Y3.7350
G01 X9.3822 Y3.7220
G01 X9.3991 Y3.7201
G01 X9.4328 Y3.7176
G01 X9.5063 Y3.7140
G01 X9.5402 Y3.7132
G01 X9.5741 Y3.7140
G01 X9.6476 Y3.7176
G01 X9.6813 Y3.7201
G01 X9.6982 Y3.7220
G01 X9.7878 Y3.7350
G01 X9.8211 Y3.7408
G01 X9.8542 Y3.7482
G01 X9.9256 Y3.7661
G01 X9.9582 Y3.7752
G01 X9.9904 Y3.7858
G01 X10.0597 Y3.8106
G01 X10.0913 Y3.8228
G01 X10.1068 Y3.8294
G01 X10.1888 Y3.8680
G01 X10.2190 Y3.8832
G01 X10.2485 Y3.8999
G01 X10.3260 Y3.9466
G01 X10.3402 Y3.9558
G01 X10.3679 Y3.9753
G01 X10.4270 Y4.0192
G01 X10.4537 Y4.0400
G01 X10.4794 Y4.0621
G01 X10.5339 Y4.1116
G01 X10.5584 Y4.1349
G01 X10.5818 Y4.1595
G01 X10.6312 Y4.2140
G01 X10.6533 Y4.2396
G01 X10.6742 Y4.2663
G01 X10.7180 Y4.3254
G01 X10.7375 Y4.3531
G01 X10.7468 Y4.3673
G01 X10.7935 Y4.4449
G01 X10.8102 Y4.4744
G01 X10.8269 Y4.4449
G01 X10.8648 Y4.3818
G01 X10.8829 Y4.3531
G01 X10.8925 Y4.3392
G01 X10.9565 Y4.2529
G01 X10.9780 Y4.2267
G01 X10.9892 Y4.2140
G01 X11.0386 Y4.1595
G01 X11.0620 Y4.1349
G01 X11.0865 Y4.1116
G01 X11.1410 Y4.0621
G01 X11.1537 Y4.0509
G01 X11.1799 Y4.0294
G01 X11.2525 Y3.9753
G01 X11.2802 Y3.9558
G01 X11.3088 Y3.9377
G01 X11.3866 Y3.8914
G01 X11.4014 Y3.8832
G01 X11.4316 Y3.8680
G01 X11.4982 Y3.8365
G01 X11.5291 Y3.8228
G01 X11.5607 Y3.8106
G01 X11.6460 Y3.7803
G01 X11.6785 Y3.7704
G01 X11.6948 Y3.7661
G01 X11.7662 Y3.7482
G01 X11.7993 Y3.7408
G01 X11.8326 Y3.7350
G01 X11.9222 Y3.7220
G01 X11.9391 Y3.7201
G01 X11.9728 Y3.7176
G01 X12.0463 Y3.7140
G01 X12.0802 Y3.7132
G01 X12.1141 Y3.7140
G01 X12.1876 Y3.7176
G01 X12.2213 Y3.7201
G01 X12.2382 Y3.7220
G01 X12.3278 Y3.7350
G01 X12.3611 Y3.7408
G01 X12.3942 Y3.7482
G01 X12.4656 Y3.7661
G01 X12.4982 Y3.7752
G01 X12.5304 Y3.7858
G01 X12.5997 Y3.8106
G01 X12.6313 Y3.8228
G01 X12.6468 Y3.8294
G01 X12.7288 Y3.8680
G01 X12.7590 Y3.8832
G01 X12.7885 Y3.8999
G01 X12.8660 Y3.9466
G01 X12.8802 Y3.9558
G01 X12.9079 Y3.9753
G01 X12.9670 Y4.0192
G01 X12.9937 Y4.0400
G01 X13.0194 Y4.0621
G01 X13.0739 Y4.1116
G01 X13.0984 Y4.1349
G01 X13.1218 Y4.1595
G01 X13.1712 Y4.2140
G01 X13.1933 Y4.2396
G01 X13.2142 Y4.2663
G01 X13.2580 Y4.3254
G01 X13.2775 Y4.3531
G01 X13.2868 Y4.3673
G01 X13.3335 Y4.4449
G01 X13.3502 Y4.4744
G01 X13.3669 Y4.4449
G01 X13.4048 Y4.3818
G01 X13.4229 Y4.3531
G01 X13.4325 Y4.3392
G01 X13.4965 Y4.2529
G01 X13.5180 Y4.2267
G01 X13.5292 Y4.2140
G01 X13.5786 Y4.1595
G01 X13.6020 Y4.1349
G01 X13.6265 Y4.1116
G01 X13.6810 Y4.0621
G01 X13.6937 Y4.0509
G01 X13.7199 Y4.0294
G01 X13.7925 Y3.9753
G01 X13.8202 Y3.9558
G01 X13.8488 Y3.9377
G01 X13.9266 Y3.8914
G01 X13.9414 Y3.8832
G01 X13.9716 Y3.8680
G01 X14.0382 Y3.8365
G01 X14.0691 Y3.8228
G01 X14.1007 Y3.8106
G01 X14.1700 Y3.7858
G01 X14.1860 Y3.7803
G01 X14.2185 Y3.7704
G01 X14.3062 Y3.7482
G01 X14.3393 Y3.7408
G01 X14.3726 Y3.7350
G01 X14.4454 Y3.7242
G01 X14.4791 Y3.7201
G01 X14.4959 Y3.7186
G01 X14.5863 Y3.7140
G01 X14.6202 Y3.7132
G01 X14.6541 Y3.7140
G01 X14.7276 Y3.7176
G01 X14.7613 Y3.7201
G01 X14.7782 Y3.7220
G01 X14.8678 Y3.7350
G01 X14.9011 Y3.7408
G01 X14.9342 Y3.7482
G01 X15.0056 Y3.7661
G01 X15.0382 Y3.7752
G01 X15.0704 Y3.7858
G01 X15.1397 Y3.8106
G01 X15.1713 Y3.8228
G01 X15.1868 Y3.8294
G01 X15.2688 Y3.8680
G01 X15.2990 Y3.8832
G01 X15.3285 Y3.8999
G01 X15.4060 Y3.9466
G01 X15.4202 Y3.9558
G01 X15.4479 Y3.9753
G01 X15.5070 Y4.0192
G01 X15.5337 Y4.0400
G01 X15.5594 Y4.0621
G01 X15.6139 Y4.1116
G01 X15.6384 Y4.1349
G01 X15.6618 Y4.1595
G01 X15.7112 Y4.2140
G01 X15.7333 Y4.2396
G01 X15.7542 Y4.2663
G01 X15.7980 Y4.3254
G01 X15.8175 Y4.3531
G01 X15.8268 Y4.3673
G01 X15.8735 Y4.4449
G01 X15.8902 Y4.4744
G01 X15.9069 Y4.4449
G01 X15.9448 Y4.3818
G01 X15.9629 Y4.3531
G01 X15.9725 Y4.3392
G01 X16.0365 Y4.2529
G01 X16.0471 Y4.2396
G01 X16.0692 Y4.2140
G01 X16.1186 Y4.1595
G01 X16.1420 Y4.1349
G01 X16.1665 Y4.1116
G01 X16.2210 Y4.0621
G01 X16.2337 Y4.0509
G01 X16.2599 Y4.0294
G01 X16.3325 Y3.9753
G01 X16.3602 Y3.9558
G01 X16.3888 Y3.9377
G01 X16.4519 Y3.8999
G01 X16.4666 Y3.8914
G01 X16.4964 Y3.8754
G01 X16.5936 Y3.8294
G01 X16.6091 Y3.8228
G01 X16.6407 Y3.8106
G01 X16.7100 Y3.7858
G01 X16.7422 Y3.7752
G01 X16.7748 Y3.7661
G01 X16.8462 Y3.7482
G01 X16.8793 Y3.7408
G01 X16.8959 Y3.7377
G01 X16.9854 Y3.7242
G01 X17.0191 Y3.7201
G01 X17.0528 Y3.7176
G01 X17.1263 Y3.7140
G01 X17.1602 Y3.7132
G01 X17.1941 Y3.7140
G01 X17.2676 Y3.7176
G01 X17.2845 Y3.7186
G01 X17.3182 Y3.7220
G01 X17.4078 Y3.7350
G01 X17.4411 Y3.7408
G01 X17.4742 Y3.7482
G01 X17.5456 Y3.7661
G01 X17.5782 Y3.7752
G01 X17.6104 Y3.7858
G01 X17.6797 Y3.8106
G01 X17.7113 Y3.8228
G01 X17.7268 Y3.8294
G01 X17.8088 Y3.8680
G01 X17.8390 Y3.8832
G01 X17.8685 Y3.8999
G01 X17.9460 Y3.9466
G01 X17.9602 Y3.9558
G01 X17.9879 Y3.9753
G01 X18.0470 Y4.0192
G01 X18.0737 Y4.0400
G01 X18.0994 Y4.0621
G01 X18.1539 Y4.1116
G01 X18.1784 Y4.1349
G01 X18.2018 Y4.1595
G01 X18.2512 Y4.2140
G01 X18.2733 Y4.2396
G01 X18.2942 Y4.2663
G01 X18.3380 Y4.3254
G01 X18.3479 Y4.3392
G01 X18.3668 Y4.3673
G01 X18.4135 Y4.4449
G01 X18.4302 Y4.4744
G01 X18.4469 Y4.4449
G01 X18.4848 Y4.3818
G01 X18.5029 Y4.3531
G01 X18.5125 Y4.3392
G01 X18.5765 Y4.2529
G01 X18.5871 Y4.2396
G01 X18.6092 Y4.2140
G01 X18.6586 Y4.1595
G01 X18.6820 Y4.1349
G01 X18.7065 Y4.1116
G01 X18.7610 Y4.0621
G01 X18.7737 Y4.0509
G01 X18.7999 Y4.0294
G01 X18.8725 Y3.9753
G01 X18.8862 Y3.9654
G01 X18.9144 Y3.9466
G01 X19.0066 Y3.8914
G01 X19.0364 Y3.8754
G01 X19.0516 Y3.8680
G01 X19.1182 Y3.8365
G01 X19.1491 Y3.8228
G01 X19.1807 Y3.8106
G01 X19.2500 Y3.7858
G01 X19.2822 Y3.7752
G01 X19.3148 Y3.7661
G01 X19.3862 Y3.7482
G01 X19.4193 Y3.7408
G01 X19.4359 Y3.7377
G01 X19.5254 Y3.7242
G01 X19.5591 Y3.7201
G01 X19.5928 Y3.7176
G01 X19.6833 Y3.7134
G01 X19.7171 Y3.7134
G01 X19.8076 Y3.7176
G01 X19.8413 Y3.7201
G01 X19.8750 Y3.7242
G01 X19.9478 Y3.7350
G01 X19.9811 Y3.7408
G01 X20.0142 Y3.7482
G01 X20.0856 Y3.7661
G01 X20.1182 Y3.7752
G01 X20.1504 Y3.7858
G01 X20.2197 Y3.8106
G01 X20.2513 Y3.8228
G01 X20.2822 Y3.8365
G01 X20.3488 Y3.8680
G01 X20.3790 Y3.8832
G01 X20.4085 Y3.8999
G01 X20.4860 Y3.9466
G01 X20.5142 Y3.9654
G01 X20.5870 Y4.0192
G01 X20.6137 Y4.0400
G01 X20.6394 Y4.0621
G01 X20.6939 Y4.1116
G01 X20.7184 Y4.1349
G01 X20.7418 Y4.1595
G01 X20.7912 Y4.2140
G01 X20.8133 Y4.2396
G01 X20.8342 Y4.2663
G01 X20.8780 Y4.3254
G01 X20.8879 Y4.3392
G01 X20.9068 Y4.3673
G01 X20.9535 Y4.4449
G01 X20.9702 Y4.4744
G01 X20.9869 Y4.4449
G01 X21.0248 Y4.3818
G01 X21.0429 Y4.3531
G01 X21.0624 Y4.3254
G01 X21.1165 Y4.2529
G01 X21.1380 Y4.2267
G01 X21.1986 Y4.1595
G01 X21.2220 Y4.1349
G01 X21.2465 Y4.1116
G01 X21.3010 Y4.0621
G01 X21.3267 Y4.0400
G01 X21.3534 Y4.0192
G01 X21.4125 Y3.9753
G01 X21.4402 Y3.9558
G01 X21.4688 Y3.9377
G01 X21.5319 Y3.8999
G01 X21.5614 Y3.8832
G01 X21.5916 Y3.8680
G01 X21.6582 Y3.8365
G01 X21.6891 Y3.8228
G01 X21.7207 Y3.8106
G01 X21.7900 Y3.7858
G01 X21.8222 Y3.7752
G01 X21.8548 Y3.7661
G01 X21.9427 Y3.7443
G01 X21.9759 Y3.7377
G01 X22.0654 Y3.7242
G01 X22.0991 Y3.7201
G01 X22.1328 Y3.7176
G01 X22.2063 Y3.7140
G01 X22.2402 Y3.7132
G01 X22.2741 Y3.7140
G01 X22.3476 Y3.7176
G01 X22.3813 Y3.7201
G01 X22.4150 Y3.7242
G01 X22.4878 Y3.7350
G01 X22.5211 Y3.7408
G01 X22.5542 Y3.7482
G01 X22.6256 Y3.7661
G01 X22.6419 Y3.7704
G01 X22.6744 Y3.7803
G01 X22.7597 Y3.8106
G01 X22.7913 Y3.8228
G01 X22.8222 Y3.8365
G01 X22.9040 Y3.8754
G01 X22.9338 Y3.8914
G01 X22.9485 Y3.8999
G01 X23.0116 Y3.9377
G01 X23.0402 Y3.9558
G01 X23.0679 Y3.9753
G01 X23.1405 Y4.0294
G01 X23.1667 Y4.0509
G01 X23.1794 Y4.0621
G01 X23.2463 Y4.1231
G01 X23.2703 Y4.1470
G01 X23.3312 Y4.2140
G01 X23.3533 Y4.2396
G01 X23.3742 Y4.2663
G01 X23.4180 Y4.3254
G01 X23.4279 Y4.3392
G01 X23.4468 Y4.3673
G01 X23.4935 Y4.4449
G01 X23.5102 Y4.4743
G01 X23.5254 Y4.5046
G01 X23.5639 Y4.5865
G01 X23.5769 Y4.6178
G01 X23.5828 Y4.6337
G01 X23.6076 Y4.7030
G01 X23.6182 Y4.7352
G01 X23.6272 Y4.7678
G01 X23.6490 Y4.8557
G01 X23.6556 Y4.8889
G01 X23.6691 Y4.9784
G01 X23.6733 Y5.0120
G01 X23.6758 Y5.0458
G01 X23.6794 Y5.1193
G01 X23.6802 Y5.1532
G01 X23.6794 Y5.1870
G01 X23.6758 Y5.2605
G01 X23.6733 Y5.2943
G01 X23.6691 Y5.3279
G01 X23.6583 Y5.4007
G01 X23.6525 Y5.4341
G01 X23.6451 Y5.4671
G01 X23.6229 Y5.5549
G01 X23.6131 Y5.5873
G01 X23.5828 Y5.6726
G01 X23.5706 Y5.7042
G01 X23.5569 Y5.7352
G01 X23.5254 Y5.8017
G01 X23.5102 Y5.8320
G01 X23.4935 Y5.8614
G01 X23.4556 Y5.9246
G01 X23.4375 Y5.9532
G01 X23.4180 Y5.9809
G01 X23.3742 Y6.0400
G01 X23.3533 Y6.0667
G01 X23.3312 Y6.0923
G01 X23.2818 Y6.1469
G01 X23.2584 Y6.1714
G01 X23.2339 Y6.1947
G01 X23.1667 Y6.2554
G01 X23.1405 Y6.2769
G01 X23.0679 Y6.3310
G01 X23.0402 Y6.3505
G01 X23.0116 Y6.3686
G01 X22.9485 Y6.4064
G01 X22.9189 Y6.4232
G01 X22.9485 Y6.4399
G01 X23.0116 Y6.4777
G01 X23.0402 Y6.4958
G01 X23.0679 Y6.5153
G01 X23.1405 Y6.5694
G01 X23.1667 Y6.5909
G01 X23.2339 Y6.6516
G01 X23.2584 Y6.6749
G01 X23.2818 Y6.6995
G01 X23.3312 Y6.7540
G01 X23.3533 Y6.7796
G01 X23.3742 Y6.8063
G01 X23.4180 Y6.8654
G01 X23.4375 Y6.8931
G01 X23.4556 Y6.9218
G01 X23.4935 Y6.9849
G01 X23.5102 Y7.0143
G01 X23.5254 Y7.0446
G01 X23.5569 Y7.1111
G01 X23.5706 Y7.1421
G01 X23.5828 Y7.1737
G01 X23.6076 Y7.2430
G01 X23.6182 Y7.2752
G01 X23.6272 Y7.3078
G01 X23.6490 Y7.3957
G01 X23.6556 Y7.4289
G01 X23.6691 Y7.5184
G01 X23.6733 Y7.5520
G01 X23.6758 Y7.5858
G01 X23.6794 Y7.6593
G01 X23.6802 Y7.6932
G01 X23.6794 Y7.7270
G01 X23.6758 Y7.8005
G01 X23.6733 Y7.8343
G01 X23.6691 Y7.8679
G01 X23.6583 Y7.9407
G01 X23.6525 Y7.9741
G01 X23.6451 Y8.0071
G01 X23.6272 Y8.0785
G01 X23.6182 Y8.1112
G01 X23.6076 Y8.1433
G01 X23.5769 Y8.2285
G01 X23.5639 Y8.2598
G01 X23.5254 Y8.3417
G01 X23.5102 Y8.3720
G01 X23.4935 Y8.4014
G01 X23.4556 Y8.4646
G01 X23.4375 Y8.4932
G01 X23.4180 Y8.5209
G01 X23.3742 Y8.5800
G01 X23.3533 Y8.6067
G01 X23.3312 Y8.6323
G01 X23.2818 Y8.6869
G01 X23.2584 Y8.7114
G01 X23.2463 Y8.7232
G01 X23.1794 Y8.7842
G01 X23.1537 Y8.8063
G01 X23.1270 Y8.8271
G01 X23.0679 Y8.8710
G01 X23.0402 Y8.8905
G01 X23.0116 Y8.9086
G01 X22.9485 Y8.9464
G01 X22.9338 Y8.9550
G01 X22.9040 Y8.9709
G01 X22.8222 Y9.0098
G01 X22.7913 Y9.0235
G01 X22.7597 Y9.0357
G01 X22.6904 Y9.0605
G01 X22.6582 Y9.0712
G01 X22.6256 Y9.0802
G01 X22.5377 Y9.1020
G01 X22.5045 Y9.1086
G01 X22.4150 Y9.1221
G01 X22.3813 Y9.1262
G01 X22.3476 Y9.1287
G01 X22.2741 Y9.1323
G01 X22.2402 Y9.1332
G01 X22.2063 Y9.1323
G01 X22.1328 Y9.1287
G01 X22.0991 Y9.1262
G01 X22.0822 Y9.1244
G01 X21.9926 Y9.1113
G01 X21.9593 Y9.1055
G01 X21.9262 Y9.0981
G01 X21.8385 Y9.0759
G01 X21.8222 Y9.0712
G01 X21.7900 Y9.0605
G01 X21.7207 Y9.0357
G01 X21.6891 Y9.0235
G01 X21.6582 Y9.0098
G01 X21.5916 Y8.9784
G01 X21.5614 Y8.9631
G01 X21.5319 Y8.9464
G01 X21.4544 Y8.8997
G01 X21.4402 Y8.8905
G01 X21.4125 Y8.8710
G01 X21.3534 Y8.8271
G01 X21.3267 Y8.8063
G01 X21.3010 Y8.7842
G01 X21.2465 Y8.7347
G01 X21.2220 Y8.7114
G01 X21.1986 Y8.6869
G01 X21.1492 Y8.6323
G01 X21.1271 Y8.6067
G01 X21.1062 Y8.5800
G01 X21.0624 Y8.5209
G01 X21.0525 Y8.5071
G01 X21.0336 Y8.4790
G01 X20.9869 Y8.4014
G01 X20.9702 Y8.3719
G01 X20.9535 Y8.4014
G01 X20.9156 Y8.4646
G01 X20.8975 Y8.4932
G01 X20.8879 Y8.5071
G01 X20.8239 Y8.5935
G01 X20.8133 Y8.6067
G01 X20.7912 Y8.6323
G01 X20.7418 Y8.6869
G01 X20.7184 Y8.7114
G01 X20.6939 Y8.7347
G01 X20.6394 Y8.7842
G01 X20.6137 Y8.8063
G01 X20.6005 Y8.8169
G01 X20.5279 Y8.8710
G01 X20.5002 Y8.8905
G01 X20.4716 Y8.9086
G01 X20.3938 Y8.9550
G01 X20.3640 Y8.9709
G01 X20.3488 Y8.9784
G01 X20.2822 Y9.0098
G01 X20.2513 Y9.0235
G01 X20.2197 Y9.0357
G01 X20.1344 Y9.0660
G01 X20.1182 Y9.0712
G01 X20.0856 Y9.0802
G01 X20.0142 Y9.0981
G01 X19.9811 Y9.1055
G01 X19.9478 Y9.1113
G01 X19.8582 Y9.1244
G01 X19.8413 Y9.1262
G01 X19.8076 Y9.1287
G01 X19.7341 Y9.1323
G01 X19.7002 Y9.1332
G01 X19.6663 Y9.1323
G01 X19.5928 Y9.1287
G01 X19.5591 Y9.1262
G01 X19.5422 Y9.1244
G01 X19.4526 Y9.1113
G01 X19.4193 Y9.1055
G01 X19.3862 Y9.0981
G01 X19.2985 Y9.0759
G01 X19.2822 Y9.0712
G01 X19.2500 Y9.0605
G01 X19.1807 Y9.0357
G01 X19.1491 Y9.0235
G01 X19.1182 Y9.0098
G01 X19.0516 Y8.9784
G01 X19.0214 Y8.9631
G01 X18.9919 Y8.9464
G01 X18.9144 Y8.8997
G01 X18.9002 Y8.8905
G01 X18.8725 Y8.8710
G01 X18.8134 Y8.8271
G01 X18.7867 Y8.8063
G01 X18.7610 Y8.7842
G01 X18.7065 Y8.7347
G01 X18.6820 Y8.7114
G01 X18.6586 Y8.6869
G01 X18.6092 Y8.6323
G01 X18.5871 Y8.6067
G01 X18.5662 Y8.5800
G01 X18.5224 Y8.5209
G01 X18.5125 Y8.5071
G01 X18.4936 Y8.4790
G01 X18.4469 Y8.4014
G01 X18.4302 Y8.3719
G01 X18.4135 Y8.4014
G01 X18.3756 Y8.4646
G01 X18.3575 Y8.4932
G01 X18.3479 Y8.5071
G01 X18.2839 Y8.5935
G01 X18.2733 Y8.6067
G01 X18.2512 Y8.6323
G01 X18.2018 Y8.6869
G01 X18.1784 Y8.7114
G01 X18.1539 Y8.7347
G01 X18.0994 Y8.7842
G01 X18.0737 Y8.8063
G01 X18.0605 Y8.8169
G01 X17.9879 Y8.8710
G01 X17.9602 Y8.8905
G01 X17.9316 Y8.9086
G01 X17.8538 Y8.9550
G01 X17.8240 Y8.9709
G01 X17.8088 Y8.9784
G01 X17.7422 Y9.0098
G01 X17.7113 Y9.0235
G01 X17.6797 Y9.0357
G01 X17.5944 Y9.0660
G01 X17.5782 Y9.0712
G01 X17.5456 Y9.0802
G01 X17.4742 Y9.0981
G01 X17.4411 Y9.1055
G01 X17.4078 Y9.1113
G01 X17.3182 Y9.1244
G01 X17.3013 Y9.1262
G01 X17.2676 Y9.1287
G01 X17.1941 Y9.1323
G01 X17.1602 Y9.1332
G01 X17.1263 Y9.1323
G01 X17.0528 Y9.1287
G01 X17.0191 Y9.1262
G01 X17.0022 Y9.1244
G01 X16.9126 Y9.1113
G01 X16.8793 Y9.1055
G01 X16.8462 Y9.0981
G01 X16.7585 Y9.0759
G01 X16.7422 Y9.0712
G01 X16.7100 Y9.0605
G01 X16.6407 Y9.0357
G01 X16.6091 Y9.0235
G01 X16.5782 Y9.0098
G01 X16.5116 Y8.9784
G01 X16.4814 Y8.9631
G01 X16.4519 Y8.9464
G01 X16.3744 Y8.8997
G01 X16.3602 Y8.8905
G01 X16.3325 Y8.8710
G01 X16.2734 Y8.8271
G01 X16.2467 Y8.8063
G01 X16.2210 Y8.7842
G01 X16.1665 Y8.7347
G01 X16.1420 Y8.7114
G01 X16.1186 Y8.6869
G01 X16.0692 Y8.6323
G01 X16.0471 Y8.6067
G01 X16.0262 Y8.5800
G01 X15.9824 Y8.5209
G01 X15.9629 Y8.4932
G01 X15.9536 Y8.4790
G01 X15.9069 Y8.4014
G01 X15.8902 Y8.3719
G01 X15.8735 Y8.4014
G01 X15.8356 Y8.4646
G01 X15.8268 Y8.4790
G01 X15.8079 Y8.5071
G01 X15.7439 Y8.5935
G01 X15.7333 Y8.6067
G01 X15.7112 Y8.6323
G01 X15.6618 Y8.6869
G01 X15.6384 Y8.7114
G01 X15.6139 Y8.7347
G01 X15.5594 Y8.7842
G01 X15.5467 Y8.7954
G01 X15.5205 Y8.8169
G01 X15.4479 Y8.8710
G01 X15.4202 Y8.8905
G01 X15.3916 Y8.9086
G01 X15.3138 Y8.9550
G01 X15.2840 Y8.9709
G01 X15.2688 Y8.9784
G01 X15.2022 Y9.0098
G01 X15.1713 Y9.0235
G01 X15.1397 Y9.0357
G01 X15.0704 Y9.0605
G01 X15.0382 Y9.0712
G01 X15.0219 Y9.0759
G01 X14.9342 Y9.0981
G01 X14.9011 Y9.1055
G01 X14.8678 Y9.1113
G01 X14.7950 Y9.1221
G01 X14.7782 Y9.1244
G01 X14.7445 Y9.1277
G01 X14.6541 Y9.1323
G01 X14.6202 Y9.1332
G01 X14.5863 Y9.1323
G01 X14.5128 Y9.1287
G01 X14.4959 Y9.1277
G01 X14.4622 Y9.1244
G01 X14.3726 Y9.1113
G01 X14.3393 Y9.1055
G01 X14.3062 Y9.0981
G01 X14.2348 Y9.0802
G01 X14.2022 Y9.0712
G01 X14.1700 Y9.0605
G01 X14.1007 Y9.0357
G01 X14.0849 Y9.0298
G01 X14.0536 Y9.0169
G01 X13.9716 Y8.9784
G01 X13.9414 Y8.9631
G01 X13.9119 Y8.9464
G01 X13.8344 Y8.8997
G01 X13.8202 Y8.8905
G01 X13.7925 Y8.8710
G01 X13.7334 Y8.8271
G01 X13.7067 Y8.8063
G01 X13.6810 Y8.7842
G01 X13.6265 Y8.7347
G01 X13.6020 Y8.7114
G01 X13.5786 Y8.6869
G01 X13.5292 Y8.6323
G01 X13.5071 Y8.6067
G01 X13.4862 Y8.5800
G01 X13.4424 Y8.5209
G01 X13.4325 Y8.5071
G01 X13.4136 Y8.4790
G01 X13.3669 Y8.4014
G01 X13.3502 Y8.3719
G01 X13.3335 Y8.4014
G01 X13.2956 Y8.4646
G01 X13.2868 Y8.4790
G01 X13.2679 Y8.5071
G01 X13.2039 Y8.5935
G01 X13.1933 Y8.6067
G01 X13.1712 Y8.6323
G01 X13.1218 Y8.6869
G01 X13.0984 Y8.7114
G01 X13.0739 Y8.7347
G01 X13.0194 Y8.7842
G01 X13.0067 Y8.7954
G01 X12.9805 Y8.8169
G01 X12.9079 Y8.8710
G01 X12.8802 Y8.8905
G01 X12.8516 Y8.9086
G01 X12.7738 Y8.9550
G01 X12.7440 Y8.9709
G01 X12.7288 Y8.9784
G01 X12.6622 Y9.0098
G01 X12.6313 Y9.0235
G01 X12.5997 Y9.0357
G01 X12.5304 Y9.0605
G01 X12.4982 Y9.0712
G01 X12.4819 Y9.0759
G01 X12.3777 Y9.1020
G01 X12.3611 Y9.1055
G01 X12.3278 Y9.1113
G01 X12.2550 Y9.1221
G01 X12.2213 Y9.1262
G01 X12.1876 Y9.1287
G01 X12.1141 Y9.1323
G01 X12.0802 Y9.1332
G01 X12.0463 Y9.1323
G01 X11.9728 Y9.1287
G01 X11.9559 Y9.1277
G01 X11.9222 Y9.1244
G01 X11.8326 Y9.1113
G01 X11.7993 Y9.1055
G01 X11.7662 Y9.0981
G01 X11.6948 Y9.0802
G01 X11.6622 Y9.0712
G01 X11.6300 Y9.0605
G01 X11.5607 Y9.0357
G01 X11.5449 Y9.0298
G01 X11.5136 Y9.0169
G01 X11.4316 Y8.9784
G01 X11.4014 Y8.9631
G01 X11.3719 Y8.9464
G01 X11.2944 Y8.8997
G01 X11.2802 Y8.8905
G01 X11.2525 Y8.8710
G01 X11.1934 Y8.8271
G01 X11.1667 Y8.8063
G01 X11.1410 Y8.7842
G01 X11.0865 Y8.7347
G01 X11.0620 Y8.7114
G01 X11.0386 Y8.6869
G01 X10.9892 Y8.6323
G01 X10.9671 Y8.6067
G01 X10.9462 Y8.5800
G01 X10.9024 Y8.5209
G01 X10.8925 Y8.5071
G01 X10.8736 Y8.4790
G01 X10.8269 Y8.4014
G01 X10.8102 Y8.3719
G01 X10.7935 Y8.4014
G01 X10.7556 Y8.4646
G01 X10.7468 Y8.4790
G01 X10.7279 Y8.5071
G01 X10.6639 Y8.5935
G01 X10.6533 Y8.6067
G01 X10.6312 Y8.6323
G01 X10.5703 Y8.6993
G01 X10.5463 Y8.7232
G01 X10.5339 Y8.7347
G01 X10.4794 Y8.7842
G01 X10.4537 Y8.8063
G01 X10.4270 Y8.8271
G01 X10.3679 Y8.8710
G01 X10.3402 Y8.8905
G01 X10.3260 Y8.8997
G01 X10.2338 Y8.9550
G01 X10.2040 Y8.9709
G01 X10.1888 Y8.9784
G01 X10.1222 Y9.0098
G01 X10.0913 Y9.0235
G01 X10.0597 Y9.0357
G01 X9.9904 Y9.0605
G01 X9.9582 Y9.0712
G01 X9.9256 Y9.0802
G01 X9.8542 Y9.0981
G01 X9.8211 Y9.1055
G01 X9.8045 Y9.1086
G01 X9.7150 Y9.1221
G01 X9.6813 Y9.1262
G01 X9.6476 Y9.1287
G01 X9.5571 Y9.1330
G01 X9.5233 Y9.1330
G01 X9.4328 Y9.1287
G01 X9.3991 Y9.1262
G01 X9.3654 Y9.1221
G01 X9.2926 Y9.1113
G01 X9.2593 Y9.1055
G01 X9.2262 Y9.0981
G01 X9.1548 Y9.0802
G01 X9.1222 Y9.0712
G01 X9.0900 Y9.0605
G01 X9.0207 Y9.0357
G01 X8.9891 Y9.0235
G01 X8.9582 Y9.0098
G01 X8.8916 Y8.9784
G01 X8.8614 Y8.9631
G01 X8.8319 Y8.9464
G01 X8.7544 Y8.8997
G01 X8.7262 Y8.8809
G01 X8.6534 Y8.8271
G01 X8.6267 Y8.8063
G01 X8.6010 Y8.7842
G01 X8.5465 Y8.7347
G01 X8.5220 Y8.7114
G01 X8.4986 Y8.6869
G01 X8.4492 Y8.6323
G01 X8.4271 Y8.6067
G01 X8.4062 Y8.5800
G01 X8.3624 Y8.5209
G01 X8.3525 Y8.5071
G01 X8.3336 Y8.4790
G01 X8.2869 Y8.4014
G01 X8.2702 Y8.3719
G01 X8.2535 Y8.4014
G01 X8.2156 Y8.4646
G01 X8.1975 Y8.4932
G01 X8.1780 Y8.5209
G01 X8.1239 Y8.5935
G01 X8.1024 Y8.6196
G01 X8.0418 Y8.6869
G01 X8.0184 Y8.7114
G01 X7.9939 Y8.7347
G01 X7.9394 Y8.7842
G01 X7.9137 Y8.8063
G01 X7.8870 Y8.8271
G01 X7.8279 Y8.8710
G01 X7.8002 Y8.8905
G01 X7.7716 Y8.9086
G01 X7.7085 Y8.9464
G01 X7.6790 Y8.9631
G01 X7.6488 Y8.9784
G01 X7.5822 Y9.0098
G01 X7.5513 Y9.0235
G01 X7.5197 Y9.0357
G01 X7.4504 Y9.0605
G01 X7.4182 Y9.0712
G01 X7.3856 Y9.0802
G01 X7.2977 Y9.1020
G01 X7.2645 Y9.1086
G01 X7.1750 Y9.1221
G01 X7.1413 Y9.1262
G01 X7.1076 Y9.1287
G01 X7.0341 Y9.1323
G01 X7.0002 Y9.1332
G01 X6.9663 Y9.1323
G01 X6.8928 Y9.1287
G01 X6.8591 Y9.1262
G01 X6.8254 Y9.1221
G01 X6.7526 Y9.1113
G01 X6.7193 Y9.1055
G01 X6.6862 Y9.0981
G01 X6.6148 Y9.0802
G01 X6.5822 Y9.0712
G01 X6.5660 Y9.0660
G01 X6.4807 Y9.0357
G01 X6.4491 Y9.0235
G01 X6.4182 Y9.0098
G01 X6.3516 Y8.9784
G01 X6.3214 Y8.9631
G01 X6.3066 Y8.9550
G01 X6.2288 Y8.9086
G01 X6.2002 Y8.8905
G01 X6.1725 Y8.8710
G01 X6.1134 Y8.8271
G01 X6.0867 Y8.8063
G01 X6.0737 Y8.7954
G01 X6.0065 Y8.7347
G01 X5.9820 Y8.7114
G01 X5.9586 Y8.6869
G01 X5.8980 Y8.6196
G01 X5.8871 Y8.6067
G01 X5.8662 Y8.5800
G01 X5.8224 Y8.5209
G01 X5.8029 Y8.4932
G01 X5.7848 Y8.4646
G01 X5.7469 Y8.4014
G01 X5.7384 Y8.3868
G01 X5.7224 Y8.3569
G01 X5.6835 Y8.2752
G01 X5.6698 Y8.2442
G01 X5.6576 Y8.2126
G01 X5.6328 Y8.1433
G01 X5.6222 Y8.1112
G01 X5.6175 Y8.0949
G01 X5.5953 Y8.0071
G01 X5.5879 Y7.9741
G01 X5.5821 Y7.9407
G01 X5.5713 Y7.8679
G01 X5.5671 Y7.8343
G01 X5.5646 Y7.8005
G01 X5.5610 Y7.7270
G01 X5.5602 Y7.6932
G01 X5.5610 Y7.6593
G01 X5.5646 Y7.5858
G01 X5.5671 Y7.5520
G01 X5.5713 Y7.5184
G01 X5.5848 Y7.4289
G01 X5.5914 Y7.3957
G01 X5.6132 Y7.3078
G01 X5.6222 Y7.2752
G01 X5.6328 Y7.2430
G01 X5.6576 Y7.1737
G01 X5.6698 Y7.1421
G01 X5.6835 Y7.1111
G01 X5.7150 Y7.0446
G01 X5.7302 Y7.0143
G01 X5.7469 Y6.9849
G01 X5.7848 Y6.9218
G01 X5.8029 Y6.8931
G01 X5.8224 Y6.8654
G01 X5.8662 Y6.8063
G01 X5.8871 Y6.7796
G01 X5.9092 Y6.7540
G01 X5.9586 Y6.6995
G01 X5.9820 Y6.6749
G01 X6.0065 Y6.6516
G01 X6.0737 Y6.5909
G01 X6.0999 Y6.5694
G01 X6.1725 Y6.5153
G01 X6.2002 Y6.4958
G01 X6.2288 Y6.4777
G01 X6.2919 Y6.4399
G01 X6.3215 Y6.4232
G01 X6.2919 Y6.4064
G01 X6.2288 Y6.3686
G01 X6.2144 Y6.3597
G01 X6.1862 Y6.3409
G01 X6.0999 Y6.2769
G01 X6.0737 Y6.2554
G01 X6.0610 Y6.2442
G01 X6.0065 Y6.1947
G01 X5.9820 Y6.1714
G01 X5.9586 Y6.1469
G01 X5.9092 Y6.0923
G01 X5.8871 Y6.0667
G01 X5.8765 Y6.0535
G01 X5.8224 Y5.9809
G01 X5.8029 Y5.9532
G01 X5.7848 Y5.9246
G01 X5.7469 Y5.8614
G01 X5.7302 Y5.8320
G01 X5.7224 Y5.8169
G01 X5.6765 Y5.7198
G01 X5.6698 Y5.7042
G01 X5.6576 Y5.6726
G01 X5.6328 Y5.6033
G01 X5.6222 Y5.5712
G01 X5.6132 Y5.5385
G01 X5.5953 Y5.4671
G01 X5.5914 Y5.4507
G01 X5.5848 Y5.4174
G01 X5.5689 Y5.3106
G01 X5.5488 Y5.3317
G01 X5.5366 Y5.3436
G01 X5.4152 Y5.4539
G01 X5.3895 Y5.4761
G01 X5.3628 Y5.4969
G01 X5.2446 Y5.5846
G01 X5.2169 Y5.6041
G01 X5.1883 Y5.6222
G01 X5.0474 Y5.7064
G01 X5.0326 Y5.7146
G01 X5.0023 Y5.7298
G01 X4.8692 Y5.7927
G01 X4.8383 Y5.8065
G01 X4.8067 Y5.8186
G01 X4.6681 Y5.8682
G01 X4.6359 Y5.8789
G01 X4.6033 Y5.8879
G01 X4.4605 Y5.9237
G01 X4.4274 Y5.9311
G01 X4.3941 Y5.9369
G01 X4.2485 Y5.9585
G01 X4.2149 Y5.9626
G01 X4.1811 Y5.9651
G01 X4.0341 Y5.9723
G01 X4.0002 Y5.9732
G01 X3.9663 Y5.9723
G01 X3.8193 Y5.9651
G01 X3.7855 Y5.9626
G01 X3.7519 Y5.9585
G01 X3.5896 Y5.9342
G01 X3.5564 Y5.9276
G01 X3.5399 Y5.9237
G01 X3.3971 Y5.8879
G01 X3.3645 Y5.8789
G01 X3.3323 Y5.8682
G01 X3.1937 Y5.8186
G01 X3.1621 Y5.8065
G01 X3.1312 Y5.7927
G01 X2.9981 Y5.7298
G01 X2.9678 Y5.7146
G01 X2.9384 Y5.6979
G01 X2.8121 Y5.6222
G01 X2.7835 Y5.6041
G01 X2.7558 Y5.5846
G01 X2.6376 Y5.4969
G01 X2.6109 Y5.4761
G01 X2.5852 Y5.4539
G01 X2.4762 Y5.3551
G01 X2.4516 Y5.3317
G01 X2.4283 Y5.3072
G01 X2.3294 Y5.1981
G01 X2.3073 Y5.1725
G01 X2.2865 Y5.1458
G01 X2.1988 Y5.0275
G01 X2.1793 Y4.9999
G01 X2.1612 Y4.9712
G01 X2.0855 Y4.8450
G01 X2.0688 Y4.8155
G01 X2.0536 Y4.7853
G01 X1.9906 Y4.6522
G01 X1.9769 Y4.6212
G01 X1.9647 Y4.5896
G01 X1.9151 Y4.4510
G01 X1.9045 Y4.4189
G01 X1.8955 Y4.3862
G01 X1.8597 Y4.2435
G01 X1.8523 Y4.2104
G01 X1.8465 Y4.1770
G01 X1.8249 Y4.0314
G01 X1.8226 Y4.0146
G01 X1.8193 Y3.9809
G01 X1.8110 Y3.8170
G01 X1.8102 Y3.7832
G01 X1.8110 Y3.7493
G01 X1.8183 Y3.6023
G01 X1.8207 Y3.5685
G01 X1.8249 Y3.5349
G01 X1.8465 Y3.3893
G01 X1.8523 Y3.3559
G01 X1.8597 Y3.3229
G01 X1.8955 Y3.1801
G01 X1.9045 Y3.1474
G01 X1.9151 Y3.1153
G01 X1.9647 Y2.9767
G01 X1.9769 Y2.9451
G01 X1.9906 Y2.9141
G01 X2.0536 Y2.7811
G01 X2.0688 Y2.7508
G01 X2.0855 Y2.7213
G01 X2.1612 Y2.5951
G01 X2.1793 Y2.5665
G01 X2.1988 Y2.5388
G01 X2.2865 Y2.4205
G01 X2.3073 Y2.3938
G01 X2.3294 Y2.3682
G01 X2.4283 Y2.2591
G01 X2.4516 Y2.2346
G01 X2.4762 Y2.2112
G01 X2.5852 Y2.1124
G01 X2.6109 Y2.0903
G01 X2.6376 Y2.0694
G01 X2.7558 Y1.9817
G01 X2.7835 Y1.9622
G01 X2.8121 Y1.9441
G01 X2.9384 Y1.8684
G01 X2.9678 Y1.8518
G01 X2.9981 Y1.8365
G01 X3.1312 Y1.7736
G01 X3.1621 Y1.7599
G01 X3.1937 Y1.7477
G01 X3.3323 Y1.6981
G01 X3.3645 Y1.6875
G01 X3.3971 Y1.6784
G01 X3.5399 Y1.6427
G01 X3.5730 Y1.6352
G01 X3.6063 Y1.6295
G01 X3.7519 Y1.6079
G01 X3.7855 Y1.6037
G01 X3.8193 Y1.6012
G01 X3.9663 Y1.5940
G01 X4.0002 Y1.5932
G01 X4.0341 Y1.5940
G01 X4.1811 Y1.6012
G01 X4.2149 Y1.6037
G01 X4.2485 Y1.6079
G01 X4.3941 Y1.6295
G01 X4.4274 Y1.6352
G01 X4.4605 Y1.6427
G01 X4.6033 Y1.6784
G01 X4.6359 Y1.6875
G01 X4.6681 Y1.6981
G01 X4.8067 Y1.7477
G01 X4.8383 Y1.7599
G01 X4.8692 Y1.7736
G01 X5.0023 Y1.8365
G01 X5.0326 Y1.8518
G01 X5.0620 Y1.8684
G01 X5.1883 Y1.9441
G01 X5.2169 Y1.9622
G01 X5.2446 Y1.9817
G01 X5.3628 Y2.0694
G01 X5.3895 Y2.0903
G01 X5.4152 Y2.1124
G01 X5.5242 Y2.2112
G01 X5.5488 Y2.2346
G01 X5.5721 Y2.2591
G01 X5.6710 Y2.3682
G01 X5.6931 Y2.3938
G01 X5.7139 Y2.4205
G01 X5.8016 Y2.5388
G01 X5.8211 Y2.5665
G01 X5.8392 Y2.5951
G01 X5.9149 Y2.7213
G01 X5.9316 Y2.7508
G01 X5.9468 Y2.7811
G01 X6.0098 Y2.9141
G01 X6.0235 Y2.9451
G01 X6.0357 Y2.9767
G01 X6.0853 Y3.1153
G01 X6.0959 Y3.1474
G01 X6.1049 Y3.1801
G01 X6.1407 Y3.3229
G01 X6.1481 Y3.3559
G01 X6.1539 Y3.3893
G01 X6.1755 Y3.5349
G01 X6.1778 Y3.5517
G01 X6.1811 Y3.5854
G00 Z2.0000
G00 X7.8962 Y5.0686
G01 F60.00
G01 Z-0.0800
G01 F120.00
G01 X7.9002 Y5.1532
G01 X7.8959 Y5.2414
G01 X7.8829 Y5.3287
G01 X7.8614 Y5.4144
G01 X7.8317 Y5.4976
G01 X7.7939 Y5.5774
G01 X7.7485 Y5.6532
G01 X7.6959 Y5.7241
G01 X7.6366 Y5.7896
G01 X7.5712 Y5.8489
G01 X7.5002 Y5.9015
G01 X7.4245 Y5.9469
G01 X7.3446 Y5.9847
G01 X7.2615 Y6.0144
G01 X7.1758 Y6.0359
G01 X7.0884 Y6.0488
G01 X7.0002 Y6.0532
G01 X6.9120 Y6.0488
G01 X6.8246 Y6.0359
G01 X6.7389 Y6.0144
G01 X6.6558 Y5.9847
G01 X6.5759 Y5.9469
G01 X6.5002 Y5.9015
G01 X6.4292 Y5.8489
G01 X6.3638 Y5.7896
G01 X6.3045 Y5.7241
G01 X6.2519 Y5.6532
G01 X6.2065 Y5.5774
G01 X6.1687 Y5.4976
G01 X6.1390 Y5.4144
G01 X6.1175 Y5.3287
G01 X6.1045 Y5.2414
G01 X6.1002 Y5.1532
G01 X6.1045 Y5.0649
G01 X6.1175 Y4.9776
G01 X6.1390 Y4.8919
G01 X6.1687 Y4.8087
G01 X6.2065 Y4.7289
G01 X6.2519 Y4.6531
G01 X6.3045 Y4.5822
G01 X6.3638 Y4.5168
G01 X6.4292 Y4.4575
G01 X6.5002 Y4.4048
G01 X6.5759 Y4.3594
G01 X6.6558 Y4.3217
G01 X6.7389 Y4.2919
G01 X6.8246 Y4.2705
G01 X6.9120 Y4.2575
G01 X7.0002 Y4.2532
G01 X7.0884 Y4.2575
G01 X7.1758 Y4.2705
G01 X7.2615 Y4.2919
G01 X7.3446 Y4.3217
G01 X7.4245 Y4.3594
G01 X7.5002 Y4.4048
G01 X7.5712 Y4.4575
G01 X7.6366 Y4.5168
G01 X7.6959 Y4.5822
G01 X7.7485 Y4.6531
G01 X7.7939 Y4.7289
G01 X7.8317 Y4.8087
G01 X7.8614 Y4.8919
G01 X7.8829 Y4.9776
G01 X7.8950 Y5.0576
G01 X7.8962 Y5.0686
G00 Z2.0000
G00 X8.1655 Y5.0488
G01 F60.00
G01 Z-0.0800
G01 F120.00
G01 X8.1697 Y5.1326
G01 X8.1702 Y5.1532
G01 X8.1697 Y5.1738
G01 X8.1661 Y5.2473
G01 X8.1646 Y5.2678
G01 X8.1620 Y5.2883
G01 X8.1512 Y5.3611
G01 X8.1477 Y5.3814
G01 X8.1432 Y5.4015
G01 X8.1253 Y5.4729
G01 X8.1198 Y5.4928
G01 X8.1134 Y5.5124
G01 X8.0886 Y5.5817
G01 X8.0811 Y5.6009
G01 X8.0728 Y5.6197
G01 X8.0413 Y5.6863
G01 X8.0320 Y5.7047
G01 X8.0219 Y5.7226
G01 X7.9840 Y5.7858
G01 X7.9730 Y5.8032
G01 X7.9611 Y5.8200
G01 X7.9173 Y5.8791
G01 X7.9046 Y5.8954
G01 X7.8912 Y5.9110
G01 X7.8417 Y5.9655
G01 X7.8275 Y5.9805
G01 X7.8126 Y5.9947
G01 X7.7580 Y6.0441
G01 X7.7424 Y6.0576
G01 X7.7262 Y6.0703
G01 X7.6671 Y6.1141
G01 X7.6502 Y6.1260
G01 X7.6328 Y6.1370
G01 X7.5697 Y6.1748
G01 X7.5517 Y6.1850
G01 X7.5333 Y6.1943
G01 X7.4668 Y6.2257
G01 X7.4479 Y6.2341
G01 X7.4287 Y6.2415
G01 X7.3594 Y6.2663
G01 X7.3398 Y6.2728
G01 X7.3200 Y6.2783
G01 X7.2486 Y6.2962
G01 X7.2285 Y6.3007
G01 X7.2081 Y6.3042
G01 X7.1353 Y6.3150
G01 X7.1149 Y6.3175
G01 X7.0943 Y6.3190
G01 X7.0208 Y6.3227
G01 X7.0002 Y6.3232
G01 X6.9796 Y6.3227
G01 X6.9061 Y6.3190
G01 X6.8855 Y6.3175
G01 X6.8651 Y6.3150
G01 X6.7923 Y6.3042
G01 X6.7719 Y6.3007
G01 X6.7518 Y6.2962
G01 X6.6804 Y6.2783
G01 X6.6606 Y6.2728
G01 X6.6410 Y6.2663
G01 X6.5717 Y6.2415
G01 X6.5525 Y6.2341
G01 X6.5336 Y6.2257
G01 X6.4671 Y6.1943
G01 X6.4487 Y6.1850
G01 X6.4307 Y6.1748
G01 X6.3676 Y6.1370
G01 X6.3502 Y6.1260
G01 X6.3333 Y6.1141
G01 X6.2742 Y6.0703
G01 X6.2580 Y6.0576
G01 X6.2424 Y6.0441
G01 X6.1878 Y5.9947
G01 X6.1729 Y5.9805
G01 X6.1587 Y5.9655
G01 X6.1092 Y5.9110
G01 X6.0958 Y5.8954
G01 X6.0831 Y5.8791
G01 X6.0393 Y5.8200
G01 X6.0274 Y5.8032
G01 X6.0164 Y5.7858
G01 X5.9785 Y5.7226
G01 X5.9684 Y5.7047
G01 X5.9591 Y5.6863
G01 X5.9276 Y5.6197
G01 X5.9193 Y5.6009
G01 X5.9118 Y5.5817
G01 X5.8870 Y5.5124
G01 X5.8806 Y5.4928
G01 X5.8751 Y5.4729
G01 X5.8572 Y5.4015
G01 X5.8527 Y5.3814
G01 X5.8492 Y5.3611
G01 X5.8384 Y5.2883
G01 X5.8358 Y5.2678
G01 X5.8343 Y5.2473
G01 X5.8307 Y5.1738
G01 X5.8302 Y5.1532
G01 X5.8307 Y5.1326
G01 X5.8343 Y5.0590
G01 X5.8358 Y5.0385
G01 X5.8384 Y5.0180
G01 X5.8492 Y4.9452
G01 X5.8527 Y4.9249
G01 X5.8572 Y4.9048
G01 X5.8751 Y4.8334
G01 X5.8806 Y4.8135
G01 X5.8870 Y4.7940
G01 X5.9118 Y4.7247
G01 X5.9193 Y4.7054
G01 X5.9276 Y4.6866
G01 X5.9591 Y4.6200
G01 X5.9684 Y4.6016
G01 X5.9785 Y4.5837
G01 X6.0164 Y4.5206
G01 X6.0274 Y4.5031
G01 X6.0393 Y4.4863
G01 X6.0831 Y4.4272
G01 X6.0958 Y4.4109
G01 X6.1092 Y4.3953
G01 X6.1587 Y4.3408
G01 X6.1729 Y4.3258
G01 X6.1878 Y4.3116
G01 X6.2424 Y4.2622
G01 X6.2580 Y4.2487
G01 X6.2742 Y4.2361
G01 X6.3333 Y4.1922
G01 X6.3502 Y4.1803
G01 X6.3676 Y4.1693
G01 X6.4307 Y4.1315
G01 X6.4487 Y4.1213
G01 X6.4671 Y4.1120
G01 X6.5336 Y4.0806
G01 X6.5525 Y4.0722
G01 X6.5717 Y4.0648
G01 X6.6410 Y4.0400
G01 X6.6606 Y4.0335
G01 X6.6804 Y4.0280
G01 X6.7518 Y4.0102
G01 X6.7719 Y4.0056
G01 X6.7923 Y4.0021
G01 X6.8651 Y3.9913
G01 X6.8855 Y3.9888
G01 X6.9061 Y3.9873
G01 X6.9796 Y3.9837
G01 X7.0002 Y3.9832
G01 X7.0208 Y3.9837
G01 X7.0943 Y3.9873
G01 X7.1149 Y3.9888
G01 X7.1353 Y3.9913
G01 X7.2081 Y4.0021
G01 X7.2285 Y4.0056
G01 X7.2486 Y4.0102
G01 X7.3200 Y4.0280
G01 X7.3398 Y4.0335
G01 X7.3594 Y4.0400
G01 X7.4287 Y4.0648
G01 X7.4479 Y4.0722
G01 X7.4668 Y4.0806
G01 X7.5333 Y4.1120
G01 X7.5517 Y4.1213
G01 X7.5697 Y4.1315
G01 X7.6328 Y4.1693
G01 X7.6502 Y4.1803
G01 X7.6671 Y4.1922
G01 X7.7262 Y4.2361
G01 X7.7424 Y4.2487
G01 X7.7580 Y4.2622
G01 X7.8126 Y4.3116
G01 X7.8275 Y4.3258
G01 X7.8417 Y4.3408
G01 X7.8912 Y4.3953
G01 X7.9046 Y4.4109
G01 X7.9173 Y4.4272
G01 X7.9611 Y4.4863
G01 X7.9730 Y4.5031
G01 X7.9840 Y4.5206
G01 X8.0219 Y4.5837
G01 X8.0320 Y4.6016
G01 X8.0413 Y4.6200
G01 X8.0728 Y4.6866
G01 X8.0811 Y4.7054
G01 X8.0886 Y4.7247
G01 X8.1134 Y4.7940
G01 X8.1198 Y4.8135
G01 X8.1253 Y4.8334
G01 X8.1432 Y4.9048
G01 X8.1477 Y4.9249
G01 X8.1512 Y4.9452
G01 X8.1620 Y5.0180
G01 X8.1646 Y5.0385
G01 X8.1655 Y5.0488
G00 Z2.0000
G00 X7.7085 Y6.4064
G01 F60.00
G01 Z-0.0800
G01 F120.00
G01 X7.7716 Y6.3686
G01 X7.8002 Y6.3505
G01 X7.8279 Y6.3310
G01 X7.8870 Y6.2871
G01 X7.9137 Y6.2663
G01 X7.9267 Y6.2554
G01 X7.9939 Y6.1947
G01 X8.0184 Y6.1714
G01 X8.0418 Y6.1469
G01 X8.0912 Y6.0923
G01 X8.1133 Y6.0667
G01 X8.1342 Y6.0400
G01 X8.1780 Y5.9809
G01 X8.1879 Y5.9671
G01 X8.2068 Y5.9390
G01 X8.2535 Y5.8614
G01 X8.2702 Y5.8319
G01 X8.2869 Y5.8614
G01 X8.3336 Y5.9390
G01 X8.3525 Y5.9671
G01 X8.3624 Y5.9809
G01 X8.4062 Y6.0400
G01 X8.4271 Y6.0667
G01 X8.4492 Y6.0923
G01 X8.4986 Y6.1469
G01 X8.5220 Y6.1714
G01 X8.5465 Y6.1947
G01 X8.6010 Y6.2442
G01 X8.6267 Y6.2663
G01 X8.6534 Y6.2871
G01 X8.7125 Y6.3310
G01 X8.7402 Y6.3505
G01 X8.7544 Y6.3597
G01 X8.8319 Y6.4064
G01 X8.8615 Y6.4232
G01 X8.8319 Y6.4399
G01 X8.7544 Y6.4866
G01 X8.7402 Y6.4958
G01 X8.7125 Y6.5153
G01 X8.6534 Y6.5592
G01 X8.6267 Y6.5800
G01 X8.6010 Y6.6021
G01 X8.5465 Y6.6516
G01 X8.5220 Y6.6749
G01 X8.4986 Y6.6995
G01 X8.4492 Y6.7540
G01 X8.4271 Y6.7796
G01 X8.4062 Y6.8063
G01 X8.3624 Y6.8654
G01 X8.3429 Y6.8931
G01 X8.3336 Y6.9073
G01 X8.2869 Y6.9849
G01 X8.2702 Y7.0144
G01 X8.2535 Y6.9849
G01 X8.2068 Y6.9073
G01 X8.1975 Y6.8931
G01 X8.1780 Y6.8654
G01 X8.1342 Y6.8063
G01 X8.1133 Y6.7796
G01 X8.0912 Y6.7540
G01 X8.0418 Y6.6995
G01 X8.0184 Y6.6749
G01 X7.9939 Y6.6516
G01 X7.9267 Y6.5909
G01 X7.9005 Y6.5694
G01 X7.8279 Y6.5153
G01 X7.8002 Y6.4958
G01 X7.7716 Y6.4777
G01 X7.7085 Y6.4399
G01 X7.6789 Y6.4232
G01 X7.7085 Y6.4064
G00 Z2.0000
G00 X7.8962 Y7.6086
G01 F60.00
G01 Z-0.0800
G01 F120.00
G01 X7.9002 Y7.6932
G01 X7.8959 Y7.7814
G01 X7.8829 Y7.8687
G01 X7.8614 Y7.9544
G01 X7.8317 Y8.0376
G01 X7.7939 Y8.1174
G01 X7.7485 Y8.1932
G01 X7.6959 Y8.2641
G01 X7.6366 Y8.3296
G01 X7.5712 Y8.3889
G01 X7.5002 Y8.4415
G01 X7.4245 Y8.4869
G01 X7.3446 Y8.5247
G01 X7.2615 Y8.5544
G01 X7.1758 Y8.5759
G01 X7.0884 Y8.5888
G01 X7.0002 Y8.5932
G01 X6.9120 Y8.5888
G01 X6.8246 Y8.5759
G01 X6.7389 Y8.5544
G01 X6.6558 Y8.5247
G01 X6.5759 Y8.4869
G01 X6.5002 Y8.4415
G01 X6.4292 Y8.3889
G01 X6.3638 Y8.3296
G01 X6.3045 Y8.2641
G01 X6.2519 Y8.1932
G01 X6.2065 Y8.1174
G01 X6.1687 Y8.0376
G01 X6.1390 Y7.9544
G01 X6.1175 Y7.8687
G01 X6.1045 Y7.7814
G01 X6.1002 Y7.6932
G01 X6.1045 Y7.6049
G01 X6.1175 Y7.5176
G01 X6.1390 Y7.4319
G01 X6.1687 Y7.3487
G01 X6.2065 Y7.2689
G01 X6.2519 Y7.1931
G01 X6.3045 Y7.1222
G01 X6.3638 Y7.0568
G01 X6.4292 Y6.9975
G01 X6.5002 Y6.9448
G01 X6.5759 Y6.8994
G01 X6.6558 Y6.8617
G01 X6.7389 Y6.8319
G01 X6.8246 Y6.8105
G01 X6.9120 Y6.7975
G01 X7.0002 Y6.7932
G01 X7.0884 Y6.7975
G01 X7.1758 Y6.8105
G01 X7.2615 Y6.8319
G01 X7.3446 Y6.8617
G01 X7.4245 Y6.8994
G01 X7.5002 Y6.9448
G01 X7.5712 Y6.9975
G01 X7.6366 Y7.0568
G01 X7.6959 Y7.1222
G01 X7.7485 Y7.1931
G01 X7.7939 Y7.2689
G01 X7.8317 Y7.3487
G01 X7.8614 Y7.4319
G01 X7.8829 Y7.5176
G01 X7.8950 Y7.5976
G01 X7.8962 Y7.6086
G00 Z2.0000
G00 X8.1655 Y7.5888
G01 F60.00
G01 Z-0.0800
G01 F120.00
G01 X8.1697 Y7.6726
G01 X8.1702 Y7.6932
G01 X8.1697 Y7.7138
G01 X8.1661 Y7.7873
G01 X8.1646 Y7.8078
G01 X8.1620 Y7.8283
G01 X8.1512 Y7.9011
G01 X8.1477 Y7.9214
G01 X8.1432 Y7.9415
G01 X8.1253 Y8.0129
G01 X8.1198 Y8.0328
G01 X8.1134 Y8.0524
G01 X8.0886 Y8.1217
G01 X8.0811 Y8.1409
G01 X8.0728 Y8.1597
G01 X8.0413 Y8.2263
G01 X8.0320 Y8.2447
G01 X8.0219 Y8.2626
G01 X7.9840 Y8.3258
G01 X7.9730 Y8.3432
G01 X7.9611 Y8.3600
G01 X7.9173 Y8.4191
G01 X7.9046 Y8.4354
G01 X7.8912 Y8.4510
G01 X7.8417 Y8.5055
G01 X7.8275 Y8.5205
G01 X7.8126 Y8.5347
G01 X7.7580 Y8.5841
G01 X7.7424 Y8.5976
G01 X7.7262 Y8.6103
G01 X7.6671 Y8.6541
G01 X7.6502 Y8.6660
G01 X7.6328 Y8.6770
G01 X7.5697 Y8.7148
G01 X7.5517 Y8.7250
G01 X7.5333 Y8.7343
G01 X7.4668 Y8.7657
G01 X7.4479 Y8.7741
G01 X7.4287 Y8.7815
G01 X7.3594 Y8.8063
G01 X7.3398 Y8.8128
G01 X7.3200 Y8.8183
G01 X7.2486 Y8.8362
G01 X7.2285 Y8.8407
G01 X7.2081 Y8.8442
G01 X7.1353 Y8.8550
G01 X7.1149 Y8.8575
G01 X7.0943 Y8.8590
G01 X7.0208 Y8.8627
G01 X7.0002 Y8.8632
G01 X6.9796 Y8.8627
G01 X6.9061 Y8.8590
G01 X6.8855 Y8.8575
G01 X6.8651 Y8.8550
G01 X6.7923 Y8.8442
G01 X6.7719 Y8.8407
G01 X6.7518 Y8.8362
G01 X6.6804 Y8.8183
G01 X6.6606 Y8.8128
G01 X6.6410 Y8.8063
G01 X6.5717 Y8.7815
G01 X6.5525 Y8.7741
G01 X6.5336 Y8.7657
G01 X6.4671 Y8.7343
G01 X6.4487 Y8.7250
G01 X6.4307 Y8.7148
G01 X6.3676 Y8.6770
G01 X6.3502 Y8.6660
G01 X6.3333 Y8.6541
G01 X6.2742 Y8.6103
G01 X6.2580 Y8.5976
G01 X6.2424 Y8.5841
G01 X6.1878 Y8.5347
G01 X6.1729 Y8.5205
G01 X6.1587 Y8.5055
G01 X6.1092 Y8.4510
G01 X6.0958 Y8.4354
G01 X6.0831 Y8.4191
G01 X6.0393 Y8.3600
G01 X6.0274 Y8.3432
G01 X6.0164 Y8.3258
G01 X5.9785 Y8.2626
G01 X5.9684 Y8.2447
G01 X5.9591 Y8.2263
G01 X5.9276 Y8.1597
G01 X5.9193 Y8.1409
G01 X5.9118 Y8.1217
G01 X5.8870 Y8.0524
G01 X5.8806 Y8.0328
G01 X5.8751 Y8.0129
G01 X5.8572 Y7.9415
G01 X5.8527 Y7.9214
G01 X5.8492 Y7.9011
G01 X5.8384 Y7.8283
G01 X5.8358 Y7.8078
G01 X5.8343 Y7.7873
G01 X5.8307 Y7.7138
G01 X5.8302 Y7.6932
G01 X5.8307 Y7.6726
G01 X5.8343 Y7.5990
G01 X5.8358 Y7.5785
G01 X5.8384 Y7.5580
G01 X5.8492 Y7.4852
G01 X5.8527 Y7.4649
G01 X5.8572 Y7.4448
G01 X5.8751 Y7.3734
G01 X5.8806 Y7.3535
G01 X5.8870 Y7.3340
G01 X5.9118 Y7.2647
G01 X5.9193 Y7.2454
G01 X5.9276 Y7.2266
G01 X5.9591 Y7.1600
G01 X5.9684 Y7.1416
G01 X5.9785 Y7.1237
G01 X6.0164 Y7.0606
G01 X6.0274 Y7.0431
G01 X6.0393 Y7.0263
G01 X6.0831 Y6.9672
G01 X6.0958 Y6.9509
G01 X6.1092 Y6.9353
G01 X6.1587 Y6.8808
G01 X6.1729 Y6.8658
G01 X6.1878 Y6.8516
G01 X6.2424 Y6.8022
G01 X6.2580 Y6.7887
G01 X6.2742 Y6.7761
G01 X6.3333 Y6.7322
G01 X6.3502 Y6.7203
G01 X6.3676 Y6.7093
G01 X6.4307 Y6.6715
G01 X6.4487 Y6.6613
G01 X6.4671 Y6.6520
G01 X6.5336 Y6.6206
G01 X6.5525 Y6.6122
G01 X6.5717 Y6.6048
G01 X6.6410 Y6.5800
G01 X6.6606 Y6.5735
G01 X6.6804 Y6.5680
G01 X6.7518 Y6.5502
G01 X6.7719 Y6.5456
G01 X6.7923 Y6.5421
G01 X6.8651 Y6.5313
G01 X6.8855 Y6.5288
G01 X6.9061 Y6.5273
G01 X6.9796 Y6.5237
G01 X7.0002 Y6.5232
G01 X7.0208 Y6.5237
G01 X7.0943 Y6.5273
G01 X7.1149 Y6.5288
G01 X7.1353 Y6.5313
G01 X7.2081 Y6.5421
G01 X7.2285 Y6.5456
G01 X7.2486 Y6.5502
G01 X7.3200 Y6.5680
G01 X7.3398 Y6.5735
G01 X7.3594 Y6.5800
G01 X7.4287 Y6.6048
G01 X7.4479 Y6.6122
G01 X7.4668 Y6.6206
G01 X7.5333 Y6.6520
G01 X7.5517 Y6.6613
G01 X7.5697 Y6.6715
G01 X7.6328 Y6.7093
G01 X7.6502 Y6.7203
G01 X7.6671 Y6.7322
G01 X7.7262 Y6.7761
G01 X7.7424 Y6.7887
G01 X7.7580 Y6.8022
G01 X7.8126 Y6.8516
G01 X7.8275 Y6.8658
G01 X7.8417 Y6.8808
G01 X7.8912 Y6.9353
G01 X7.9046 Y6.9509
G01 X7.9173 Y6.9672
G01 X7.9611 Y7.0263
G01 X7.9730 Y7.0431
G01 X7.9840 Y7.0606
G01 X8.0219 Y7.1237
G01 X8.0320 Y7.1416
G01 X8.0413 Y7.1600
G01 X8.0728 Y7.2266
G01 X8.0811 Y7.2454
G01 X8.0886 Y7.2647
G01 X8.1134 Y7.3340
G01 X8.1198 Y7.3535
G01 X8.1253 Y7.3734
G01 X8.1432 Y7.4448
G01 X8.1477 Y7.4649
G01 X8.1512 Y7.4852
G01 X8.1620 Y7.5580
G01 X8.1646 Y7.5785
G01 X8.1655 Y7.5888
G00 Z2.0000
G00 X10.4362 Y7.6086
G01 F60.00
G01 Z-0.0800
G01 F120.00
G01 X10.4402 Y7.6932
G01 X10.4359 Y7.7814
G01 X10.4229 Y7.8687
G01 X10.4014 Y7.9544
G01 X10.3717 Y8.0376
G01 X10.3339 Y8.1174
G01 X10.2885 Y8.1932
G01 X10.2359 Y8.2641
G01 X10.1766 Y8.3296
G01 X10.1112 Y8.3889
G01 X10.0402 Y8.4415
G01 X9.9645 Y8.4869
G01 X9.8846 Y8.5247
G01 X9.8015 Y8.5544
G01 X9.7158 Y8.5759
G01 X9.6284 Y8.5888
G01 X9.5402 Y8.5932
G01 X9.4520 Y8.5888
G01 X9.3646 Y8.5759
G01 X9.2789 Y8.5544
G01 X9.1958 Y8.5247
G01 X9.1159 Y8.4869
G01 X9.0402 Y8.4415
G01 X8.9692 Y8.3889
G01 X8.9038 Y8.3296
G01 X8.8445 Y8.2641
G01 X8.7919 Y8.1932
G01 X8.7465 Y8.1174
G01 X8.7087 Y8.0376
G01 X8.6790 Y7.9544
G01 X8.6575 Y7.8687
G01 X8.6445 Y7.7814
G01 X8.6402 Y7.6932
G01 X8.6445 Y7.6049
G01 X8.6575 Y7.5176
G01 X8.6790 Y7.4319
G01 X8.7087 Y7.3487
G01 X8.7465 Y7.2689
G01 X8.7919 Y7.1931
G01 X8.8445 Y7.1222
G01 X8.9038 Y7.0568
G01 X8.9692 Y6.9975
G01 X9.0402 Y6.9448
G01 X9.1159 Y6.8994
G01 X9.1958 Y6.8617
G01 X9.2789 Y6.8319
G01 X9.3646 Y6.8105
G01 X9.4520 Y6.7975
G01 X9.5402 Y6.7932
G01 X9.6284 Y6.7975
G01 X9.7158 Y6.8105
G01 X9.8015 Y6.8319
G01 X9.8846 Y6.8617
G01 X9.9645 Y6.8994
G01 X10.0402 Y6.9448
G01 X10.1112 Y6.9975
G01 X10.1766 Y7.0568
G01 X10.2359 Y7.1222
G01 X10.2885 Y7.1931
G01 X10.3339 Y7.2689
G01 X10.3717 Y7.3487
G01 X10.4014 Y7.4319
G01 X10.4229 Y7.5176
G01 X10.4350 Y7.5976
G01 X10.4362 Y7.6086
G00 Z2.0000
G00 X10.7055 Y7.5888
G01 F60.00
G01 Z-0.0800
G01 F120.00
G01 X10.7097 Y7.6726
G01 X10.7102 Y7.6932
G01 X10.7097 Y7.7138
G01 X10.7061 Y7.7873
G01 X10.7046 Y7.8078
G01 X10.7020 Y7.8283
G01 X10.6912 Y7.9011
G01 X10.6877 Y7.9214
G01 X10.6832 Y7.9415
G01 X10.6653 Y8.0129
G01 X10.6598 Y8.0328
G01 X10.6534 Y8.0524
G01 X10.6286 Y8.1217
G01 X10.6211 Y8.1409
G01 X10.6128 Y8.1597
G01 X10.5813 Y8.2263
G01 X10.5720 Y8.2447
G01 X10.5619 Y8.2626
G01 X10.5240 Y8.3258
G01 X10.5130 Y8.3432
G01 X10.5011 Y8.3600
G01 X10.4573 Y8.4191
G01 X10.4446 Y8.4354
G01 X10.4312 Y8.4510
G01 X10.3817 Y8.5055
G01 X10.3675 Y8.5205
G01 X10.3526 Y8.5347
G01 X10.2980 Y8.5841
G01 X10.2824 Y8.5976
G01 X10.2662 Y8.6103
G01 X10.2071 Y8.6541
G01 X10.1902 Y8.6660
G01 X10.1728 Y8.6770
G01 X10.1097 Y8.7148
G01 X10.0917 Y8.7250
G01 X10.0733 Y8.7343
G01 X10.0068 Y8.7657
G01 X9.9879 Y8.7741
G01 X9.9687 Y8.7815
G01 X9.8994 Y8.8063
G01 X9.8798 Y8.8128
G01 X9.8600 Y8.8183
G01 X9.7886 Y8.8362
G01 X9.7685 Y8.8407
G01 X9.7481 Y8.8442
G01 X9.6753 Y8.8550
G01 X9.6549 Y8.8575
G01 X9.6343 Y8.8590
G01 X9.5608 Y8.8627
G01 X9.5402 Y8.8632
G01 X9.5196 Y8.8627
G01 X9.4461 Y8.8590
G01 X9.4255 Y8.8575
G01 X9.4051 Y8.8550
G01 X9.3323 Y8.8442
G01 X9.3119 Y8.8407
G01 X9.2918 Y8.8362
G01 X9.2204 Y8.8183
G01 X9.2006 Y8.8128
G01 X9.1810 Y8.8063
G01 X9.1117 Y8.7815
G01 X9.0925 Y8.7741
G01 X9.0736 Y8.7657
G01 X9.0071 Y8.7343
G01 X8.9887 Y8.7250
G01 X8.9707 Y8.7148
G01 X8.9076 Y8.6770
G01 X8.8902 Y8.6660
G01 X8.8733 Y8.6541
G01 X8.8142 Y8.6103
G01 X8.7980 Y8.5976
G01 X8.7824 Y8.5841
G01 X8.7278 Y8.5347
G01 X8.7129 Y8.5205
G01 X8.6987 Y8.5055
G01 X8.6492 Y8.4510
G01 X8.6358 Y8.4354
G01 X8.6231 Y8.4191
G01 X8.5793 Y8.3600
G01 X8.5674 Y8.3432
G01 X8.5564 Y8.3258
G01 X8.5185 Y8.2626
G01 X8.5084 Y8.2447
G01 X8.4991 Y8.2263
G01 X8.4676 Y8.1597
G01 X8.4593 Y8.1409
G01 X8.4518 Y8.1217
G01 X8.4270 Y8.0524
G01 X8.4206 Y8.0328
G01 X8.4151 Y8.0129
G01 X8.3972 Y7.9415
G01 X8.3927 Y7.9214
G01 X8.3892 Y7.9011
G01 X8.3784 Y7.8283
G01 X8.3758 Y7.8078
G01 X8.3743 Y7.7873
G01 X8.3707 Y7.7138
G01 X8.3702 Y7.6932
G01 X8.3707 Y7.6726
G01 X8.3743 Y7.5990
G01 X8.3758 Y7.5785
G01 X8.3784 Y7.5580
G01 X8.3892 Y7.4852
G01 X8.3927 Y7.4649
G01 X8.3972 Y7.4448
G01 X8.4151 Y7.3734
G01 X8.4206 Y7.3535
G01 X8.4270 Y7.3340
G01 X8.4518 Y7.2647
G01 X8.4593 Y7.2454
G01 X8.4676 Y7.2266
G01 X8.4991 Y7.1600
G01 X8.5084 Y7.1416
G01 X8.5185 Y7.1237
G01 X8.5564 Y7.0606
G01 X8.5674 Y7.0431
G01 X8.5793 Y7.0263
G01 X8.6231 Y6.9672
G01 X8.6358 Y6.9509
G01 X8.6492 Y6.9353
G01 X8.6987 Y6.8808
G01 X8.7129 Y6.8658
G01 X8.7278 Y6.8516
G01 X8.7824 Y6.8022
G01 X8.7980 Y6.7887
G01 X8.8142 Y6.7761
G01 X8.8733 Y6.7322
G01 X8.8902 Y6.7203
G01 X8.9076 Y6.7093
G01 X8.9707 Y6.6715
G01 X8.9887 Y6.6613
G01 X9.0071 Y6.6520
G01 X9.0736 Y6.6206
G01 X9.0925 Y6.6122
G01 X9.1117 Y6.6048
G01 X9.1810 Y6.5800
G01 X9.2006 Y6.5735
G01 X9.2204 Y6.5680
G01 X9.2918 Y6.5502
G01 X9.3119 Y6.5456
G01 X9.3323 Y6.5421
G01 X9.4051 Y6.5313
G01 X9.4255 Y6.5288
G01 X9.4461 Y6.5273
G01 X9.5196 Y6.5237
G01 X9.5402 Y6.5232
G01 X9.5608 Y6.5237
G01 X9.6343 Y6.5273
G01 X9.6549 Y6.5288
G01 X9.6753 Y6.5313
G01 X9.7481 Y6.5421
G01 X9.7685 Y6.5456
G01 X9.7886 Y6.5502
G01 X9.8600 Y6.5680
G01 X9.8798 Y6.5735
G01 X9.8994 Y6.5800
G01 X9.9687 Y6.6048
G01 X9.9879 Y6.6122
G01 X10.0068 Y6.6206
G01 X10.0733 Y6.6520
G01 X10.0917 Y6.6613
G01 X10.1097 Y6.6715
G01 X10.1728 Y6.7093
G01 X10.1902 Y6.7203
G01 X10.2071 Y6.7322
G01 X10.2662 Y6.7761
G01 X10.2824 Y6.7887
G01 X10.2980 Y6.8022
G01 X10.3526 Y6.8516
G01 X10.3675 Y6.8658
G01 X10.3817 Y6.8808
G01 X10.4312 Y6.9353
G01 X10.4446 Y6.9509
G01 X10.4573 Y6.9672
G01 X10.5011 Y7.0263
G01 X10.5130 Y7.0431
G01 X10.5240 Y7.0606
G01 X10.5619 Y7.1237
G01 X10.5720 Y7.1416
G01 X10.5813 Y7.1600
G01 X10.6128 Y7.2266
G01 X10.6211 Y7.2454
G01 X10.6286 Y7.2647
G01 X10.6534 Y7.3340
G01 X10.6598 Y7.3535
G01 X10.6653 Y7.3734
G01 X10.6832 Y7.4448
G01 X10.6877 Y7.4649
G01 X10.6912 Y7.4852
G01 X10.7020 Y7.5580
G01 X10.7046 Y7.5785
G01 X10.7055 Y7.5888
G00 Z2.0000
G00 X10.2485 Y6.4064
G01 F60.00
G01 Z-0.0800
G01 F120.00
G01 X10.3116 Y6.3686
G01 X10.3402 Y6.3505
G01 X10.3679 Y6.3310
G01 X10.4270 Y6.2871
G01 X10.4537 Y6.2663
G01 X10.4667 Y6.2554
G01 X10.5339 Y6.1947
G01 X10.5584 Y6.1714
G01 X10.5818 Y6.1469
G01 X10.6312 Y6.0923
G01 X10.6533 Y6.0667
G01 X10.6742 Y6.0400
G01 X10.7180 Y5.9809
G01 X10.7375 Y5.9532
G01 X10.7468 Y5.9390
G01 X10.7935 Y5.8614
G01 X10.8102 Y5.8319
G01 X10.8269 Y5.8614
G01 X10.8736 Y5.9390
G01 X10.8925 Y5.9671
G01 X10.9024 Y5.9809
G01 X10.9462 Y6.0400
G01 X10.9671 Y6.0667
G01 X10.9892 Y6.0923
G01 X11.0386 Y6.1469
G01 X11.0620 Y6.1714
G01 X11.0865 Y6.1947
G01 X11.1410 Y6.2442
G01 X11.1667 Y6.2663
G01 X11.1934 Y6.2871
G01 X11.2525 Y6.3310
G01 X11.2802 Y6.3505
G01 X11.2944 Y6.3597
G01 X11.3719 Y6.4064
G01 X11.4015 Y6.4232
G01 X11.3719 Y6.4399
G01 X11.2944 Y6.4866
G01 X11.2802 Y6.4958
G01 X11.2525 Y6.5153
G01 X11.1934 Y6.5592
G01 X11.1667 Y6.5800
G01 X11.1410 Y6.6021
G01 X11.0865 Y6.6516
G01 X11.0620 Y6.6749
G01 X11.0386 Y6.6995
G01 X10.9892 Y6.7540
G01 X10.9671 Y6.7796
G01 X10.9462 Y6.8063
G01 X10.9024 Y6.8654
G01 X10.8829 Y6.8931
G01 X10.8736 Y6.9073
G01 X10.8269 Y6.9849
G01 X10.8102 Y7.0144
G01 X10.7935 Y6.9849
G01 X10.7468 Y6.9073
G01 X10.7375 Y6.8931
G01 X10.7180 Y6.8654
G01 X10.6742 Y6.8063
G01 X10.6533 Y6.7796
G01 X10.6312 Y6.7540
G01 X10.5818 Y6.6995
G01 X10.5584 Y6.6749
G01 X10.5339 Y6.6516
G01 X10.4667 Y6.5909
G01 X10.4405 Y6.5694
G01 X10.3679 Y6.5153
G01 X10.3402 Y6.4958
G01 X10.3116 Y6.4777
G01 X10.2485 Y6.4399
G01 X10.2189 Y6.4232
G01 X10.2485 Y6.4064
G00 Z2.0000
G00 X10.4362 Y5.0686
G01 F60.00
G01 Z-0.0800
G01 F120.00
G01 X10.4402 Y5.1532
G01 X10.4359 Y5.2414
G01 X10.4229 Y5.3287
G01 X10.4014 Y5.4144
G01 X10.3717 Y5.4976
G01 X10.3339 Y5.5774
G01 X10.2885 Y5.6532
G01 X10.2359 Y5.7241
G01 X10.1766 Y5.7896
G01 X10.1112 Y5.8489
G01 X10.0402 Y5.9015
G01 X9.9645 Y5.9469
G01 X9.8846 Y5.9847
G01 X9.8015 Y6.0144
G01 X9.7158 Y6.0359
G01 X9.6284 Y6.0488
G01 X9.5402 Y6.0532
G01 X9.4520 Y6.0488
G01 X9.3646 Y6.0359
G01 X9.2789 Y6.0144
G01 X9.1958 Y5.9847
G01 X9.1159 Y5.9469
G01 X9.0402 Y5.9015
G01 X8.9692 Y5.8489
G01 X8.9038 Y5.7896
G01 X8.8445 Y5.7241
G01 X8.7919 Y5.6532
G01 X8.7465 Y5.5774
G01 X8.7087 Y5.4976
G01 X8.6790 Y5.4144
G01 X8.6575 Y5.3287
G01 X8.6445 Y5.2414
G01 X8.6402 Y5.1532
G01 X8.6445 Y5.0649
G01 X8.6575 Y4.9776
G01 X8.6790 Y4.8919
G01 X8.7087 Y4.8087
G01 X8.7465 Y4.7289
G01 X8.7919 Y4.6531
G01 X8.8445 Y4.5822
G01 X8.9038 Y4.5168
G01 X8.9692 Y4.4575
G01 X9.0402 Y4.4048
G01 X9.1159 Y4.3594
G01 X9.1958 Y4.3217
G01 X9.2789 Y4.2919
G01 X9.3646 Y4.2705
G01 X9.4520 Y4.2575
G01 X9.5402 Y4.2532
G01 X9.6284 Y4.2575
G01 X9.7158 Y4.2705
G01 X9.8015 Y4.2919
G01 X9.8846 Y4.3217
G01 X9.9645 Y4.3594
G01 X10.0402 Y4.4048
G01 X10.1112 Y4.4575
G01 X10.1766 Y4.5168
G01 X10.2359 Y4.5822
G01 X10.2885 Y4.6531
G01 X10.3339 Y4.7289
G01 X10.3717 Y4.8087
G01 X10.4014 Y4.8919
G01 X10.4229 Y4.9776
G01 X10.4350 Y5.0576
G01 X10.4362 Y5.0686
G00 Z2.0000
G00 X10.7055 Y5.0488
G01 F60.00
G01 Z-0.0800
G01 F120.00
G01 X10.7097 Y5.1326
G01 X10.7102 Y5.1532
G01 X10.7097 Y5.1738
G01 X10.7061 Y5.2473
G01 X10.7046 Y5.2678
G01 X10.7020 Y5.2883
G01 X10.6912 Y5.3611
G01 X10.6877 Y5.3814
G01 X10.6832 Y5.4015
G01 X10.6653 Y5.4729
G01 X10.6598 Y5.4928
G01 X10.6534 Y5.5124
G01 X10.6286 Y5.5817
G01 X10.6211 Y5.6009
G01 X10.6128 Y5.6197
G01 X10.5813 Y5.6863
G01 X10.5720 Y5.7047
G01 X10.5619 Y5.7226
G01 X10.5240 Y5.7858
G01 X10.5130 Y5.8032
G01 X10.5011 Y5.8200
G01 X10.4573 Y5.8791
G01 X10.4446 Y5.8954
G01 X10.4312 Y5.9110
G01 X10.3817 Y5.9655
G01 X10.3675 Y5.9805
G01 X10.3526 Y5.9947
G01 X10.2980 Y6.0441
G01 X10.2824 Y6.0576
G01 X10.2662 Y6.0703
G01 X10.2071 Y6.1141
G01 X10.1902 Y6.1260
G01 X10.1728 Y6.1370
G01 X10.1097 Y6.1748
G01 X10.0917 Y6.1850
G01 X10.0733 Y6.1943
G01 X10.0068 Y6.2257
G01 X9.9879 Y6.2341
G01 X9.9687 Y6.2415
G01 X9.8994 Y6.2663
G01 X9.8798 Y6.2728
G01 X9.8600 Y6.2783
G01 X9.7886 Y6.2962
G01 X9.7685 Y6.3007
G01 X9.7481 Y6.3042
G01 X9.6753 Y6.3150
G01 X9.6549 Y6.3175
G01 X9.6343 Y6.3190
G01 X9.5608 Y6.3227
G01 X9.5402 Y6.3232
G01 X9.5196 Y6.3227
G01 X9.4461 Y6.3190
G01 X9.4255 Y6.3175
G01 X9.4051 Y6.3150
G01 X9.3323 Y6.3042
G01 X9.3119 Y6.3007
G01 X9.2918 Y6.2962
G01 X9.2204 Y6.2783
G01 X9.2006 Y6.2728
G01 X9.1810 Y6.2663
G01 X9.1117 Y6.2415
G01 X9.0925 Y6.2341
G01 X9.0736 Y6.2257
G01 X9.0071 Y6.1943
G01 X8.9887 Y6.1850
G01 X8.9707 Y6.1748
G01 X8.9076 Y6.1370
G01 X8.8902 Y6.1260
G01 X8.8733 Y6.1141
G01 X8.8142 Y6.0703
G01 X8.7980 Y6.0576
G01 X8.7824 Y6.0441
G01 X8.7278 Y5.9947
G01 X8.7129 Y5.9805
G01 X8.6987 Y5.9655
G01 X8.6492 Y5.9110
G01 X8.6358 Y5.8954
G01 X8.6231 Y5.8791
G01 X8.5793 Y5.8200
G01 X8.5674 Y5.8032
G01 X8.5564 Y5.7858
G01 X8.5185 Y5.7226
G01 X8.5084 Y5.7047
G01 X8.4991 Y5.6863
G01 X8.4676 Y5.6197
G01 X8.4593 Y5.6009
G01 X8.4518 Y5.5817
G01 X8.4270 Y5.5124
G01 X8.4206 Y5.4928
G01 X8.4151 Y5.4729
G01 X8.3972 Y5.4015
G01 X8.3927 Y5.3814
G01 X8.3892 Y5.3611
G01 X8.3784 Y5.2883
G01 X8.3758 Y5.2678
G01 X8.3743 Y5.2473
G01 X8.3707 Y5.1738
G01 X8.3702 Y5.1532
G01 X8.3707 Y5.1326
G01 X8.3743 Y5.0590
G01 X8.3758 Y5.0385
G01 X8.3784 Y5.0180
G01 X8.3892 Y4.9452
G01 X8.3927 Y4.9249
G01 X8.3972 Y4.9048
G01 X8.4151 Y4.8334
G01 X8.4206 Y4.8135
G01 X8.4270 Y4.7940
G01 X8.4518 Y4.7247
G01 X8.4593 Y4.7054
G01 X8.4676 Y4.6866
G01 X8.4991 Y4.6200
G01 X8.5084 Y4.6016
G01 X8.5185 Y4.5837
G01 X8.5564 Y4.5206
G01 X8.5674 Y4.5031
G01 X8.5793 Y4.4863
G01 X8.6231 Y4.4272
G01 X8.6358 Y4.4109
G01 X8.6492 Y4.3953
G01 X8.6987 Y4.3408
G01 X8.7129 Y4.3258
G01 X8.7278 Y4.3116
G01 X8.7824 Y4.2622
G01 X8.7980 Y4.2487
G01 X8.8142 Y4.2361
G01 X8.8733 Y4.1922
G01 X8.8902 Y4.1803
G01 X8.9076 Y4.1693
G01 X8.9707 Y4.1315
G01 X8.9887 Y4.1213
G01 X9.0071 Y4.1120
G01 X9.0736 Y4.0806
G01 X9.0925 Y4.0722
G01 X9.1117 Y4.0648
G01 X9.1810 Y4.0400
G01 X9.2006 Y4.0335
G01 X9.2204 Y4.0280
G01 X9.2918 Y4.0102
G01 X9.3119 Y4.0056
G01 X9.3323 Y4.0021
G01 X9.4051 Y3.9913
G01 X9.4255 Y3.9888
G01 X9.4461 Y3.9873
G01 X9.5196 Y3.9837
G01 X9.5402 Y3.9832
G01 X9.5608 Y3.9837
G01 X9.6343 Y3.9873
G01 X9.6549 Y3.9888
G01 X9.6753 Y3.9913
G01 X9.7481 Y4.0021
G01 X9.7685 Y4.0056
G01 X9.7886 Y4.0102
G01 X9.8600 Y4.0280
G01 X9.8798 Y4.0335
G01 X9.8994 Y4.0400
G01 X9.9687 Y4.0648
G01 X9.9879 Y4.0722
G01 X10.0068 Y4.0806
G01 X10.0733 Y4.1120
G01 X10.0917 Y4.1213
G01 X10.1097 Y4.1315
G01 X10.1728 Y4.1693
G01 X10.1902 Y4.1803
G01 X10.2071 Y4.1922
G01 X10.2662 Y4.2361
G01 X10.2824 Y4.2487
G01 X10.2980 Y4.2622
G01 X10.3526 Y4.3116
G01 X10.3675 Y4.3258
G01 X10.3817 Y4.3408
G01 X10.4312 Y4.3953
G01 X10.4446 Y4.4109
G01 X10.4573 Y4.4272
G01 X10.5011 Y4.4863
G01 X10.5130 Y4.5031
G01 X10.5240 Y4.5206
G01 X10.5619 Y4.5837
G01 X10.5720 Y4.6016
G01 X10.5813 Y4.6200
G01 X10.6128 Y4.6866
G01 X10.6211 Y4.7054
G01 X10.6286 Y4.7247
G01 X10.6534 Y4.7940
G01 X10.6598 Y4.8135
G01 X10.6653 Y4.8334
G01 X10.6832 Y4.9048
G01 X10.6877 Y4.9249
G01 X10.6912 Y4.9452
G01 X10.7020 Y5.0180
G01 X10.7046 Y5.0385
G01 X10.7055 Y5.0488
G00 Z2.0000
G00 X12.9762 Y5.0686
G01 F60.00
G01 Z-0.0800
G01 F120.00
G01 X12.9802 Y5.1532
G01 X12.9759 Y5.2414
G01 X12.9629 Y5.3287
G01 X12.9414 Y5.4144
G01 X12.9117 Y5.4976
G01 X12.8739 Y5.5774
G01 X12.8285 Y5.6532
G01 X12.7759 Y5.7241
G01 X12.7166 Y5.7896
G01 X12.6512 Y5.8489
G01 X12.5802 Y5.9015
G01 X12.5045 Y5.9469
G01 X12.4246 Y5.9847
G01 X12.3415 Y6.0144
G01 X12.2558 Y6.0359
G01 X12.1684 Y6.0488
G01 X12.0802 Y6.0532
G01 X11.9920 Y6.0488
G01 X11.9046 Y6.0359
G01 X11.8189 Y6.0144
G01 X11.7358 Y5.9847
G01 X11.6559 Y5.9469
G01 X11.5802 Y5.9015
G01 X11.5092 Y5.8489
G01 X11.4438 Y5.7896
G01 X11.3845 Y5.7241
G01 X11.3319 Y5.6532
G01 X11.2865 Y5.5774
G01 X11.2487 Y5.4976
G01 X11.2190 Y5.4144
G01 X11.1975 Y5.3287
G01 X11.1845 Y5.2414
G01 X11.1802 Y5.1532
G01 X11.1845 Y5.0649
G01 X11.1975 Y4.9776
G01 X11.2190 Y4.8919
G01 X11.2487 Y4.8087
G01 X11.2865 Y4.7289
G01 X11.3319 Y4.6531
G01 X11.3845 Y4.5822
G01 X11.4438 Y4.5168
G01 X11.5092 Y4.4575
G01 X11.5802 Y4.4048
G01 X11.6559 Y4.3594
G01 X11.7358 Y4.3217
G01 X11.8189 Y4.2919
G01 X11.9046 Y4.2705
G01 X11.9920 Y4.2575
G01 X12.0802 Y4.2532
G01 X12.1684 Y4.2575
G01 X12.2558 Y4.2705
G01 X12.3415 Y4.2919
G01 X12.4246 Y4.3217
G01 X12.5045 Y4.3594
G01 X12.5802 Y4.4048
G01 X12.6512 Y4.4575
G01 X12.7166 Y4.5168
G01 X12.7759 Y4.5822
G01 X12.8285 Y4.6531
G01 X12.8739 Y4.7289
G01 X12.9117 Y4.8087
G01 X12.9414 Y4.8919
G01 X12.9629 Y4.9776
G01 X12.9750 Y5.0576
G01 X12.9762 Y5.0686
G00 Z2.0000
G00 X13.2455 Y5.0488
G01 F60.00
G01 Z-0.0800
G01 F120.00
G01 X13.2497 Y5.1326
G01 X13.2502 Y5.1532
G01 X13.2497 Y5.1738
G01 X13.2461 Y5.2473
G01 X13.2446 Y5.2678
G01 X13.2420 Y5.2883
G01 X13.2312 Y5.3611
G01 X13.2277 Y5.3814
G01 X13.2232 Y5.4015
G01 X13.2053 Y5.4729
G01 X13.1998 Y5.4928
G01 X13.1934 Y5.5124
G01 X13.1686 Y5.5817
G01 X13.1611 Y5.6009
G01 X13.1528 Y5.6197
G01 X13.1213 Y5.6863
G01 X13.1120 Y5.7047
G01 X13.1019 Y5.7226
G01 X13.0640 Y5.7858
G01 X13.0530 Y5.8032
G01 X13.0411 Y5.8200
G01 X12.9973 Y5.8791
G01 X12.9846 Y5.8954
G01 X12.9712 Y5.9110
G01 X12.9217 Y5.9655
G01 X12.9075 Y5.9805
G01 X12.8926 Y5.9947
G01 X12.8380 Y6.0441
G01 X12.8224 Y6.0576
G01 X12.8062 Y6.0703
G01 X12.7471 Y6.1141
G01 X12.7302 Y6.1260
G01 X12.7128 Y6.1370
G01 X12.6497 Y6.1748
G01 X12.6317 Y6.1850
G01 X12.6133 Y6.1943
G01 X12.5468 Y6.2257
G01 X12.5279 Y6.2341
G01 X12.5087 Y6.2415
G01 X12.4394 Y6.2663
G01 X12.4198 Y6.2728
G01 X12.4000 Y6.2783
G01 X12.3286 Y6.2962
G01 X12.3085 Y6.3007
G01 X12.2881 Y6.3042
G01 X12.2153 Y6.3150
G01 X12.1949 Y6.3175
G01 X12.1743 Y6.3190
G01 X12.1008 Y6.3227
G01 X12.0802 Y6.3232
G01 X12.0596 Y6.3227
G01 X11.9861 Y6.3190
G01 X11.9655 Y6.3175
G01 X11.9451 Y6.3150
G01 X11.8723 Y6.3042
G01 X11.8519 Y6.3007
G01 X11.8318 Y6.2962
G01 X11.7604 Y6.2783
G01 X11.7406 Y6.2728
G01 X11.7210 Y6.2663
G01 X11.6517 Y6.2415
G01 X11.6325 Y6.2341
G01 X11.6136 Y6.2257
G01 X11.5471 Y6.1943
G01 X11.5287 Y6.1850
G01 X11.5107 Y6.1748
G01 X11.4476 Y6.1370
G01 X11.4302 Y6.1260
G01 X11.4133 Y6.1141
G01 X11.3542 Y6.0703
G01 X11.3380 Y6.0576
G01 X11.3224 Y6.0441
G01 X11.2678 Y5.9947
G01 X11.2529 Y5.9805
G01 X11.2387 Y5.9655
G01 X11.1892 Y5.9110
G01 X11.1758 Y5.8954
G01 X11.1631 Y5.8791
G01 X11.1193 Y5.8200
G01 X11.1074 Y5.8032
G01 X11.0964 Y5.7858
G01 X11.0585 Y5.7226
G01 X11.0484 Y5.7047
G01 X11.0391 Y5.6863
G01 X11.0076 Y5.6197
G01 X10.9993 Y5.6009
G01 X10.9918 Y5.5817
G01 X10.9670 Y5.5124
G01 X10.9606 Y5.4928
G01 X10.9551 Y5.4729
G01 X10.9372 Y5.4015
G01 X10.9327 Y5.3814
G01 X10.9292 Y5.3611
G01 X10.9184 Y5.2883
G01 X10.9158 Y5.2678
G01 X10.9143 Y5.2473
G01 X10.9107 Y5.1738
G01 X10.9102 Y5.1532
G01 X10.9107 Y5.1326
G01 X10.9143 Y5.0590
G01 X10.9158 Y5.0385
G01 X10.9184 Y5.0180
G01 X10.9292 Y4.9452
G01 X10.9327 Y4.9249
G01 X10.9372 Y4.9048
G01 X10.9551 Y4.8334
G01 X10.9606 Y4.8135
G01 X10.9670 Y4.7940
G01 X10.9918 Y4.7247
G01 X10.9993 Y4.7054
G01 X11.0076 Y4.6866
G01 X11.0391 Y4.6200
G01 X11.0484 Y4.6016
G01 X11.0585 Y4.5837
G01 X11.0964 Y4.5206
G01 X11.1074 Y4.5031
G01 X11.1193 Y4.4863
G01 X11.1631 Y4.4272
G01 X11.1758 Y4.4109
G01 X11.1892 Y4.3953
G01 X11.2387 Y4.3408
G01 X11.2529 Y4.3258
G01 X11.2678 Y4.3116
G01 X11.3224 Y4.2622
G01 X11.3380 Y4.2487
G01 X11.3542 Y4.2361
G01 X11.4133 Y4.1922
G01 X11.4302 Y4.1803
G01 X11.4476 Y4.1693
G01 X11.5107 Y4.1315
G01 X11.5287 Y4.1213
G01 X11.5471 Y4.1120
G01 X11.6136 Y4.0806
G01 X11.6325 Y4.0722
G01 X11.6517 Y4.0648
G01 X11.7210 Y4.0400
G01 X11.7406 Y4.0335
G01 X11.7604 Y4.0280
G01 X11.8318 Y4.0102
G01 X11.8519 Y4.0056
G01 X11.8723 Y4.0021
G01 X11.9451 Y3.9913
G01 X11.9655 Y3.9888
G01 X11.9861 Y3.9873
G01 X12.0596 Y3.9837
G01 X12.0802 Y3.9832
G01 X12.1008 Y3.9837
G01 X12.1743 Y3.9873
G01 X12.1949 Y3.9888
G01 X12.2153 Y3.9913
G01 X12.2881 Y4.0021
G01 X12.3085 Y4.0056
G01 X12.3286 Y4.0102
G01 X12.4000 Y4.0280
G01 X12.4198 Y4.0335
G01 X12.4394 Y4.0400
G01 X12.5087 Y4.0648
G01 X12.5279 Y4.0722
G01 X12.5468 Y4.0806
G01 X12.6133 Y4.1120
G01 X12.6317 Y4.1213
G01 X12.6497 Y4.1315
G01 X12.7128 Y4.1693
G01 X12.7302 Y4.1803
G01 X12.7471 Y4.1922
G01 X12.8062 Y4.2361
G01 X12.8224 Y4.2487
G01 X12.8380 Y4.2622
G01 X12.8926 Y4.3116
G01 X12.9075 Y4.3258
G01 X12.9217 Y4.3408
G01 X12.9712 Y4.3953
G01 X12.9846 Y4.4109
G01 X12.9973 Y4.4272
G01 X13.0411 Y4.4863
G01 X13.0530 Y4.5031
G01 X13.0640 Y4.5206
G01 X13.1019 Y4.5837
G01 X13.1120 Y4.6016
G01 X13.1213 Y4.6200
G01 X13.1528 Y4.6866
G01 X13.1611 Y4.7054
G01 X13.1686 Y4.7247
G01 X13.1934 Y4.7940
G01 X13.1998 Y4.8135
G01 X13.2053 Y4.8334
G01 X13.2232 Y4.9048
G01 X13.2277 Y4.9249
G01 X13.2312 Y4.9452
G01 X13.2420 Y5.0180
G01 X13.2446 Y5.0385
G01 X13.2455 Y5.0488
G00 Z2.0000
G00 X12.7885 Y6.4064
G01 F60.00
G01 Z-0.0800
G01 F120.00
G01 X12.8516 Y6.3686
G01 X12.8802 Y6.3505
G01 X12.9079 Y6.3310
G01 X12.9670 Y6.2871
G01 X12.9937 Y6.2663
G01 X13.0067 Y6.2554
G01 X13.0739 Y6.1947
G01 X13.0984 Y6.1714
G01 X13.1218 Y6.1469
G01 X13.1712 Y6.0923
G01 X13.1933 Y6.0667
G01 X13.2142 Y6.0400
G01 X13.2580 Y5.9809
G01 X13.2775 Y5.9532
G01 X13.2868 Y5.9390
G01 X13.3335 Y5.8614
G01 X13.3502 Y5.8319
G01 X13.3669 Y5.8614
G01 X13.4136 Y5.9390
G01 X13.4325 Y5.9671
G01 X13.4424 Y5.9809
G01 X13.4862 Y6.0400
G01 X13.5071 Y6.0667
G01 X13.5292 Y6.0923
G01 X13.5786 Y6.1469
G01 X13.6020 Y6.1714
G01 X13.6265 Y6.1947
G01 X13.6810 Y6.2442
G01 X13.7067 Y6.2663
G01 X13.7334 Y6.2871
G01 X13.7925 Y6.3310
G01 X13.8202 Y6.3505
G01 X13.8344 Y6.3597
G01 X13.9119 Y6.4064
G01 X13.9415 Y6.4232
G01 X13.9119 Y6.4399
G01 X13.8344 Y6.4866
G01 X13.8202 Y6.4958
G01 X13.7925 Y6.5153
G01 X13.7334 Y6.5592
G01 X13.7067 Y6.5800
G01 X13.6810 Y6.6021
G01 X13.6265 Y6.6516
G01 X13.6020 Y6.6749
G01 X13.5786 Y6.6995
G01 X13.5292 Y6.7540
G01 X13.5071 Y6.7796
G01 X13.4862 Y6.8063
G01 X13.4424 Y6.8654
G01 X13.4229 Y6.8931
G01 X13.4136 Y6.9073
G01 X13.3669 Y6.9849
G01 X13.3502 Y7.0144
G01 X13.3335 Y6.9849
G01 X13.2868 Y6.9073
G01 X13.2679 Y6.8792
G01 X13.2580 Y6.8654
G01 X13.2142 Y6.8063
G01 X13.1933 Y6.7796
G01 X13.1712 Y6.7540
G01 X13.1218 Y6.6995
G01 X13.0984 Y6.6749
G01 X13.0739 Y6.6516
G01 X13.0067 Y6.5909
G01 X12.9805 Y6.5694
G01 X12.9079 Y6.5153
G01 X12.8802 Y6.4958
G01 X12.8516 Y6.4777
G01 X12.7885 Y6.4399
G01 X12.7589 Y6.4232
G01 X12.7885 Y6.4064
G00 Z2.0000
G00 X12.9762 Y7.6086
G01 F60.00
G01 Z-0.0800
G01 F120.00
G01 X12.9802 Y7.6932
G01 X12.9759 Y7.7814
G01 X12.9629 Y7.8687
G01 X12.9414 Y7.9544
G01 X12.9117 Y8.0376
G01 X12.8739 Y8.1174
G01 X12.8285 Y8.1932
G01 X12.7759 Y8.2641
G01 X12.7166 Y8.3296
G01 X12.6512 Y8.3889
G01 X12.5802 Y8.4415
G01 X12.5045 Y8.4869
G01 X12.4246 Y8.5247
G01 X12.3415 Y8.5544
G01 X12.2558 Y8.5759
G01 X12.1684 Y8.5888
G01 X12.0802 Y8.5932
G01 X11.9920 Y8.5888
G01 X11.9046 Y8.5759
G01 X11.8189 Y8.5544
G01 X11.7358 Y8.5247
G01 X11.6559 Y8.4869
G01 X11.5802 Y8.4415
G01 X11.5092 Y8.3889
G01 X11.4438 Y8.3296
G01 X11.3845 Y8.2641
G01 X11.3319 Y8.1932
G01 X11.2865 Y8.1174
G01 X11.2487 Y8.0376
G01 X11.2190 Y7.9544
G01 X11.1975 Y7.8687
G01 X11.1845 Y7.7814
G01 X11.1802 Y7.6932
G01 X11.1845 Y7.6049
G01 X11.1975 Y7.5176
G01 X11.2190 Y7.4319
G01 X11.2487 Y7.3487
G01 X11.2865 Y7.2689
G01 X11.3319 Y7.1931
G01 X11.3845 Y7.1222
G01 X11.4438 Y7.0568
G01 X11.5092 Y6.9975
G01 X11.5802 Y6.9448
G01 X11.6559 Y6.8994
G01 X11.7358 Y6.8617
G01 X11.8189 Y6.8319
G01 X11.9046 Y6.8105
G01 X11.9920 Y6.7975
G01 X12.0802 Y6.7932
G01 X12.1684 Y6.7975
G01 X12.2558 Y6.8105
G01 X12.3415 Y6.8319
G01 X12.4246 Y6.8617
G01 X12.5045 Y6.8994
G01 X12.5802 Y6.9448
G01 X12.6512 Y6.9975
G01 X12.7166 Y7.0568
G01 X12.7759 Y7.1222
G01 X12.8285 Y7.1931
G01 X12.8739 Y7.2689
G01 X12.9117 Y7.3487
G01 X12.9414 Y7.4319
G01 X12.9629 Y7.5176
G01 X12.9750 Y7.5976
G01 X12.9762 Y7.6086
G00 Z2.0000
G00 X13.2455 Y7.5888
G01 F60.00
G01 Z-0.0800
G01 F120.00
G01 X13.2497 Y7.6726
G01 X13.2502 Y7.6932
G01 X13.2497 Y7.7138
G01 X13.2461 Y7.7873
G01 X13.2446 Y7.8078
G01 X13.2420 Y7.8283
G01 X13.2312 Y7.9011
G01 X13.2277 Y7.9214
G01 X13.2232 Y7.9415
G01 X13.2053 Y8.0129
G01 X13.1998 Y8.0328
G01 X13.1934 Y8.0524
G01 X13.1686 Y8.1217
G01 X13.1611 Y8.1409
G01 X13.1528 Y8.1597
G01 X13.1213 Y8.2263
G01 X13.1120 Y8.2447
G01 X13.1019 Y8.2626
G01 X13.0640 Y8.3258
G01 X13.0530 Y8.3432
G01 X13.0411 Y8.3600
G01 X12.9973 Y8.4191
G01 X12.9846 Y8.4354
G01 X12.9712 Y8.4510
G01 X12.9217 Y8.5055
G01 X12.9075 Y8.5205
G01 X12.8926 Y8.5347
G01 X12.8380 Y8.5841
G01 X12.8224 Y8.5976
G01 X12.8062 Y8.6103
G01 X12.7471 Y8.6541
G01 X12.7302 Y8.6660
G01 X12.7128 Y8.6770
G01 X12.6497 Y8.7148
G01 X12.6317 Y8.7250
G01 X12.6133 Y8.7343
G01 X12.5468 Y8.7657
G01 X12.5279 Y8.7741
G01 X12.5087 Y8.7815
G01 X12.4394 Y8.8063
G01 X12.4198 Y8.8128
G01 X12.4000 Y8.8183
G01 X12.3286 Y8.8362
G01 X12.3085 Y8.8407
G01 X12.2881 Y8.8442
G01 X12.2153 Y8.8550
G01 X12.1949 Y8.8575
G01 X12.1743 Y8.8590
G01 X12.1008 Y8.8627
G01 X12.0802 Y8.8632
G01 X12.0596 Y8.8627
G01 X11.9861 Y8.8590
G01 X11.9655 Y8.8575
G01 X11.9451 Y8.8550
G01 X11.8723 Y8.8442
G01 X11.8519 Y8.8407
G01 X11.8318 Y8.8362
G01 X11.7604 Y8.8183
G01 X11.7406 Y8.8128
G01 X11.7210 Y8.8063
G01 X11.6517 Y8.7815
G01 X11.6325 Y8.7741
G01 X11.6136 Y8.7657
G01 X11.5471 Y8.7343
G01 X11.5287 Y8.7250
G01 X11.5107 Y8.7148
G01 X11.4476 Y8.6770
G01 X11.4302 Y8.6660
G01 X11.4133 Y8.6541
G01 X11.3542 Y8.6103
G01 X11.3380 Y8.5976
G01 X11.3224 Y8.5841
G01 X11.2678 Y8.5347
G01 X11.2529 Y8.5205
G01 X11.2387 Y8.5055
G01 X11.1892 Y8.4510
G01 X11.1758 Y8.4354
G01 X11.1631 Y8.4191
G01 X11.1193 Y8.3600
G01 X11.1074 Y8.3432
G01 X11.0964 Y8.3258
G01 X11.0585 Y8.2626
G01 X11.0484 Y8.2447
G01 X11.0391 Y8.2263
G01 X11.0076 Y8.1597
G01 X10.9993 Y8.1409
G01 X10.9918 Y8.1217
G01 X10.9670 Y8.0524
G01 X10.9606 Y8.0328
G01 X10.9551 Y8.0129
G01 X10.9372 Y7.9415
G01 X10.9327 Y7.9214
G01 X10.9292 Y7.9011
G01 X10.9184 Y7.8283
G01 X10.9158 Y7.8078
G01 X10.9143 Y7.7873
G01 X10.9107 Y7.7138
G01 X10.9102 Y7.6932
G01 X10.9107 Y7.6726
G01 X10.9143 Y7.5990
G01 X10.9158 Y7.5785
G01 X10.9184 Y7.5580
G01 X10.9292 Y7.4852
G01 X10.9327 Y7.4649
G01 X10.9372 Y7.4448
G01 X10.9551 Y7.3734
G01 X10.9606 Y7.3535
G01 X10.9670 Y7.3340
G01 X10.9918 Y7.2647
G01 X10.9993 Y7.2454
G01 X11.0076 Y7.2266
G01 X11.0391 Y7.1600
G01 X11.0484 Y7.1416
G01 X11.0585 Y7.1237
G01 X11.0964 Y7.0606
G01 X11.1074 Y7.0431
G01 X11.1193 Y7.0263
G01 X11.1631 Y6.9672
G01 X11.1758 Y6.9509
G01 X11.1892 Y6.9353
G01 X11.2387 Y6.8808
G01 X11.2529 Y6.8658
G01 X11.2678 Y6.8516
G01 X11.3224 Y6.8022
G01 X11.3380 Y6.7887
G01 X11.3542 Y6.7761
G01 X11.4133 Y6.7322
G01 X11.4302 Y6.7203
G01 X11.4476 Y6.7093
G01 X11.5107 Y6.6715
G01 X11.5287 Y6.6613
G01 X11.5471 Y6.6520
G01 X11.6136 Y6.6206
G01 X11.6325 Y6.6122
G01 X11.6517 Y6.6048
G01 X11.7210 Y6.5800
G01 X11.7406 Y6.5735
G01 X11.7604 Y6.5680
G01 X11.8318 Y6.5502
G01 X11.8519 Y6.5456
G01 X11.8723 Y6.5421
G01 X11.9451 Y6.5313
G01 X11.9655 Y6.5288
G01 X11.9861 Y6.5273
G01 X12.0596 Y6.5237
G01 X12.0802 Y6.5232
G01 X12.1008 Y6.5237
G01 X12.1743 Y6.5273
G01 X12.1949 Y6.5288
G01 X12.2153 Y6.5313
G01 X12.2881 Y6.5421
G01 X12.3085 Y6.5456
G01 X12.3286 Y6.5502
G01 X12.4000 Y6.5680
G01 X12.4198 Y6.5735
G01 X12.4394 Y6.5800
G01 X12.5087 Y6.6048
G01 X12.5279 Y6.6122
G01 X12.5468 Y6.6206
G01 X12.6133 Y6.6520
G01 X12.6317 Y6.6613
G01 X12.6497 Y6.6715
G01 X12.7128 Y6.7093
G01 X12.7302 Y6.7203
G01 X12.7471 Y6.7322
G01 X12.8062 Y6.7761
G01 X12.8224 Y6.7887
G01 X12.8380 Y6.8022
G01 X12.8926 Y6.8516
G01 X12.9075 Y6.8658
G01 X12.9217 Y6.8808
G01 X12.9712 Y6.9353
G01 X12.9846 Y6.9509
G01 X12.9973 Y6.9672
G01 X13.0411 Y7.0263
G01 X13.0530 Y7.0431
G01 X13.0640 Y7.0606
G01 X13.1019 Y7.1237
G01 X13.1120 Y7.1416
G01 X13.1213 Y7.1600
G01 X13.1528 Y7.2266
G01 X13.1611 Y7.2454
G01 X13.1686 Y7.2647
G01 X13.1934 Y7.3340
G01 X13.1998 Y7.3535
G01 X13.2053 Y7.3734
G01 X13.2232 Y7.4448
G01 X13.2277 Y7.4649
G01 X13.2312 Y7.4852
G01 X13.2420 Y7.5580
G01 X13.2446 Y7.5785
G01 X13.2455 Y7.5888
G00 Z2.0000
G00 X15.5162 Y7.6086
G01 F60.00
G01 Z-0.0800
G01 F120.00
G01 X15.5202 Y7.6932
G01 X15.5159 Y7.7814
G01 X15.5029 Y7.8687
G01 X15.4814 Y7.9544
G01 X15.4517 Y8.0376
G01 X15.4139 Y8.1174
G01 X15.3685 Y8.1932
G01 X15.3159 Y8.2641
G01 X15.2566 Y8.3296
G01 X15.1912 Y8.3889
G01 X15.1202 Y8.4415
G01 X15.0445 Y8.4869
G01 X14.9646 Y8.5247
G01 X14.8815 Y8.5544
G01 X14.7958 Y8.5759
G01 X14.7084 Y8.5888
G01 X14.6202 Y8.5932
G01 X14.5320 Y8.5888
G01 X14.4446 Y8.5759
G01 X14.3589 Y8.5544
G01 X14.2758 Y8.5247
G01 X14.1959 Y8.4869
G01 X14.1202 Y8.4415
G01 X14.0492 Y8.3889
G01 X13.9838 Y8.3296
G01 X13.9245 Y8.2641
G01 X13.8719 Y8.1932
G01 X13.8265 Y8.1174
G01 X13.7887 Y8.0376
G01 X13.7590 Y7.9544
G01 X13.7375 Y7.8687
G01 X13.7245 Y7.7814
G01 X13.7202 Y7.6932
G01 X13.7245 Y7.6049
G01 X13.7375 Y7.5176
G01 X13.7590 Y7.4319
G01 X13.7887 Y7.3487
G01 X13.8265 Y7.2689
G01 X13.8719 Y7.1931
G01 X13.9245 Y7.1222
G01 X13.9838 Y7.0568
G01 X14.0492 Y6.9975
G01 X14.1202 Y6.9448
G01 X14.1959 Y6.8994
G01 X14.2758 Y6.8617
G01 X14.3589 Y6.8319
G01 X14.4446 Y6.8105
G01 X14.5320 Y6.7975
G01 X14.6202 Y6.7932
G01 X14.7084 Y6.7975
G01 X14.7958 Y6.8105
G01 X14.8815 Y6.8319
G01 X14.9646 Y6.8617
G01 X15.0445 Y6.8994
G01 X15.1202 Y6.9448
G01 X15.1912 Y6.9975
G01 X15.2566 Y7.0568
G01 X15.3159 Y7.1222
G01 X15.3685 Y7.1931
G01 X15.4139 Y7.2689
G01 X15.4517 Y7.3487
G01 X15.4814 Y7.4319
G01 X15.5029 Y7.5176
G01 X15.5150 Y7.5976
G01 X15.5162 Y7.6086
G00 Z2.0000
G00 X15.7855 Y7.5888
G01 F60.00
G01 Z-0.0800
G01 F120.00
G01 X15.7897 Y7.6726
G01 X15.7902 Y7.6932
G01 X15.7897 Y7.7138
G01 X15.7861 Y7.7873
G01 X15.7846 Y7.8078
G01 X15.7820 Y7.8283
G01 X15.7712 Y7.9011
G01 X15.7677 Y7.9214
G01 X15.7632 Y7.9415
G01 X15.7453 Y8.0129
G01 X15.7398 Y8.0328
G01 X15.7334 Y8.0524
G01 X15.7086 Y8.1217
G01 X15.7011 Y8.1409
G01 X15.6928 Y8.1597
G01 X15.6613 Y8.2263
G01 X15.6520 Y8.2447
G01 X15.6419 Y8.2626
G01 X15.6040 Y8.3258
G01 X15.5930 Y8.3432
G01 X15.5811 Y8.3600
G01 X15.5373 Y8.4191
G01 X15.5246 Y8.4354
G01 X15.5112 Y8.4510
G01 X15.4617 Y8.5055
G01 X15.4475 Y8.5205
G01 X15.4326 Y8.5347
G01 X15.3780 Y8.5841
G01 X15.3624 Y8.5976
G01 X15.3462 Y8.6103
G01 X15.2871 Y8.6541
G01 X15.2702 Y8.6660
G01 X15.2528 Y8.6770
G01 X15.1897 Y8.7148
G01 X15.1717 Y8.7250
G01 X15.1533 Y8.7343
G01 X15.0868 Y8.7657
G01 X15.0679 Y8.7741
G01 X15.0487 Y8.7815
G01 X14.9794 Y8.8063
G01 X14.9598 Y8.8128
G01 X14.9400 Y8.8183
G01 X14.8686 Y8.8362
G01 X14.8485 Y8.8407
G01 X14.8281 Y8.8442
G01 X14.7553 Y8.8550
G01 X14.7349 Y8.8575
G01 X14.7143 Y8.8590
G01 X14.6408 Y8.8627
G01 X14.6202 Y8.8632
G01 X14.5996 Y8.8627
G01 X14.5261 Y8.8590
G01 X14.5055 Y8.8575
G01 X14.4851 Y8.8550
G01 X14.4123 Y8.8442
G01 X14.3919 Y8.8407
G01 X14.3718 Y8.8362
G01 X14.3004 Y8.8183
G01 X14.2806 Y8.8128
G01 X14.2610 Y8.8063
G01 X14.1917 Y8.7815
G01 X14.1725 Y8.7741
G01 X14.1536 Y8.7657
G01 X14.0871 Y8.7343
G01 X14.0687 Y8.7250
G01 X14.0507 Y8.7148
G01 X13.9876 Y8.6770
G01 X13.9702 Y8.6660
G01 X13.9533 Y8.6541
G01 X13.8942 Y8.6103
G01 X13.8780 Y8.5976
G01 X13.8624 Y8.5841
G01 X13.8078 Y8.5347
G01 X13.7929 Y8.5205
G01 X13.7787 Y8.5055
G01 X13.7292 Y8.4510
G01 X13.7158 Y8.4354
G01 X13.7031 Y8.4191
G01 X13.6593 Y8.3600
G01 X13.6474 Y8.3432
G01 X13.6364 Y8.3258
G01 X13.5985 Y8.2626
G01 X13.5884 Y8.2447
G01 X13.5791 Y8.2263
G01 X13.5476 Y8.1597
G01 X13.5393 Y8.1409
G01 X13.5318 Y8.1217
G01 X13.5070 Y8.0524
G01 X13.5006 Y8.0328
G01 X13.4951 Y8.0129
G01 X13.4772 Y7.9415
G01 X13.4727 Y7.9214
G01 X13.4692 Y7.9011
G01 X13.4584 Y7.8283
G01 X13.4558 Y7.8078
G01 X13.4543 Y7.7873
G01 X13.4507 Y7.7138
G01 X13.4502 Y7.6932
G01 X13.4507 Y7.6726
G01 X13.4543 Y7.5990
G01 X13.4558 Y7.5785
G01 X13.4584 Y7.5580
G01 X13.4692 Y7.4852
G01 X13.4727 Y7.4649
G01 X13.4772 Y7.4448
G01 X13.4951 Y7.3734
G01 X13.5006 Y7.3535
G01 X13.5070 Y7.3340
G01 X13.5318 Y7.2647
G01 X13.5393 Y7.2454
G01 X13.5476 Y7.2266
G01 X13.5791 Y7.1600
G01 X13.5884 Y7.1416
G01 X13.5985 Y7.1237
G01 X13.6364 Y7.0606
G01 X13.6474 Y7.0431
G01 X13.6593 Y7.0263
G01 X13.7031 Y6.9672
G01 X13.7158 Y6.9509
G01 X13.7292 Y6.9353
G01 X13.7787 Y6.8808
G01 X13.7929 Y6.8658
G01 X13.8078 Y6.8516
G01 X13.8624 Y6.8022
G01 X13.8780 Y6.7887
G01 X13.8942 Y6.7761
G01 X13.9533 Y6.7322
G01 X13.9702 Y6.7203
G01 X13.9876 Y6.7093
G01 X14.0507 Y6.6715
G01 X14.0687 Y6.6613
G01 X14.0871 Y6.6520
G01 X14.1536 Y6.6206
G01 X14.1725 Y6.6122
G01 X14.1917 Y6.6048
G01 X14.2610 Y6.5800
G01 X14.2806 Y6.5735
G01 X14.3004 Y6.5680
G01 X14.3718 Y6.5502
G01 X14.3919 Y6.5456
G01 X14.4123 Y6.5421
G01 X14.4851 Y6.5313
G01 X14.5055 Y6.5288
G01 X14.5261 Y6.5273
G01 X14.5996 Y6.5237
G01 X14.6202 Y6.5232
G01 X14.6408 Y6.5237
G01 X14.7143 Y6.5273
G01 X14.7349 Y6.5288
G01 X14.7553 Y6.5313
G01 X14.8281 Y6.5421
G01 X14.8485 Y6.5456
G01 X14.8686 Y6.5502
G01 X14.9400 Y6.5680
G01 X14.9598 Y6.5735
G01 X14.9794 Y6.5800
G01 X15.0487 Y6.6048
G01 X15.0679 Y6.6122
G01 X15.0868 Y6.6206
G01 X15.1533 Y6.6520
G01 X15.1717 Y6.6613
G01 X15.1897 Y6.6715
G01 X15.2528 Y6.7093
G01 X15.2702 Y6.7203
G01 X15.2871 Y6.7322
G01 X15.3462 Y6.7761
G01 X15.3624 Y6.7887
G01 X15.3780 Y6.8022
G01 X15.4326 Y6.8516
G01 X15.4475 Y6.8658
G01 X15.4617 Y6.8808
G01 X15.5112 Y6.9353
G01 X15.5246 Y6.9509
G01 X15.5373 Y6.9672
G01 X15.5811 Y7.0263
G01 X15.5930 Y7.0431
G01 X15.6040 Y7.0606
G01 X15.6419 Y7.1237
G01 X15.6520 Y7.1416
G01 X15.6613 Y7.1600
G01 X15.6928 Y7.2266
G01 X15.7011 Y7.2454
G01 X15.7086 Y7.2647
G01 X15.7334 Y7.3340
G01 X15.7398 Y7.3535
G01 X15.7453 Y7.3734
G01 X15.7632 Y7.4448
G01 X15.7677 Y7.4649
G01 X15.7712 Y7.4852
G01 X15.7820 Y7.5580
G01 X15.7846 Y7.5785
G01 X15.7855 Y7.5888
G00 Z2.0000
G00 X15.3285 Y6.4064
G01 F60.00
G01 Z-0.0800
G01 F120.00
G01 X15.3916 Y6.3686
G01 X15.4202 Y6.3505
G01 X15.4479 Y6.3310
G01 X15.5070 Y6.2871
G01 X15.5337 Y6.2663
G01 X15.5467 Y6.2554
G01 X15.6139 Y6.1947
G01 X15.6384 Y6.1714
G01 X15.6618 Y6.1469
G01 X15.7112 Y6.0923
G01 X15.7333 Y6.0667
G01 X15.7542 Y6.0400
G01 X15.7980 Y5.9809
G01 X15.8175 Y5.9532
G01 X15.8268 Y5.9390
G01 X15.8735 Y5.8614
G01 X15.8902 Y5.8319
G01 X15.9069 Y5.8614
G01 X15.9536 Y5.9390
G01 X15.9629 Y5.9532
G01 X15.9824 Y5.9809
G01 X16.0262 Y6.0400
G01 X16.0471 Y6.0667
G01 X16.0692 Y6.0923
G01 X16.1186 Y6.1469
G01 X16.1420 Y6.1714
G01 X16.1665 Y6.1947
G01 X16.2210 Y6.2442
G01 X16.2467 Y6.2663
G01 X16.2734 Y6.2871
G01 X16.3325 Y6.3310
G01 X16.3602 Y6.3505
G01 X16.3744 Y6.3597
G01 X16.4519 Y6.4064
G01 X16.4815 Y6.4232
G01 X16.4519 Y6.4399
G01 X16.3744 Y6.4866
G01 X16.3462 Y6.5054
G01 X16.3325 Y6.5153
G01 X16.2734 Y6.5592
G01 X16.2467 Y6.5800
G01 X16.2210 Y6.6021
G01 X16.1665 Y6.6516
G01 X16.1420 Y6.6749
G01 X16.1186 Y6.6995
G01 X16.0692 Y6.7540
G01 X16.0471 Y6.7796
G01 X16.0262 Y6.8063
G01 X15.9824 Y6.8654
G01 X15.9629 Y6.8931
G01 X15.9536 Y6.9073
G01 X15.9069 Y6.9849
G01 X15.8902 Y7.0144
G01 X15.8735 Y6.9849
G01 X15.8268 Y6.9073
G01 X15.8079 Y6.8792
G01 X15.7980 Y6.8654
G01 X15.7542 Y6.8063
G01 X15.7333 Y6.7796
G01 X15.7112 Y6.7540
G01 X15.6618 Y6.6995
G01 X15.6384 Y6.6749
G01 X15.6139 Y6.6516
G01 X15.5467 Y6.5909
G01 X15.5205 Y6.5694
G01 X15.4479 Y6.5153
G01 X15.4202 Y6.4958
G01 X15.3916 Y6.4777
G01 X15.3285 Y6.4399
G01 X15.2989 Y6.4232
G01 X15.3285 Y6.4064
G00 Z2.0000
G00 X15.5162 Y5.0686
G01 F60.00
G01 Z-0.0800
G01 F120.00
G01 X15.5202 Y5.1532
G01 X15.5159 Y5.2414
G01 X15.5029 Y5.3287
G01 X15.4814 Y5.4144
G01 X15.4517 Y5.4976
G01 X15.4139 Y5.5774
G01 X15.3685 Y5.6532
G01 X15.3159 Y5.7241
G01 X15.2566 Y5.7896
G01 X15.1912 Y5.8489
G01 X15.1202 Y5.9015
G01 X15.0445 Y5.9469
G01 X14.9646 Y5.9847
G01 X14.8815 Y6.0144
G01 X14.7958 Y6.0359
G01 X14.7084 Y6.0488
G01 X14.6202 Y6.0532
G01 X14.5320 Y6.0488
G01 X14.4446 Y6.0359
G01 X14.3589 Y6.0144
G01 X14.2758 Y5.9847
G01 X14.1959 Y5.9469
G01 X14.1202 Y5.9015
G01 X14.0492 Y5.8489
G01 X13.9838 Y5.7896
G01 X13.9245 Y5.7241
G01 X13.8719 Y5.6532
G01 X13.8265 Y5.5774
G01 X13.7887 Y5.4976
G01 X13.7590 Y5.4144
G01 X13.7375 Y5.3287
G01 X13.7245 Y5.2414
G01 X13.7202 Y5.1532
G01 X13.7245 Y5.0649
G01 X13.7375 Y4.9776
G01 X13.7590 Y4.8919
G01 X13.7887 Y4.8087
G01 X13.8265 Y4.7289
G01 X13.8719 Y4.6531
G01 X13.9245 Y4.5822
G01 X13.9838 Y4.5168
G01 X14.0492 Y4.4575
G01 X14.1202 Y4.4048
G01 X14.1959 Y4.3594
G01 X14.2758 Y4.3217
G01 X14.3589 Y4.2919
G01 X14.4446 Y4.2705
G01 X14.5320 Y4.2575
G01 X14.6202 Y4.2532
G01 X14.7084 Y4.2575
G01 X14.7958 Y4.2705
G01 X14.8815 Y4.2919
G01 X14.9646 Y4.3217
G01 X15.0445 Y4.3594
G01 X15.1202 Y4.4048
G01 X15.1912 Y4.4575
G01 X15.2566 Y4.5168
G01 X15.3159 Y4.5822
G01 X15.3685 Y4.6531
G01 X15.4139 Y4.7289
G01 X15.4517 Y4.8087
G01 X15.4814 Y4.8919
G01 X15.5029 Y4.9776
G01 X15.5150 Y5.0576
G01 X15.5162 Y5.0686
G00 Z2.0000
G00 X15.7855 Y5.0488
G01 F60.00
G01 Z-0.0800
G01 F120.00
G01 X15.7897 Y5.1326
G01 X15.7902 Y5.1532
G01 X15.7897 Y5.1738
G01 X15.7861 Y5.2473
G01 X15.7846 Y5.2678
G01 X15.7820 Y5.2883
G01 X15.7712 Y5.3611
G01 X15.7677 Y5.3814
G01 X15.7632 Y5.4015
G01 X15.7453 Y5.4729
G01 X15.7398 Y5.4928
G01 X15.7334 Y5.5124
G01 X15.7086 Y5.5817
G01 X15.7011 Y5.6009
G01 X15.6928 Y5.6197
G01 X15.6613 Y5.6863
G01 X15.6520 Y5.7047
G01 X15.6419 Y5.7226
G01 X15.6040 Y5.7858
G01 X15.5930 Y5.8032
G01 X15.5811 Y5.8200
G01 X15.5373 Y5.8791
G01 X15.5246 Y5.8954
G01 X15.5112 Y5.9110
G01 X15.4617 Y5.9655
G01 X15.4475 Y5.9805
G01 X15.4326 Y5.9947
G01 X15.3780 Y6.0441
G01 X15.3624 Y6.0576
G01 X15.3462 Y6.0703
G01 X15.2871 Y6.1141
G01 X15.2702 Y6.1260
G01 X15.2528 Y6.1370
G01 X15.1897 Y6.1748
G01 X15.1717 Y6.1850
G01 X15.1533 Y6.1943
G01 X15.0868 Y6.2257
G01 X15.0679 Y6.2341
G01 X15.0487 Y6.2415
G01 X14.9794 Y6.2663
G01 X14.9598 Y6.2728
G01 X14.9400 Y6.2783
G01 X14.8686 Y6.2962
G01 X14.8485 Y6.3007
G01 X14.8281 Y6.3042
G01 X14.7553 Y6.3150
G01 X14.7349 Y6.3175
G01 X14.7143 Y6.3190
G01 X14.6408 Y6.3227
G01 X14.6202 Y6.3232
G01 X14.5996 Y6.3227
G01 X14.5261 Y6.3190
G01 X14.5055 Y6.3175
G01 X14.4851 Y6.3150
G01 X14.4123 Y6.3042
G01 X14.3919 Y6.3007
G01 X14.3718 Y6.2962
G01 X14.3004 Y6.2783
G01 X14.2806 Y6.2728
G01 X14.2610 Y6.2663
G01 X14.1917 Y6.2415
G01 X14.1725 Y6.2341
G01 X14.1536 Y6.2257
G01 X14.0871 Y6.1943
G01 X14.0687 Y6.1850
G01 X14.0507 Y6.1748
G01 X13.9876 Y6.1370
G01 X13.9702 Y6.1260
G01 X13.9533 Y6.1141
G01 X13.8942 Y6.0703
G01 X13.8780 Y6.0576
G01 X13.8624 Y6.0441
G01 X13.8078 Y5.9947
G01 X13.7929 Y5.9805
G01 X13.7787 Y5.9655
G01 X13.7292 Y5.9110
G01 X13.7158 Y5.8954
G01 X13.7031 Y5.8791
G01 X13.6593 Y5.8200
G01 X13.6474 Y5.8032
G01 X13.6364 Y5.7858
G01 X13.5985 Y5.7226
G01 X13.5884 Y5.7047
G01 X13.5791 Y5.6863
G01 X13.5476 Y5.6197
G01 X13.5393 Y5.6009
G01 X13.5318 Y5.5817
G01 X13.5070 Y5.5124
G01 X13.5006 Y5.4928
G01 X13.4951 Y5.4729
G01 X13.4772 Y5.4015
G01 X13.4727 Y5.3814
G01 X13.4692 Y5.3611
G01 X13.4584 Y5.2883
G01 X13.4558 Y5.2678
G01 X13.4543 Y5.2473
G01 X13.4507 Y5.1738
G01 X13.4502 Y5.1532
G01 X13.4507 Y5.1326
G01 X13.4543 Y5.0590
G01 X13.4558 Y5.0385
G01 X13.4584 Y5.0180
G01 X13.4692 Y4.9452
G01 X13.4727 Y4.9249
G01 X13.4772 Y4.9048
G01 X13.4951 Y4.8334
G01 X13.5006 Y4.8135
G01 X13.5070 Y4.7940
G01 X13.5318 Y4.7247
G01 X13.5393 Y4.7054
G01 X13.5476 Y4.6866
G01 X13.5791 Y4.6200
G01 X13.5884 Y4.6016
G01 X13.5985 Y4.5837
G01 X13.6364 Y4.5206
G01 X13.6474 Y4.5031
G01 X13.6593 Y4.4863
G01 X13.7031 Y4.4272
G01 X13.7158 Y4.4109
G01 X13.7292 Y4.3953
G01 X13.7787 Y4.3408
G01 X13.7929 Y4.3258
G01 X13.8078 Y4.3116
G01 X13.8624 Y4.2622
G01 X13.8780 Y4.2487
G01 X13.8942 Y4.2361
G01 X13.9533 Y4.1922
G01 X13.9702 Y4.1803
G01 X13.9876 Y4.1693
G01 X14.0507 Y4.1315
G01 X14.0687 Y4.1213
G01 X14.0871 Y4.1120
G01 X14.1536 Y4.0806
G01 X14.1725 Y4.0722
G01 X14.1917 Y4.0648
G01 X14.2610 Y4.0400
G01 X14.2806 Y4.0335
G01 X14.3004 Y4.0280
G01 X14.3718 Y4.0102
G01 X14.3919 Y4.0056
G01 X14.4123 Y4.0021
G01 X14.4851 Y3.9913
G01 X14.5055 Y3.9888
G01 X14.5261 Y3.9873
G01 X14.5996 Y3.9837
G01 X14.6202 Y3.9832
G01 X14.6408 Y3.9837
G01 X14.7143 Y3.9873
G01 X14.7349 Y3.9888
G01 X14.7553 Y3.9913
G01 X14.8281 Y4.0021
G01 X14.8485 Y4.0056
G01 X14.8686 Y4.0102
G01 X14.9400 Y4.0280
G01 X14.9598 Y4.0335
G01 X14.9794 Y4.0400
G01 X15.0487 Y4.0648
G01 X15.0679 Y4.0722
G01 X15.0868 Y4.0806
G01 X15.1533 Y4.1120
G01 X15.1717 Y4.1213
G01 X15.1897 Y4.1315
G01 X15.2528 Y4.1693
G01 X15.2702 Y4.1803
G01 X15.2871 Y4.1922
G01 X15.3462 Y4.2361
G01 X15.3624 Y4.2487
G01 X15.3780 Y4.2622
G01 X15.4326 Y4.3116
G01 X15.4475 Y4.3258
G01 X15.4617 Y4.3408
G01 X15.5112 Y4.3953
G01 X15.5246 Y4.4109
G01 X15.5373 Y4.4272
G01 X15.5811 Y4.4863
G01 X15.5930 Y4.5031
G01 X15.6040 Y4.5206
G01 X15.6419 Y4.5837
G01 X15.6520 Y4.6016
G01 X15.6613 Y4.6200
G01 X15.6928 Y4.6866
G01 X15.7011 Y4.7054
G01 X15.7086 Y4.7247
G01 X15.7334 Y4.7940
G01 X15.7398 Y4.8135
G01 X15.7453 Y4.8334
G01 X15.7632 Y4.9048
G01 X15.7677 Y4.9249
G01 X15.7712 Y4.9452
G01 X15.7820 Y5.0180
G01 X15.7846 Y5.0385
G01 X15.7855 Y5.0488
G00 Z2.0000
G00 X18.0562 Y5.0686
G01 F60.00
G01 Z-0.0800
G01 F120.00
G01 X18.0602 Y5.1532
G01 X18.0559 Y5.2414
G01 X18.0429 Y5.3287
G01 X18.0214 Y5.4144
G01 X17.9917 Y5.4976
G01 X17.9539 Y5.5774
G01 X17.9085 Y5.6532
G01 X17.8559 Y5.7241
G01 X17.7966 Y5.7896
G01 X17.7312 Y5.8489
G01 X17.6602 Y5.9015
G01 X17.5845 Y5.9469
G01 X17.5046 Y5.9847
G01 X17.4215 Y6.0144
G01 X17.3358 Y6.0359
G01 X17.2484 Y6.0488
G01 X17.1602 Y6.0532
G01 X17.0720 Y6.0488
G01 X16.9846 Y6.0359
G01 X16.8989 Y6.0144
G01 X16.8158 Y5.9847
G01 X16.7359 Y5.9469
G01 X16.6602 Y5.9015
G01 X16.5892 Y5.8489
G01 X16.5238 Y5.7896
G01 X16.4645 Y5.7241
G01 X16.4119 Y5.6532
G01 X16.3665 Y5.5774
G01 X16.3287 Y5.4976
G01 X16.2990 Y5.4144
G01 X16.2775 Y5.3287
G01 X16.2645 Y5.2414
G01 X16.2602 Y5.1532
G01 X16.2645 Y5.0649
G01 X16.2775 Y4.9776
G01 X16.2990 Y4.8919
G01 X16.3287 Y4.8087
G01 X16.3665 Y4.7289
G01 X16.4119 Y4.6531
G01 X16.4645 Y4.5822
G01 X16.5238 Y4.5168
G01 X16.5892 Y4.4575
G01 X16.6602 Y4.4048
G01 X16.7359 Y4.3594
G01 X16.8158 Y4.3217
G01 X16.8989 Y4.2919
G01 X16.9846 Y4.2705
G01 X17.0720 Y4.2575
G01 X17.1602 Y4.2532
G01 X17.2484 Y4.2575
G01 X17.3358 Y4.2705
G01 X17.4215 Y4.2919
G01 X17.5046 Y4.3217
G01 X17.5845 Y4.3594
G01 X17.6602 Y4.4048
G01 X17.7312 Y4.4575
G01 X17.7966 Y4.5168
G01 X17.8559 Y4.5822
G01 X17.9085 Y4.6531
G01 X17.9539 Y4.7289
G01 X17.9917 Y4.8087
G01 X18.0214 Y4.8919
G01 X18.0429 Y4.9776
G01 X18.0550 Y5.0576
G01 X18.0562 Y5.0686
G00 Z2.0000
G00 X18.3255 Y5.0488
G01 F60.00
G01 Z-0.0800
G01 F120.00
G01 X18.3297 Y5.1326
G01 X18.3302 Y5.1532
G01 X18.3297 Y5.1738
G01 X18.3261 Y5.2473
G01 X18.3246 Y5.2678
G01 X18.3220 Y5.2883
G01 X18.3112 Y5.3611
G01 X18.3077 Y5.3814
G01 X18.3032 Y5.4015
G01 X18.2853 Y5.4729
G01 X18.2798 Y5.4928
G01 X18.2734 Y5.5124
G01 X18.2486 Y5.5817
G01 X18.2411 Y5.6009
G01 X18.2328 Y5.6197
G01 X18.2013 Y5.6863
G01 X18.1920 Y5.7047
G01 X18.1819 Y5.7226
G01 X18.1440 Y5.7858
G01 X18.1330 Y5.8032
G01 X18.1211 Y5.8200
G01 X18.0773 Y5.8791
G01 X18.0646 Y5.8954
G01 X18.0512 Y5.9110
G01 X18.0017 Y5.9655
G01 X17.9875 Y5.9805
G01 X17.9726 Y5.9947
G01 X17.9180 Y6.0441
G01 X17.9024 Y6.0576
G01 X17.8862 Y6.0703
G01 X17.8271 Y6.1141
G01 X17.8102 Y6.1260
G01 X17.7928 Y6.1370
G01 X17.7297 Y6.1748
G01 X17.7117 Y6.1850
G01 X17.6933 Y6.1943
G01 X17.6268 Y6.2257
G01 X17.6079 Y6.2341
G01 X17.5887 Y6.2415
G01 X17.5194 Y6.2663
G01 X17.4998 Y6.2728
G01 X17.4800 Y6.2783
G01 X17.4086 Y6.2962
G01 X17.3885 Y6.3007
G01 X17.3681 Y6.3042
G01 X17.2953 Y6.3150
G01 X17.2749 Y6.3175
G01 X17.2543 Y6.3190
G01 X17.1808 Y6.3227
G01 X17.1602 Y6.3232
G01 X17.1396 Y6.3227
G01 X17.0661 Y6.3190
G01 X17.0455 Y6.3175
G01 X17.0251 Y6.3150
G01 X16.9523 Y6.3042
G01 X16.9319 Y6.3007
G01 X16.9118 Y6.2962
G01 X16.8404 Y6.2783
G01 X16.8206 Y6.2728
G01 X16.8010 Y6.2663
G01 X16.7317 Y6.2415
G01 X16.7125 Y6.2341
G01 X16.6936 Y6.2257
G01 X16.6271 Y6.1943
G01 X16.6087 Y6.1850
G01 X16.5907 Y6.1748
G01 X16.5276 Y6.1370
G01 X16.5102 Y6.1260
G01 X16.4933 Y6.1141
G01 X16.4342 Y6.0703
G01 X16.4180 Y6.0576
G01 X16.4024 Y6.0441
G01 X16.3478 Y5.9947
G01 X16.3329 Y5.9805
G01 X16.3187 Y5.9655
G01 X16.2692 Y5.9110
G01 X16.2558 Y5.8954
G01 X16.2431 Y5.8791
G01 X16.1993 Y5.8200
G01 X16.1874 Y5.8032
G01 X16.1764 Y5.7858
G01 X16.1385 Y5.7226
G01 X16.1284 Y5.7047
G01 X16.1191 Y5.6863
G01 X16.0876 Y5.6197
G01 X16.0793 Y5.6009
G01 X16.0718 Y5.5817
G01 X16.0470 Y5.5124
G01 X16.0406 Y5.4928
G01 X16.0351 Y5.4729
G01 X16.0172 Y5.4015
G01 X16.0127 Y5.3814
G01 X16.0092 Y5.3611
G01 X15.9984 Y5.2883
G01 X15.9958 Y5.2678
G01 X15.9943 Y5.2473
G01 X15.9907 Y5.1738
G01 X15.9902 Y5.1532
G01 X15.9907 Y5.1326
G01 X15.9943 Y5.0590
G01 X15.9958 Y5.0385
G01 X15.9984 Y5.0180
G01 X16.0092 Y4.9452
G01 X16.0127 Y4.9249
G01 X16.0172 Y4.9048
G01 X16.0351 Y4.8334
G01 X16.0406 Y4.8135
G01 X16.0470 Y4.7940
G01 X16.0718 Y4.7247
G01 X16.0793 Y4.7054
G01 X16.0876 Y4.6866
G01 X16.1191 Y4.6200
G01 X16.1284 Y4.6016
G01 X16.1385 Y4.5837
G01 X16.1764 Y4.5206
G01 X16.1874 Y4.5031
G01 X16.1993 Y4.4863
G01 X16.2431 Y4.4272
G01 X16.2558 Y4.4109
G01 X16.2692 Y4.3953
G01 X16.3187 Y4.3408
G01 X16.3329 Y4.3258
G01 X16.3478 Y4.3116
G01 X16.4024 Y4.2622
G01 X16.4180 Y4.2487
G01 X16.4342 Y4.2361
G01 X16.4933 Y4.1922
G01 X16.5102 Y4.1803
G01 X16.5276 Y4.1693
G01 X16.5907 Y4.1315
G01 X16.6087 Y4.1213
G01 X16.6271 Y4.1120
G01 X16.6936 Y4.0806
G01 X16.7125 Y4.0722
G01 X16.7317 Y4.0648
G01 X16.8010 Y4.0400
G01 X16.8206 Y4.0335
G01 X16.8404 Y4.0280
G01 X16.9118 Y4.0102
G01 X16.9319 Y4.0056
G01 X16.9523 Y4.0021
G01 X17.0251 Y3.9913
G01 X17.0455 Y3.9888
G01 X17.0661 Y3.9873
G01 X17.1396 Y3.9837
G01 X17.1602 Y3.9832
G01 X17.1808 Y3.9837
G01 X17.2543 Y3.9873
G01 X17.2749 Y3.9888
G01 X17.2953 Y3.9913
G01 X17.3681 Y4.0021
G01 X17.3885 Y4.0056
G01 X17.4086 Y4.0102
G01 X17.4800 Y4.0280
G01 X17.4998 Y4.0335
G01 X17.5194 Y4.0400
G01 X17.5887 Y4.0648
G01 X17.6079 Y4.0722
G01 X17.6268 Y4.0806
G01 X17.6933 Y4.1120
G01 X17.7117 Y4.1213
G01 X17.7297 Y4.1315
G01 X17.7928 Y4.1693
G01 X17.8102 Y4.1803
G01 X17.8271 Y4.1922
G01 X17.8862 Y4.2361
G01 X17.9024 Y4.2487
G01 X17.9180 Y4.2622
G01 X17.9726 Y4.3116
G01 X17.9875 Y4.3258
G01 X18.0017 Y4.3408
G01 X18.0512 Y4.3953
G01 X18.0646 Y4.4109
G01 X18.0773 Y4.4272
G01 X18.1211 Y4.4863
G01 X18.1330 Y4.5031
G01 X18.1440 Y4.5206
G01 X18.1819 Y4.5837
G01 X18.1920 Y4.6016
G01 X18.2013 Y4.6200
G01 X18.2328 Y4.6866
G01 X18.2411 Y4.7054
G01 X18.2486 Y4.7247
G01 X18.2734 Y4.7940
G01 X18.2798 Y4.8135
G01 X18.2853 Y4.8334
G01 X18.3032 Y4.9048
G01 X18.3077 Y4.9249
G01 X18.3112 Y4.9452
G01 X18.3220 Y5.0180
G01 X18.3234 Y5.0282
G01 X18.3255 Y5.0488
G00 Z2.0000
G00 X18.4220 Y6.9995
G01 F60.00
G01 Z-0.0800
G01 F120.00
G01 X18.3756 Y6.9218
G01 X18.3575 Y6.8931
G01 X18.3380 Y6.8654
G01 X18.2942 Y6.8063
G01 X18.2839 Y6.7929
G01 X18.2624 Y6.7667
G01 X18.2018 Y6.6995
G01 X18.1784 Y6.6749
G01 X18.1539 Y6.6516
G01 X18.0994 Y6.6021
G01 X18.0737 Y6.5800
G01 X18.0470 Y6.5592
G01 X17.9879 Y6.5153
G01 X17.9602 Y6.4958
G01 X17.9460 Y6.4866
G01 X17.8685 Y6.4399
G01 X17.8389 Y6.4232
G01 X17.8685 Y6.4064
G01 X17.9460 Y6.3597
G01 X17.9742 Y6.3409
G01 X17.9879 Y6.3310
G01 X18.0470 Y6.2871
G01 X18.0737 Y6.2663
G01 X18.0994 Y6.2442
G01 X18.1539 Y6.1947
G01 X18.1784 Y6.1714
G01 X18.2018 Y6.1469
G01 X18.2512 Y6.0923
G01 X18.2733 Y6.0667
G01 X18.2942 Y6.0400
G01 X18.3380 Y5.9809
G01 X18.3479 Y5.9671
G01 X18.3668 Y5.9390
G01 X18.4135 Y5.8614
G01 X18.4302 Y5.8319
G01 X18.4469 Y5.8614
G01 X18.4936 Y5.9390
G01 X18.5125 Y5.9671
G01 X18.5224 Y5.9809
G01 X18.5662 Y6.0400
G01 X18.5871 Y6.0667
G01 X18.6092 Y6.0923
G01 X18.6586 Y6.1469
G01 X18.6820 Y6.1714
G01 X18.7065 Y6.1947
G01 X18.7610 Y6.2442
G01 X18.7867 Y6.2663
G01 X18.8134 Y6.2871
G01 X18.8725 Y6.3310
G01 X18.9002 Y6.3505
G01 X18.9144 Y6.3597
G01 X18.9919 Y6.4064
G01 X19.0215 Y6.4232
G01 X18.9919 Y6.4399
G01 X18.9144 Y6.4866
G01 X18.8862 Y6.5054
G01 X18.8725 Y6.5153
G01 X18.8134 Y6.5592
G01 X18.7867 Y6.5800
G01 X18.7610 Y6.6021
G01 X18.6941 Y6.6631
G01 X18.6701 Y6.6870
G01 X18.6092 Y6.7540
G01 X18.5871 Y6.7796
G01 X18.5662 Y6.8063
G01 X18.5224 Y6.8654
G01 X18.5029 Y6.8931
G01 X18.4848 Y6.9218
G01 X18.4469 Y6.9849
G01 X18.4302 Y7.0144
G01 X18.4220 Y6.9995
G00 Z2.0000
G00 X18.3255 Y7.5888
G01 F60.00
G01 Z-0.0800
G01 F120.00
G01 X18.3297 Y7.6726
G01 X18.3302 Y7.6932
G01 X18.3297 Y7.7138
G01 X18.3261 Y7.7873
G01 X18.3246 Y7.8078
G01 X18.3220 Y7.8283
G01 X18.3112 Y7.9011
G01 X18.3077 Y7.9214
G01 X18.3032 Y7.9415
G01 X18.2853 Y8.0129
G01 X18.2798 Y8.0328
G01 X18.2734 Y8.0524
G01 X18.2486 Y8.1217
G01 X18.2411 Y8.1409
G01 X18.2328 Y8.1597
G01 X18.2013 Y8.2263
G01 X18.1920 Y8.2447
G01 X18.1819 Y8.2626
G01 X18.1440 Y8.3258
G01 X18.1330 Y8.3432
G01 X18.1211 Y8.3600
G01 X18.0773 Y8.4191
G01 X18.0646 Y8.4354
G01 X18.0512 Y8.4510
G01 X18.0017 Y8.5055
G01 X17.9875 Y8.5205
G01 X17.9726 Y8.5347
G01 X17.9180 Y8.5841
G01 X17.9024 Y8.5976
G01 X17.8862 Y8.6103
G01 X17.8271 Y8.6541
G01 X17.8102 Y8.6660
G01 X17.7928 Y8.6770
G01 X17.7297 Y8.7148
G01 X17.7117 Y8.7250
G01 X17.6933 Y8.7343
G01 X17.6268 Y8.7657
G01 X17.6079 Y8.7741
G01 X17.5887 Y8.7815
G01 X17.5194 Y8.8063
G01 X17.4998 Y8.8128
G01 X17.4800 Y8.8183
G01 X17.4086 Y8.8362
G01 X17.3885 Y8.8407
G01 X17.3681 Y8.8442
G01 X17.2953 Y8.8550
G01 X17.2749 Y8.8575
G01 X17.2543 Y8.8590
G01 X17.1808 Y8.8627
G01 X17.1602 Y8.8632
G01 X17.1396 Y8.8627
G01 X17.0661 Y8.8590
G01 X17.0455 Y8.8575
G01 X17.0251 Y8.8550
G01 X16.9523 Y8.8442
G01 X16.9319 Y8.8407
G01 X16.9118 Y8.8362
G01 X16.8404 Y8.8183
G01 X16.8206 Y8.8128
G01 X16.8010 Y8.8063
G01 X16.7317 Y8.7815
G01 X16.7125 Y8.7741
G01 X16.6936 Y8.7657
G01 X16.6271 Y8.7343
G01 X16.6087 Y8.7250
G01 X16.5907 Y8.7148
G01 X16.5276 Y8.6770
G01 X16.5102 Y8.6660
G01 X16.4933 Y8.6541
G01 X16.4342 Y8.6103
G01 X16.4180 Y8.5976
G01 X16.4024 Y8.5841
G01 X16.3478 Y8.5347
G01 X16.3329 Y8.5205
G01 X16.3187 Y8.5055
G01 X16.2692 Y8.4510
G01 X16.2558 Y8.4354
G01 X16.2431 Y8.4191
G01 X16.1993 Y8.3600
G01 X16.1874 Y8.3432
G01 X16.1764 Y8.3258
G01 X16.1385 Y8.2626
G01 X16.1284 Y8.2447
G01 X16.1191 Y8.2263
G01 X16.0876 Y8.1597
G01 X16.0793 Y8.1409
G01 X16.0718 Y8.1217
G01 X16.0470 Y8.0524
G01 X16.0406 Y8.0328
G01 X16.0351 Y8.0129
G01 X16.0172 Y7.9415
G01 X16.0127 Y7.9214
G01 X16.0092 Y7.9011
G01 X15.9984 Y7.8283
G01 X15.9958 Y7.8078
G01 X15.9943 Y7.7873
G01 X15.9907 Y7.7138
G01 X15.9902 Y7.6932
G01 X15.9907 Y7.6726
G01 X15.9943 Y7.5990
G01 X15.9958 Y7.5785
G01 X15.9984 Y7.5580
G01 X16.0092 Y7.4852
G01 X16.0127 Y7.4649
G01 X16.0172 Y7.4448
G01 X16.0351 Y7.3734
G01 X16.0406 Y7.3535
G01 X16.0470 Y7.3340
G01 X16.0718 Y7.2647
G01 X16.0793 Y7.2454
G01 X16.0876 Y7.2266
G01 X16.1191 Y7.1600
G01 X16.1284 Y7.1416
G01 X16.1385 Y7.1237
G01 X16.1764 Y7.0606
G01 X16.1874 Y7.0431
G01 X16.1993 Y7.0263
G01 X16.2431 Y6.9672
G01 X16.2558 Y6.9509
G01 X16.2692 Y6.9353
G01 X16.3187 Y6.8808
G01 X16.3329 Y6.8658
G01 X16.3478 Y6.8516
G01 X16.4024 Y6.8022
G01 X16.4180 Y6.7887
G01 X16.4342 Y6.7761
G01 X16.4933 Y6.7322
G01 X16.5102 Y6.7203
G01 X16.5276 Y6.7093
G01 X16.5907 Y6.6715
G01 X16.6087 Y6.6613
G01 X16.6271 Y6.6520
G01 X16.6936 Y6.6206
G01 X16.7125 Y6.6122
G01 X16.7317 Y6.6048
G01 X16.8010 Y6.5800
G01 X16.8206 Y6.5735
G01 X16.8404 Y6.5680
G01 X16.9118 Y6.5502
G01 X16.9319 Y6.5456
G01 X16.9523 Y6.5421
G01 X17.0251 Y6.5313
G01 X17.0455 Y6.5288
G01 X17.0661 Y6.5273
G01 X17.1396 Y6.5237
G01 X17.1602 Y6.5232
G01 X17.1808 Y6.5237
G01 X17.2543 Y6.5273
G01 X17.2749 Y6.5288
G01 X17.2953 Y6.5313
G01 X17.3681 Y6.5421
G01 X17.3885 Y6.5456
G01 X17.4086 Y6.5502
G01 X17.4800 Y6.5680
G01 X17.4998 Y6.5735
G01 X17.5194 Y6.5800
G01 X17.5887 Y6.6048
G01 X17.6079 Y6.6122
G01 X17.6268 Y6.6206
G01 X17.6933 Y6.6520
G01 X17.7117 Y6.6613
G01 X17.7297 Y6.6715
G01 X17.7928 Y6.7093
G01 X17.8102 Y6.7203
G01 X17.8271 Y6.7322
G01 X17.8862 Y6.7761
G01 X17.9024 Y6.7887
G01 X17.9180 Y6.8022
G01 X17.9726 Y6.8516
G01 X17.9875 Y6.8658
G01 X18.0017 Y6.8808
G01 X18.0512 Y6.9353
G01 X18.0646 Y6.9509
G01 X18.0773 Y6.9672
G01 X18.1211 Y7.0263
G01 X18.1330 Y7.0431
G01 X18.1440 Y7.0606
G01 X18.1819 Y7.1237
G01 X18.1920 Y7.1416
G01 X18.2013 Y7.1600
G01 X18.2328 Y7.2266
G01 X18.2411 Y7.2454
G01 X18.2486 Y7.2647
G01 X18.2734 Y7.3340
G01 X18.2798 Y7.3535
G01 X18.2853 Y7.3734
G01 X18.3032 Y7.4448
G01 X18.3077 Y7.4649
G01 X18.3112 Y7.4852
G01 X18.3220 Y7.5580
G01 X18.3234 Y7.5682
G01 X18.3255 Y7.5888
G00 Z2.0000
G00 X18.0562 Y7.6086
G01 F60.00
G01 Z-0.0800
G01 F120.00
G01 X18.0602 Y7.6932
G01 X18.0559 Y7.7814
G01 X18.0429 Y7.8687
G01 X18.0214 Y7.9544
G01 X17.9917 Y8.0376
G01 X17.9539 Y8.1174
G01 X17.9085 Y8.1932
G01 X17.8559 Y8.2641
G01 X17.7966 Y8.3296
G01 X17.7312 Y8.3889
G01 X17.6602 Y8.4415
G01 X17.5845 Y8.4869
G01 X17.5046 Y8.5247
G01 X17.4215 Y8.5544
G01 X17.3358 Y8.5759
G01 X17.2484 Y8.5888
G01 X17.1602 Y8.5932
G01 X17.0720 Y8.5888
G01 X16.9846 Y8.5759
G01 X16.8989 Y8.5544
G01 X16.8158 Y8.5247
G01 X16.7359 Y8.4869
G01 X16.6602 Y8.4415
G01 X16.5892 Y8.3889
G01 X16.5238 Y8.3296
G01 X16.4645 Y8.2641
G01 X16.4119 Y8.1932
G01 X16.3665 Y8.1174
G01 X16.3287 Y8.0376
G01 X16.2990 Y7.9544
G01 X16.2775 Y7.8687
G01 X16.2645 Y7.7814
G01 X16.2602 Y7.6932
G01 X16.2645 Y7.6049
G01 X16.2775 Y7.5176
G01 X16.2990 Y7.4319
G01 X16.3287 Y7.3487
G01 X16.3665 Y7.2689
G01 X16.4119 Y7.1931
G01 X16.4645 Y7.1222
G01 X16.5238 Y7.0568
G01 X16.5892 Y6.9975
G01 X16.6602 Y6.9448
G01 X16.7359 Y6.8994
G01 X16.8158 Y6.8617
G01 X16.8989 Y6.8319
G01 X16.9846 Y6.8105
G01 X17.0720 Y6.7975
G01 X17.1602 Y6.7932
G01 X17.2484 Y6.7975
G01 X17.3358 Y6.8105
G01 X17.4215 Y6.8319
G01 X17.5046 Y6.8617
G01 X17.5845 Y6.8994
G01 X17.6602 Y6.9448
G01 X17.7312 Y6.9975
G01 X17.7966 Y7.0568
G01 X17.8559 Y7.1222
G01 X17.9085 Y7.1931
G01 X17.9539 Y7.2689
G01 X17.9917 Y7.3487
G01 X18.0214 Y7.4319
G01 X18.0429 Y7.5176
G01 X18.0550 Y7.5976
G01 X18.0562 Y7.6086
G00 Z2.0000
G00 X20.5962 Y7.6086
G01 F60.00
G01 Z-0.0800
G01 F120.00
G01 X20.6002 Y7.6932
G01 X20.5959 Y7.7814
G01 X20.5829 Y7.8687
G01 X20.5614 Y7.9544
G01 X20.5317 Y8.0376
G01 X20.4939 Y8.1174
G01 X20.4485 Y8.1932
G01 X20.3959 Y8.2641
G01 X20.3366 Y8.3296
G01 X20.2712 Y8.3889
G01 X20.2002 Y8.4415
G01 X20.1245 Y8.4869
G01 X20.0446 Y8.5247
G01 X19.9615 Y8.5544
G01 X19.8758 Y8.5759
G01 X19.7884 Y8.5888
G01 X19.7002 Y8.5932
G01 X19.6120 Y8.5888
G01 X19.5246 Y8.5759
G01 X19.4389 Y8.5544
G01 X19.3558 Y8.5247
G01 X19.2759 Y8.4869
G01 X19.2002 Y8.4415
G01 X19.1292 Y8.3889
G01 X19.0638 Y8.3296
G01 X19.0045 Y8.2641
G01 X18.9519 Y8.1932
G01 X18.9065 Y8.1174
G01 X18.8687 Y8.0376
G01 X18.8390 Y7.9544
G01 X18.8175 Y7.8687
G01 X18.8045 Y7.7814
G01 X18.8002 Y7.6932
G01 X18.8045 Y7.6049
G01 X18.8175 Y7.5176
G01 X18.8390 Y7.4319
G01 X18.8687 Y7.3487
G01 X18.9065 Y7.2689
G01 X18.9519 Y7.1931
G01 X19.0045 Y7.1222
G01 X19.0638 Y7.0568
G01 X19.1292 Y6.9975
G01 X19.2002 Y6.9448
G01 X19.2759 Y6.8994
G01 X19.3558 Y6.8617
G01 X19.4389 Y6.8319
G01 X19.5246 Y6.8105
G01 X19.6120 Y6.7975
G01 X19.7002 Y6.7932
G01 X19.7884 Y6.7975
G01 X19.8758 Y6.8105
G01 X19.9615 Y6.8319
G01 X20.0446 Y6.8617
G01 X20.1245 Y6.8994
G01 X20.2002 Y6.9448
G01 X20.2712 Y6.9975
G01 X20.3366 Y7.0568
G01 X20.3959 Y7.1222
G01 X20.4485 Y7.1931
G01 X20.4939 Y7.2689
G01 X20.5317 Y7.3487
G01 X20.5614 Y7.4319
G01 X20.5829 Y7.5176
G01 X20.5950 Y7.5976
G01 X20.5962 Y7.6086
G00 Z2.0000
G00 X20.8655 Y7.5888
G01 F60.00
G01 Z-0.0800
G01 F120.00
G01 X20.8697 Y7.6726
G01 X20.8702 Y7.6932
G01 X20.8697 Y7.7138
G01 X20.8661 Y7.7873
G01 X20.8646 Y7.8078
G01 X20.8620 Y7.8283
G01 X20.8512 Y7.9011
G01 X20.8477 Y7.9214
G01 X20.8432 Y7.9415
G01 X20.8253 Y8.0129
G01 X20.8198 Y8.0328
G01 X20.8134 Y8.0524
G01 X20.7886 Y8.1217
G01 X20.7811 Y8.1409
G01 X20.7728 Y8.1597
G01 X20.7413 Y8.2263
G01 X20.7320 Y8.2447
G01 X20.7219 Y8.2626
G01 X20.6840 Y8.3258
G01 X20.6730 Y8.3432
G01 X20.6611 Y8.3600
G01 X20.6173 Y8.4191
G01 X20.6046 Y8.4354
G01 X20.5912 Y8.4510
G01 X20.5417 Y8.5055
G01 X20.5275 Y8.5205
G01 X20.5126 Y8.5347
G01 X20.4580 Y8.5841
G01 X20.4424 Y8.5976
G01 X20.4262 Y8.6103
G01 X20.3671 Y8.6541
G01 X20.3502 Y8.6660
G01 X20.3328 Y8.6770
G01 X20.2697 Y8.7148
G01 X20.2517 Y8.7250
G01 X20.2333 Y8.7343
G01 X20.1668 Y8.7657
G01 X20.1479 Y8.7741
G01 X20.1287 Y8.7815
G01 X20.0594 Y8.8063
G01 X20.0398 Y8.8128
G01 X20.0200 Y8.8183
G01 X19.9486 Y8.8362
G01 X19.9285 Y8.8407
G01 X19.9081 Y8.8442
G01 X19.8353 Y8.8550
G01 X19.8149 Y8.8575
G01 X19.7943 Y8.8590
G01 X19.7208 Y8.8627
G01 X19.7002 Y8.8632
G01 X19.6796 Y8.8627
G01 X19.6061 Y8.8590
G01 X19.5855 Y8.8575
G01 X19.5651 Y8.8550
G01 X19.4923 Y8.8442
G01 X19.4719 Y8.8407
G01 X19.4518 Y8.8362
G01 X19.3804 Y8.8183
G01 X19.3606 Y8.8128
G01 X19.3410 Y8.8063
G01 X19.2717 Y8.7815
G01 X19.2525 Y8.7741
G01 X19.2336 Y8.7657
G01 X19.1671 Y8.7343
G01 X19.1487 Y8.7250
G01 X19.1307 Y8.7148
G01 X19.0676 Y8.6770
G01 X19.0502 Y8.6660
G01 X19.0333 Y8.6541
G01 X18.9742 Y8.6103
G01 X18.9580 Y8.5976
G01 X18.9424 Y8.5841
G01 X18.8878 Y8.5347
G01 X18.8729 Y8.5205
G01 X18.8587 Y8.5055
G01 X18.8092 Y8.4510
G01 X18.7958 Y8.4354
G01 X18.7831 Y8.4191
G01 X18.7393 Y8.3600
G01 X18.7274 Y8.3432
G01 X18.7164 Y8.3258
G01 X18.6785 Y8.2626
G01 X18.6684 Y8.2447
G01 X18.6591 Y8.2263
G01 X18.6276 Y8.1597
G01 X18.6193 Y8.1409
G01 X18.6118 Y8.1217
G01 X18.5870 Y8.0524
G01 X18.5806 Y8.0328
G01 X18.5751 Y8.0129
G01 X18.5572 Y7.9415
G01 X18.5527 Y7.9214
G01 X18.5492 Y7.9011
G01 X18.5384 Y7.8283
G01 X18.5358 Y7.8078
G01 X18.5343 Y7.7873
G01 X18.5307 Y7.7138
G01 X18.5302 Y7.6932
G01 X18.5307 Y7.6726
G01 X18.5343 Y7.5990
G01 X18.5358 Y7.5785
G01 X18.5384 Y7.5580
G01 X18.5492 Y7.4852
G01 X18.5527 Y7.4649
G01 X18.5572 Y7.4448
G01 X18.5751 Y7.3734
G01 X18.5806 Y7.3535
G01 X18.5870 Y7.3340
G01 X18.6118 Y7.2647
G01 X18.6193 Y7.2454
G01 X18.6276 Y7.2266
G01 X18.6591 Y7.1600
G01 X18.6684 Y7.1416
G01 X18.6785 Y7.1237
G01 X18.7164 Y7.0606
G01 X18.7274 Y7.0431
G01 X18.7393 Y7.0263
G01 X18.7831 Y6.9672
G01 X18.7958 Y6.9509
G01 X18.8092 Y6.9353
G01 X18.8587 Y6.8808
G01 X18.8729 Y6.8658
G01 X18.8878 Y6.8516
G01 X18.9424 Y6.8022
G01 X18.9580 Y6.7887
G01 X18.9742 Y6.7761
G01 X19.0333 Y6.7322
G01 X19.0502 Y6.7203
G01 X19.0676 Y6.7093
G01 X19.1307 Y6.6715
G01 X19.1487 Y6.6613
G01 X19.1671 Y6.6520
G01 X19.2336 Y6.6206
G01 X19.2525 Y6.6122
G01 X19.2717 Y6.6048
G01 X19.3410 Y6.5800
G01 X19.3606 Y6.5735
G01 X19.3804 Y6.5680
G01 X19.4518 Y6.5502
G01 X19.4719 Y6.5456
G01 X19.4923 Y6.5421
G01 X19.5651 Y6.5313
G01 X19.5855 Y6.5288
G01 X19.6061 Y6.5273
G01 X19.6796 Y6.5237
G01 X19.7002 Y6.5232
G01 X19.7208 Y6.5237
G01 X19.7943 Y6.5273
G01 X19.8149 Y6.5288
G01 X19.8353 Y6.5313
G01 X19.9081 Y6.5421
G01 X19.9285 Y6.5456
G01 X19.9486 Y6.5502
G01 X20.0200 Y6.5680
G01 X20.0398 Y6.5735
G01 X20.0594 Y6.5800
G01 X20.1287 Y6.6048
G01 X20.1479 Y6.6122
G01 X20.1668 Y6.6206
G01 X20.2333 Y6.6520
G01 X20.2517 Y6.6613
G01 X20.2697 Y6.6715
G01 X20.3328 Y6.7093
G01 X20.3502 Y6.7203
G01 X20.3671 Y6.7322
G01 X20.4262 Y6.7761
G01 X20.4424 Y6.7887
G01 X20.4580 Y6.8022
G01 X20.5126 Y6.8516
G01 X20.5275 Y6.8658
G01 X20.5417 Y6.8808
G01 X20.5912 Y6.9353
G01 X20.6046 Y6.9509
G01 X20.6173 Y6.9672
G01 X20.6611 Y7.0263
G01 X20.6730 Y7.0431
G01 X20.6840 Y7.0606
G01 X20.7219 Y7.1237
G01 X20.7320 Y7.1416
G01 X20.7413 Y7.1600
G01 X20.7728 Y7.2266
G01 X20.7811 Y7.2454
G01 X20.7886 Y7.2647
G01 X20.8134 Y7.3340
G01 X20.8198 Y7.3535
G01 X20.8253 Y7.3734
G01 X20.8432 Y7.4448
G01 X20.8477 Y7.4649
G01 X20.8512 Y7.4852
G01 X20.8620 Y7.5580
G01 X20.8634 Y7.5682
G01 X20.8655 Y7.5888
G00 Z2.0000
G00 X20.4716 Y6.3686
G01 F60.00
G01 Z-0.0800
G01 F120.00
G01 X20.4860 Y6.3597
G01 X20.5142 Y6.3409
G01 X20.5870 Y6.2871
G01 X20.6137 Y6.2663
G01 X20.6394 Y6.2442
G01 X20.6939 Y6.1947
G01 X20.7184 Y6.1714
G01 X20.7303 Y6.1593
G01 X20.7912 Y6.0923
G01 X20.8133 Y6.0667
G01 X20.8342 Y6.0400
G01 X20.8780 Y5.9809
G01 X20.8879 Y5.9671
G01 X20.9068 Y5.9390
G01 X20.9535 Y5.8614
G01 X20.9702 Y5.8319
G01 X20.9869 Y5.8614
G01 X21.0336 Y5.9390
G01 X21.0525 Y5.9671
G01 X21.0624 Y5.9809
G01 X21.1062 Y6.0400
G01 X21.1271 Y6.0667
