(G-CODE GENERATED BY FLATCAM v8.994 - www.flatcam.org - Version Date: 2020/11/7)

(Name: acrylic-Edge_Cuts.gbr_conv_cnc)
(Type: G-code from Geometry)
(Units: MM)

(Created on samedi, 26 mars 2022 at 17:33)

(This preprocessor is the default preprocessor used by FlatCAM.)
(It is made to work with MACH3 compatible motion controllers.)

(TOOL DIAMETER: 1.5 mm)
(Feedrate_XY: 120.0 mm/min)
(Feedrate_Z: 120.0 mm/min)
(Feedrate rapids 1500.0 mm/min)

(Z_Cut: -2.4 mm)
(Z_Move: 2.0 mm)
(Z Start: None mm)
(Z End: 8.0 mm)
(X,Y End: None mm)
(Steps per circle: 64)
(Preprocessor Geometry: default)

(X range:    0.0990 ...  130.2991  mm)
(Y range:   -0.3017 ...   59.8984  mm)

(Spindle Speed: 1000.0 RPM)
G21
G90
G94

G01 F120.00

M5
G00 Z15.0000
G00 X0.0000 Y0.0000
T1
M6    
(MSG, Change to Tool Dia = 1.5000)
M0
G00 Z15.0000

M03 S1000.0
G01 F120.00
G00 X7.8990 Y4.7935
G01 F120.00
G01 Z-2.4000
G01 F120.00
G01 X7.8990 Y4.8033
G01 X7.8865 Y5.0581
G01 X7.8855 Y5.0679
G01 X7.8481 Y5.3203
G01 X7.8462 Y5.3299
G01 X7.7842 Y5.5774
G01 X7.7813 Y5.5868
G01 X7.6954 Y5.8271
G01 X7.6916 Y5.8361
G01 X7.5825 Y6.0668
G01 X7.5779 Y6.0755
G01 X7.4467 Y6.2943
G01 X7.4413 Y6.3025
G01 X7.2893 Y6.5074
G01 X7.2830 Y6.5150
G01 X7.1117 Y6.7041
G01 X7.1047 Y6.7110
G01 X6.9157 Y6.8823
G01 X6.9081 Y6.8886
G01 X6.7032 Y7.0406
G01 X6.6950 Y7.0460
G01 X6.4761 Y7.1772
G01 X6.4675 Y7.1818
G01 X6.2368 Y7.2909
G01 X6.2278 Y7.2947
G01 X5.9875 Y7.3806
G01 X5.9781 Y7.3835
G01 X5.7306 Y7.4455
G01 X5.7210 Y7.4474
G01 X5.4686 Y7.4848
G01 X5.4588 Y7.4858
G01 X5.2040 Y7.4983
G01 X5.1942 Y7.4983
G01 X4.9393 Y7.4858
G01 X4.9296 Y7.4848
G01 X4.6772 Y7.4474
G01 X4.6675 Y7.4455
G01 X4.4200 Y7.3835
G01 X4.4106 Y7.3806
G01 X4.1704 Y7.2947
G01 X4.1613 Y7.2909
G01 X3.9307 Y7.1818
G01 X3.9220 Y7.1772
G01 X3.7032 Y7.0460
G01 X3.6950 Y7.0406
G01 X3.4901 Y6.8886
G01 X3.4825 Y6.8823
G01 X3.2934 Y6.7110
G01 X3.2865 Y6.7041
G01 X3.1151 Y6.5150
G01 X3.1089 Y6.5074
G01 X2.9569 Y6.3025
G01 X2.9514 Y6.2943
G01 X2.8203 Y6.0755
G01 X2.8156 Y6.0668
G01 X2.7065 Y5.8361
G01 X2.7028 Y5.8271
G01 X2.6168 Y5.5868
G01 X2.6140 Y5.5774
G01 X2.5520 Y5.3299
G01 X2.5501 Y5.3203
G01 X2.5126 Y5.0679
G01 X2.5117 Y5.0581
G01 X2.4992 Y4.8033
G01 X2.4992 Y4.7935
G01 X2.5117 Y4.5386
G01 X2.5126 Y4.5289
G01 X2.5501 Y4.2765
G01 X2.5520 Y4.2668
G01 X2.6140 Y4.0193
G01 X2.6168 Y4.0099
G01 X2.7028 Y3.7697
G01 X2.7065 Y3.7606
G01 X2.8156 Y3.5300
G01 X2.8203 Y3.5213
G01 X2.9514 Y3.3025
G01 X2.9569 Y3.2943
G01 X3.1089 Y3.0894
G01 X3.1151 Y3.0818
G01 X3.2865 Y2.8927
G01 X3.2934 Y2.8858
G01 X3.4825 Y2.7144
G01 X3.4901 Y2.7082
G01 X3.6950 Y2.5562
G01 X3.7032 Y2.5508
G01 X3.9220 Y2.4196
G01 X3.9307 Y2.4150
G01 X4.1613 Y2.3059
G01 X4.1704 Y2.3021
G01 X4.4106 Y2.2161
G01 X4.4200 Y2.2133
G01 X4.6675 Y2.1513
G01 X4.6772 Y2.1494
G01 X4.9296 Y2.1119
G01 X4.9393 Y2.1110
G01 X5.1942 Y2.0985
G01 X5.2040 Y2.0985
G01 X5.4588 Y2.1110
G01 X5.4686 Y2.1119
G01 X5.7210 Y2.1494
G01 X5.7306 Y2.1513
G01 X5.9781 Y2.2133
G01 X5.9875 Y2.2161
G01 X6.2278 Y2.3021
G01 X6.2368 Y2.3059
G01 X6.4675 Y2.4150
G01 X6.4761 Y2.4196
G01 X6.6950 Y2.5508
G01 X6.7032 Y2.5562
G01 X6.9081 Y2.7082
G01 X6.9157 Y2.7144
G01 X7.1047 Y2.8858
G01 X7.1117 Y2.8927
G01 X7.2830 Y3.0818
G01 X7.2893 Y3.0894
G01 X7.4413 Y3.2943
G01 X7.4467 Y3.3025
G01 X7.5779 Y3.5213
G01 X7.5825 Y3.5300
G01 X7.6916 Y3.7606
G01 X7.6954 Y3.7697
G01 X7.7813 Y4.0099
G01 X7.7842 Y4.0193
G01 X7.8462 Y4.2668
G01 X7.8481 Y4.2765
G01 X7.8855 Y4.5289
G01 X7.8865 Y4.5386
G01 X7.8990 Y4.7935
G00 Z2.0000
G00 X33.3920 Y29.7935
G01 F120.00
G01 Z-2.4000
G01 F120.00
G01 X33.3920 Y29.8033
G01 X33.3535 Y30.5874
G01 X33.3525 Y30.5972
G01 X33.2373 Y31.3738
G01 X33.2354 Y31.3834
G01 X33.0446 Y32.1450
G01 X33.0418 Y32.1544
G01 X32.7773 Y32.8936
G01 X32.7735 Y32.9026
G01 X32.4379 Y33.6123
G01 X32.4332 Y33.6210
G01 X32.0296 Y34.2944
G01 X32.0242 Y34.3026
G01 X31.5565 Y34.9331
G01 X31.5503 Y34.9407
G01 X31.0230 Y35.5224
G01 X31.0161 Y35.5294
G01 X30.4344 Y36.0566
G01 X30.4268 Y36.0628
G01 X29.7962 Y36.5305
G01 X29.7881 Y36.5360
G01 X29.1147 Y36.9396
G01 X29.1060 Y36.9442
G01 X28.3963 Y37.2799
G01 X28.3872 Y37.2836
G01 X27.6480 Y37.5481
G01 X27.6386 Y37.5510
G01 X26.8771 Y37.7417
G01 X26.8675 Y37.7436
G01 X26.0909 Y37.8588
G01 X26.0811 Y37.8598
G01 X25.2970 Y37.8983
G01 X25.2871 Y37.8983
G01 X24.5030 Y37.8598
G01 X24.4932 Y37.8588
G01 X23.7167 Y37.7436
G01 X23.7070 Y37.7417
G01 X22.9455 Y37.5510
G01 X22.9361 Y37.5481
G01 X22.1969 Y37.2836
G01 X22.1878 Y37.2799
G01 X21.4781 Y36.9442
G01 X21.4694 Y36.9396
G01 X20.7961 Y36.5360
G01 X20.7879 Y36.5305
G01 X20.1573 Y36.0628
G01 X20.1497 Y36.0566
G01 X19.5680 Y35.5294
G01 X19.5611 Y35.5224
G01 X19.0338 Y34.9407
G01 X19.0276 Y34.9331
G01 X18.5599 Y34.3026
G01 X18.5545 Y34.2944
G01 X18.1509 Y33.6210
G01 X18.1462 Y33.6123
G01 X17.8106 Y32.9026
G01 X17.8068 Y32.8936
G01 X17.5423 Y32.1544
G01 X17.5395 Y32.1450
G01 X17.3487 Y31.3834
G01 X17.3468 Y31.3738
G01 X17.2316 Y30.5972
G01 X17.2306 Y30.5874
G01 X17.1921 Y29.8033
G01 X17.1921 Y29.7935
G01 X17.2306 Y29.0093
G01 X17.2316 Y28.9996
G01 X17.3468 Y28.2230
G01 X17.3487 Y28.2134
G01 X17.5395 Y27.4518
G01 X17.5423 Y27.4424
G01 X17.8068 Y26.7032
G01 X17.8106 Y26.6941
G01 X18.1462 Y25.9844
G01 X18.1509 Y25.9758
G01 X18.5545 Y25.3024
G01 X18.5599 Y25.2942
G01 X19.0276 Y24.6636
G01 X19.0338 Y24.6561
G01 X19.5611 Y24.0743
G01 X19.5680 Y24.0674
G01 X20.1497 Y23.5402
G01 X20.1573 Y23.5339
G01 X20.7879 Y23.0663
G01 X20.7961 Y23.0608
G01 X21.4694 Y22.6572
G01 X21.4781 Y22.6526
G01 X22.1878 Y22.3169
G01 X22.1969 Y22.3132
G01 X22.9361 Y22.0487
G01 X22.9455 Y22.0458
G01 X23.7070 Y21.8551
G01 X23.7167 Y21.8531
G01 X24.4932 Y21.7379
G01 X24.5030 Y21.7370
G01 X25.2871 Y21.6985
G01 X25.2970 Y21.6985
G01 X26.0811 Y21.7370
G01 X26.0909 Y21.7379
G01 X26.8675 Y21.8531
G01 X26.8771 Y21.8551
G01 X27.6386 Y22.0458
G01 X27.6480 Y22.0487
G01 X28.3872 Y22.3132
G01 X28.3963 Y22.3169
G01 X29.1060 Y22.6526
G01 X29.1147 Y22.6572
G01 X29.7881 Y23.0608
G01 X29.7962 Y23.0663
G01 X30.4268 Y23.5339
G01 X30.4344 Y23.5402
G01 X31.0161 Y24.0674
G01 X31.0230 Y24.0743
G01 X31.5503 Y24.6561
G01 X31.5565 Y24.6636
G01 X32.0242 Y25.2942
G01 X32.0296 Y25.3024
G01 X32.4332 Y25.9758
G01 X32.4379 Y25.9844
G01 X32.7735 Y26.6941
G01 X32.7773 Y26.7032
G01 X33.0418 Y27.4424
G01 X33.0446 Y27.4518
G01 X33.2354 Y28.2134
G01 X33.2373 Y28.2230
G01 X33.3525 Y28.9996
G01 X33.3535 Y29.0093
G01 X33.3920 Y29.7935
G00 Z2.0000
G00 X28.5920 Y51.7935
G01 F120.00
G01 Z-2.4000
G01 F120.00
G01 X28.5920 Y51.8033
G01 X28.5766 Y52.1170
G01 X28.5756 Y52.1267
G01 X28.5295 Y52.4374
G01 X28.5276 Y52.4470
G01 X28.4513 Y52.7516
G01 X28.4485 Y52.7610
G01 X28.3427 Y53.0567
G01 X28.3389 Y53.0658
G01 X28.2046 Y53.3496
G01 X28.2000 Y53.3583
G01 X28.0386 Y53.6277
G01 X28.0331 Y53.6358
G01 X27.8460 Y53.8880
G01 X27.8398 Y53.8956
G01 X27.6289 Y54.1283
G01 X27.6220 Y54.1353
G01 X27.3893 Y54.3462
G01 X27.3817 Y54.3524
G01 X27.1295 Y54.5395
G01 X27.1213 Y54.5449
G01 X26.8520 Y54.7064
G01 X26.8433 Y54.7110
G01 X26.5594 Y54.8452
G01 X26.5503 Y54.8490
G01 X26.2547 Y54.9548
G01 X26.2453 Y54.9577
G01 X25.9407 Y55.0340
G01 X25.9310 Y55.0359
G01 X25.6204 Y55.0819
G01 X25.6106 Y55.0829
G01 X25.2970 Y55.0983
G01 X25.2871 Y55.0983
G01 X24.9735 Y55.0829
G01 X24.9637 Y55.0819
G01 X24.6531 Y55.0359
G01 X24.6435 Y55.0340
G01 X24.3388 Y54.9577
G01 X24.3294 Y54.9548
G01 X24.0338 Y54.8490
G01 X24.0247 Y54.8452
G01 X23.7408 Y54.7110
G01 X23.7321 Y54.7064
G01 X23.4628 Y54.5449
G01 X23.4546 Y54.5395
G01 X23.2024 Y54.3524
G01 X23.1948 Y54.3462
G01 X22.9621 Y54.1353
G01 X22.9552 Y54.1283
G01 X22.7443 Y53.8956
G01 X22.7381 Y53.8880
G01 X22.5510 Y53.6358
G01 X22.5455 Y53.6277
G01 X22.3841 Y53.3583
G01 X22.3795 Y53.3496
G01 X22.2452 Y53.0658
G01 X22.2414 Y53.0567
G01 X22.1356 Y52.7610
G01 X22.1328 Y52.7516
G01 X22.0565 Y52.4470
G01 X22.0546 Y52.4374
G01 X22.0085 Y52.1267
G01 X22.0075 Y52.1170
G01 X21.9921 Y51.8033
G01 X21.9921 Y51.7935
G01 X22.0075 Y51.4798
G01 X22.0085 Y51.4701
G01 X22.0546 Y51.1594
G01 X22.0565 Y51.1498
G01 X22.1328 Y50.8452
G01 X22.1356 Y50.8358
G01 X22.2414 Y50.5401
G01 X22.2452 Y50.5310
G01 X22.3795 Y50.2471
G01 X22.3841 Y50.2385
G01 X22.5455 Y49.9691
G01 X22.5510 Y49.9610
G01 X22.7381 Y49.7087
G01 X22.7443 Y49.7011
G01 X22.9552 Y49.4685
G01 X22.9621 Y49.4615
G01 X23.1948 Y49.2506
G01 X23.2024 Y49.2444
G01 X23.4546 Y49.0573
G01 X23.4628 Y49.0519
G01 X23.7321 Y48.8904
G01 X23.7408 Y48.8858
G01 X24.0247 Y48.7515
G01 X24.0338 Y48.7478
G01 X24.3294 Y48.6420
G01 X24.3388 Y48.6391
G01 X24.6435 Y48.5628
G01 X24.6531 Y48.5609
G01 X24.9637 Y48.5148
G01 X24.9735 Y48.5139
G01 X25.2871 Y48.4985
G01 X25.2970 Y48.4985
G01 X25.6106 Y48.5139
G01 X25.6204 Y48.5148
G01 X25.9310 Y48.5609
G01 X25.9407 Y48.5628
G01 X26.2453 Y48.6391
G01 X26.2547 Y48.6420
G01 X26.5503 Y48.7478
G01 X26.5594 Y48.7515
G01 X26.8433 Y48.8858
G01 X26.8520 Y48.8904
G01 X27.1213 Y49.0519
G01 X27.1295 Y49.0573
G01 X27.3817 Y49.2444
G01 X27.3893 Y49.2506
G01 X27.6220 Y49.4615
G01 X27.6289 Y49.4685
G01 X27.8398 Y49.7011
G01 X27.8460 Y49.7087
G01 X28.0331 Y49.9610
G01 X28.0386 Y49.9691
G01 X28.2000 Y50.2385
G01 X28.2046 Y50.2471
G01 X28.3389 Y50.5310
G01 X28.3427 Y50.5401
G01 X28.4485 Y50.8358
G01 X28.4513 Y50.8452
G01 X28.5276 Y51.1498
G01 X28.5295 Y51.1594
G01 X28.5756 Y51.4701
G01 X28.5766 Y51.4798
G01 X28.5920 Y51.7935
G00 Z2.0000
G00 X7.8990 Y54.8033
G01 F120.00
G01 Z-2.4000
G01 F120.00
G01 X7.8865 Y55.0581
G01 X7.8855 Y55.0679
G01 X7.8481 Y55.3203
G01 X7.8462 Y55.3299
G01 X7.7842 Y55.5774
G01 X7.7813 Y55.5868
G01 X7.6954 Y55.8271
G01 X7.6916 Y55.8361
G01 X7.5825 Y56.0668
G01 X7.5779 Y56.0755
G01 X7.4467 Y56.2943
G01 X7.4413 Y56.3025
G01 X7.2893 Y56.5074
G01 X7.2830 Y56.5150
G01 X7.1117 Y56.7041
G01 X7.1047 Y56.7110
G01 X6.9157 Y56.8823
G01 X6.9081 Y56.8886
G01 X6.7032 Y57.0406
G01 X6.6950 Y57.0460
G01 X6.4761 Y57.1772
G01 X6.4675 Y57.1818
G01 X6.2368 Y57.2909
G01 X6.2278 Y57.2947
G01 X5.9875 Y57.3806
G01 X5.9781 Y57.3835
G01 X5.7306 Y57.4455
G01 X5.7210 Y57.4474
G01 X5.4686 Y57.4848
G01 X5.4588 Y57.4858
G01 X5.2040 Y57.4983
G01 X5.1942 Y57.4983
G01 X4.9393 Y57.4858
G01 X4.9296 Y57.4848
G01 X4.6772 Y57.4474
G01 X4.6675 Y57.4455
G01 X4.4200 Y57.3835
G01 X4.4106 Y57.3806
G01 X4.1704 Y57.2947
G01 X4.1613 Y57.2909
G01 X3.9307 Y57.1818
G01 X3.9220 Y57.1772
G01 X3.7032 Y57.0460
G01 X3.6950 Y57.0406
G01 X3.4901 Y56.8886
G01 X3.4825 Y56.8823
G01 X3.2934 Y56.7110
G01 X3.2865 Y56.7041
G01 X3.1151 Y56.5150
G01 X3.1089 Y56.5074
G01 X2.9569 Y56.3025
G01 X2.9514 Y56.2943
G01 X2.8203 Y56.0755
G01 X2.8156 Y56.0668
G01 X2.7065 Y55.8361
G01 X2.7028 Y55.8271
G01 X2.6168 Y55.5868
G01 X2.6140 Y55.5774
G01 X2.5520 Y55.3299
G01 X2.5501 Y55.3203
G01 X2.5126 Y55.0679
G01 X2.5117 Y55.0581
G01 X2.4991 Y54.8033
G01 X2.4991 Y54.7935
G01 X2.5117 Y54.5386
G01 X2.5126 Y54.5289
G01 X2.5501 Y54.2765
G01 X2.5520 Y54.2668
G01 X2.6140 Y54.0193
G01 X2.6168 Y54.0099
G01 X2.7028 Y53.7697
G01 X2.7065 Y53.7606
G01 X2.8156 Y53.5300
G01 X2.8203 Y53.5213
G01 X2.9514 Y53.3025
G01 X2.9569 Y53.2943
G01 X3.1089 Y53.0894
G01 X3.1151 Y53.0818
G01 X3.2865 Y52.8927
G01 X3.2934 Y52.8858
G01 X3.4825 Y52.7144
G01 X3.4901 Y52.7082
G01 X3.6950 Y52.5562
G01 X3.7032 Y52.5508
G01 X3.9220 Y52.4196
G01 X3.9307 Y52.4150
G01 X4.1613 Y52.3059
G01 X4.1704 Y52.3021
G01 X4.4106 Y52.2161
G01 X4.4200 Y52.2133
G01 X4.6675 Y52.1513
G01 X4.6772 Y52.1494
G01 X4.9296 Y52.1119
G01 X4.9393 Y52.1110
G01 X5.1942 Y52.0985
G01 X5.2040 Y52.0985
G01 X5.4588 Y52.1110
G01 X5.4686 Y52.1119
G01 X5.7210 Y52.1494
G01 X5.7306 Y52.1513
G01 X5.9781 Y52.2133
G01 X5.9875 Y52.2161
G01 X6.2278 Y52.3021
G01 X6.2368 Y52.3059
G01 X6.4675 Y52.4150
G01 X6.4761 Y52.4196
G01 X6.6950 Y52.5508
G01 X6.7032 Y52.5562
G01 X6.9081 Y52.7082
G01 X6.9157 Y52.7144
G01 X7.1047 Y52.8858
G01 X7.1117 Y52.8927
G01 X7.2830 Y53.0818
G01 X7.2893 Y53.0894
G01 X7.4413 Y53.2943
G01 X7.4467 Y53.3025
G01 X7.5779 Y53.5213
G01 X7.5825 Y53.5300
G01 X7.6916 Y53.7606
G01 X7.6954 Y53.7697
G01 X7.7813 Y54.0099
G01 X7.7842 Y54.0193
G01 X7.8462 Y54.2668
G01 X7.8481 Y54.2765
G01 X7.8855 Y54.5289
G01 X7.8865 Y54.5386
G01 X7.8990 Y54.7935
G01 X7.8990 Y54.8033
G00 Z2.0000
G00 X0.0990 Y59.7984
G01 F120.00
G01 Z-2.4000
G01 F120.00
G01 X0.0990 Y-0.2016
G01 X0.0995 Y-0.2114
G01 X0.1010 Y-0.2211
G01 X0.1033 Y-0.2307
G01 X0.1066 Y-0.2399
G01 X0.1108 Y-0.2488
G01 X0.1159 Y-0.2572
G01 X0.1217 Y-0.2651
G01 X0.1283 Y-0.2724
G01 X0.1356 Y-0.2789
G01 X0.1435 Y-0.2848
G01 X0.1519 Y-0.2898
G01 X0.1608 Y-0.2940
G01 X0.1700 Y-0.2974
G01 X0.1796 Y-0.2997
G01 X0.1893 Y-0.3012
G01 X0.1991 Y-0.3017
G01 X25.2921 Y-0.3017
G01 X25.3019 Y-0.3012
G01 X25.3116 Y-0.2997
G01 X25.3211 Y-0.2974
G01 X25.3303 Y-0.2940
G01 X25.3392 Y-0.2898
G01 X25.3476 Y-0.2848
G01 X25.3555 Y-0.2789
G01 X25.3628 Y-0.2724
G01 X25.3694 Y-0.2651
G01 X25.3752 Y-0.2572
G01 X25.3803 Y-0.2488
G01 X25.3845 Y-0.2399
G01 X25.3878 Y-0.2307
G01 X25.3902 Y-0.2211
G01 X25.3916 Y-0.2114
G01 X25.3921 Y-0.2016
G01 X25.3921 Y1.5089
G01 X25.3916 Y1.5187
G01 X25.3902 Y1.5284
G01 X25.3878 Y1.5379
G01 X25.3845 Y1.5472
G01 X25.3803 Y1.5561
G01 X25.3752 Y1.5645
G01 X25.3694 Y1.5724
G01 X25.3628 Y1.5796
G01 X25.3555 Y1.5862
G01 X25.3476 Y1.5921
G01 X25.3392 Y1.5971
G01 X25.3303 Y1.6013
G01 X25.3211 Y1.6046
G01 X25.3116 Y1.6070
G01 X25.3019 Y1.6085
G01 X24.6854 Y1.6389
G01 X24.0846 Y1.7280
G01 X23.4954 Y1.8756
G01 X22.9235 Y2.0802
G01 X22.3744 Y2.3399
G01 X21.8535 Y2.6522
G01 X21.3656 Y3.0140
G01 X20.9155 Y3.4219
G01 X20.5076 Y3.8719
G01 X20.1458 Y4.3598
G01 X19.8336 Y4.8808
G01 X19.5739 Y5.4298
G01 X19.3692 Y6.0017
G01 X19.2217 Y6.5909
G01 X19.1325 Y7.1917
G01 X19.1027 Y7.7984
G01 X19.1325 Y8.4050
G01 X19.2217 Y9.0059
G01 X19.3692 Y9.5951
G01 X19.5739 Y10.1669
G01 X19.8336 Y10.7160
G01 X20.1458 Y11.2370
G01 X20.5076 Y11.7249
G01 X20.9155 Y12.1749
G01 X21.3656 Y12.5828
G01 X21.8535 Y12.9446
G01 X22.3744 Y13.2569
G01 X22.9235 Y13.5166
G01 X23.4954 Y13.7212
G01 X24.0846 Y13.8688
G01 X24.6854 Y13.9579
G01 X25.2970 Y13.9880
G01 X25.3067 Y13.9889
G01 X25.3164 Y13.9908
G01 X25.3258 Y13.9937
G01 X25.3348 Y13.9974
G01 X25.3435 Y14.0021
G01 X25.3517 Y14.0075
G01 X25.3628 Y14.0171
G01 X25.3694 Y14.0244
G01 X25.3752 Y14.0323
G01 X25.3825 Y14.0451
G01 X25.3878 Y14.0588
G01 X25.3910 Y14.0732
G01 X25.3921 Y14.0879
G01 X25.3921 Y17.6983
G01 X130.1991 Y17.6983
G01 X130.2089 Y17.6988
G01 X130.2186 Y17.7003
G01 X130.2281 Y17.7026
G01 X130.2374 Y17.7060
G01 X130.2462 Y17.7102
G01 X130.2547 Y17.7152
G01 X130.2626 Y17.7211
G01 X130.2698 Y17.7276
G01 X130.2764 Y17.7349
G01 X130.2823 Y17.7428
G01 X130.2873 Y17.7512
G01 X130.2915 Y17.7601
G01 X130.2948 Y17.7693
G01 X130.2972 Y17.7789
G01 X130.2986 Y17.7886
G01 X130.2991 Y17.7984
G01 X130.2991 Y27.7774
G01 X130.2986 Y27.7872
G01 X130.2972 Y27.7970
G01 X130.2948 Y27.8065
G01 X130.2915 Y27.8157
G01 X130.2873 Y27.8246
G01 X130.2823 Y27.8330
G01 X130.2764 Y27.8409
G01 X130.2698 Y27.8482
G01 X130.2626 Y27.8548
G01 X130.2547 Y27.8606
G01 X130.2462 Y27.8657
G01 X130.2374 Y27.8699
G01 X130.2281 Y27.8732
G01 X130.2186 Y27.8756
G01 X130.2089 Y27.8770
G01 X130.1991 Y27.8775
G01 X128.6510 Y27.8775
G01 X128.6412 Y27.8770
G01 X128.6315 Y27.8756
G01 X128.6209 Y27.8729
G01 X128.6127 Y27.8699
G01 X128.6038 Y27.8657
G01 X128.5945 Y27.8600
G01 X128.5875 Y27.8548
G01 X128.5803 Y27.8482
G01 X128.5730 Y27.8401
G01 X128.5672 Y27.8321
G01 X128.3573 Y27.5105
G01 X128.1202 Y27.2146
G01 X127.8554 Y26.9431
G01 X127.5656 Y26.6986
G01 X127.2533 Y26.4835
G01 X126.9217 Y26.2996
G01 X126.5737 Y26.1489
G01 X126.2128 Y26.0326
G01 X125.8423 Y25.9520
G01 X125.4657 Y25.9077
G01 X125.0865 Y25.9002
G01 X124.7085 Y25.9295
G01 X124.3351 Y25.9955
G01 X123.9698 Y26.0974
G01 X123.6162 Y26.2342
G01 X123.2775 Y26.4048
G01 X122.9570 Y26.6075
G01 X122.6577 Y26.8403
G01 X122.3824 Y27.1011
G01 X122.1338 Y27.3874
G01 X121.9141 Y27.6965
G01 X121.7255 Y28.0255
G01 X121.5698 Y28.3712
G01 X121.4483 Y28.7304
G01 X121.3623 Y29.0998
G01 X121.3126 Y29.4757
G01 X121.2997 Y29.8547
G01 X121.3236 Y30.2331
G01 X121.3841 Y30.6074
G01 X121.4807 Y30.9741
G01 X121.6125 Y31.3297
G01 X121.7781 Y31.6708
G01 X121.9762 Y31.9942
G01 X122.2047 Y32.2968
G01 X122.4615 Y32.5758
G01 X122.7441 Y32.8286
G01 X123.0500 Y33.0527
G01 X123.3762 Y33.2460
G01 X123.7197 Y33.4067
G01 X124.0771 Y33.5333
G01 X124.4452 Y33.6247
G01 X124.8203 Y33.6798
G01 X125.1991 Y33.6982
G01 X125.5676 Y33.6808
G01 X125.9329 Y33.6286
G01 X126.2916 Y33.5421
G01 X126.6405 Y33.4221
G01 X126.9765 Y33.2696
G01 X127.2966 Y33.0861
G01 X127.5980 Y32.8731
G01 X127.8778 Y32.6327
G01 X128.1337 Y32.3668
G01 X128.3633 Y32.0780
G01 X128.5671 Y31.7648
G01 X128.5729 Y31.7568
G01 X128.5803 Y31.7486
G01 X128.5866 Y31.7428
G01 X128.5944 Y31.7368
G01 X128.6038 Y31.7311
G01 X128.6127 Y31.7269
G01 X128.6208 Y31.7240
G01 X128.6303 Y31.7215
G01 X128.6400 Y31.7199
G01 X128.6510 Y31.7193
G01 X130.1991 Y31.7193
G01 X130.2089 Y31.7198
G01 X130.2186 Y31.7212
G01 X130.2281 Y31.7236
G01 X130.2374 Y31.7269
G01 X130.2462 Y31.7311
G01 X130.2547 Y31.7362
G01 X130.2626 Y31.7420
G01 X130.2698 Y31.7486
G01 X130.2764 Y31.7559
G01 X130.2823 Y31.7638
G01 X130.2873 Y31.7722
G01 X130.2915 Y31.7811
G01 X130.2948 Y31.7903
G01 X130.2972 Y31.7998
G01 X130.2986 Y31.8095
G01 X130.2991 Y31.8193
G01 X130.2991 Y59.7984
G01 X130.2986 Y59.8082
G01 X130.2972 Y59.8179
G01 X130.2948 Y59.8274
G01 X130.2915 Y59.8367
G01 X130.2873 Y59.8456
G01 X130.2823 Y59.8540
G01 X130.2764 Y59.8619
G01 X130.2698 Y59.8691
G01 X130.2626 Y59.8757
G01 X130.2547 Y59.8816
G01 X130.2462 Y59.8866
G01 X130.2374 Y59.8908
G01 X130.2281 Y59.8941
G01 X130.2186 Y59.8965
G01 X130.2089 Y59.8980
G01 X130.1991 Y59.8984
G01 X49.1991 Y59.8984
G01 X49.1893 Y59.8980
G01 X49.1796 Y59.8965
G01 X49.1700 Y59.8941
G01 X49.1608 Y59.8908
G01 X49.1519 Y59.8866
G01 X49.1435 Y59.8816
G01 X49.1356 Y59.8757
G01 X49.1283 Y59.8691
G01 X49.1217 Y59.8619
G01 X49.1159 Y59.8540
G01 X49.1108 Y59.8456
G01 X49.1066 Y59.8367
G01 X49.1033 Y59.8274
G01 X49.1010 Y59.8179
G01 X49.0995 Y59.8082
G01 X49.0990 Y59.7984
G01 X49.0990 Y47.8984
G01 X31.2991 Y47.8984
G01 X31.2991 Y59.7984
G01 X31.2986 Y59.8082
G01 X31.2972 Y59.8179
G01 X31.2948 Y59.8274
G01 X31.2915 Y59.8367
G01 X31.2873 Y59.8456
G01 X31.2823 Y59.8540
G01 X31.2764 Y59.8619
G01 X31.2698 Y59.8691
G01 X31.2626 Y59.8757
G01 X31.2547 Y59.8816
G01 X31.2462 Y59.8866
G01 X31.2374 Y59.8908
G01 X31.2281 Y59.8941
G01 X31.2186 Y59.8965
G01 X31.2089 Y59.8980
G01 X31.1991 Y59.8984
G01 X0.1991 Y59.8984
G01 X0.1893 Y59.8980
G01 X0.1796 Y59.8965
G01 X0.1700 Y59.8941
G01 X0.1608 Y59.8908
G01 X0.1519 Y59.8866
G01 X0.1435 Y59.8816
G01 X0.1356 Y59.8757
G01 X0.1283 Y59.8691
G01 X0.1217 Y59.8619
G01 X0.1159 Y59.8540
G01 X0.1108 Y59.8456
G01 X0.1066 Y59.8367
G01 X0.1033 Y59.8274
G01 X0.1010 Y59.8179
G01 X0.0995 Y59.8082
G01 X0.0990 Y59.7984
G00 Z2.0000
G00 X122.2890 Y54.7935
G01 F120.00
G01 Z-2.4000
G01 F120.00
G01 X122.2890 Y54.8033
G01 X122.2765 Y55.0581
G01 X122.2755 Y55.0679
G01 X122.2381 Y55.3203
G01 X122.2362 Y55.3299
G01 X122.1742 Y55.5774
G01 X122.1713 Y55.5868
G01 X122.0854 Y55.8271
G01 X122.0816 Y55.8361
G01 X121.9725 Y56.0668
G01 X121.9679 Y56.0755
G01 X121.8367 Y56.2943
G01 X121.8313 Y56.3025
G01 X121.6793 Y56.5074
G01 X121.6730 Y56.5150
G01 X121.5017 Y56.7041
G01 X121.4947 Y56.7110
G01 X121.3057 Y56.8823
G01 X121.2981 Y56.8886
G01 X121.0932 Y57.0406
G01 X121.0850 Y57.0460
G01 X120.8661 Y57.1772
G01 X120.8575 Y57.1818
G01 X120.6268 Y57.2909
G01 X120.6178 Y57.2947
G01 X120.3775 Y57.3806
G01 X120.3681 Y57.3835
G01 X120.1206 Y57.4455
G01 X120.1110 Y57.4474
G01 X119.8586 Y57.4848
G01 X119.8488 Y57.4858
G01 X119.5940 Y57.4983
G01 X119.5842 Y57.4983
G01 X119.3293 Y57.4858
G01 X119.3196 Y57.4848
G01 X119.0672 Y57.4474
G01 X119.0575 Y57.4455
G01 X118.8100 Y57.3835
G01 X118.8006 Y57.3806
G01 X118.5604 Y57.2947
G01 X118.5513 Y57.2909
G01 X118.3207 Y57.1818
G01 X118.3120 Y57.1772
G01 X118.0932 Y57.0460
G01 X118.0850 Y57.0406
G01 X117.8801 Y56.8886
G01 X117.8725 Y56.8823
G01 X117.6834 Y56.7110
G01 X117.6765 Y56.7041
G01 X117.5051 Y56.5150
G01 X117.4989 Y56.5074
G01 X117.3469 Y56.3025
G01 X117.3414 Y56.2943
G01 X117.2103 Y56.0755
G01 X117.2056 Y56.0668
G01 X117.0965 Y55.8361
G01 X117.0928 Y55.8271
G01 X117.0068 Y55.5868
G01 X117.0040 Y55.5774
G01 X116.9420 Y55.3299
G01 X116.9401 Y55.3203
G01 X116.9026 Y55.0679
G01 X116.9017 Y55.0581
G01 X116.8891 Y54.8033
G01 X116.8891 Y54.7935
G01 X116.9017 Y54.5386
G01 X116.9026 Y54.5289
G01 X116.9401 Y54.2765
G01 X116.9420 Y54.2668
G01 X117.0040 Y54.0193
G01 X117.0068 Y54.0099
G01 X117.0928 Y53.7697
G01 X117.0965 Y53.7606
G01 X117.2056 Y53.5300
G01 X117.2103 Y53.5213
G01 X117.3414 Y53.3025
G01 X117.3469 Y53.2943
G01 X117.4989 Y53.0894
G01 X117.5051 Y53.0818
G01 X117.6765 Y52.8927
G01 X117.6834 Y52.8858
G01 X117.8725 Y52.7144
G01 X117.8801 Y52.7082
G01 X118.0850 Y52.5562
G01 X118.0932 Y52.5508
G01 X118.3120 Y52.4196
G01 X118.3207 Y52.4150
G01 X118.5513 Y52.3059
G01 X118.5604 Y52.3021
G01 X118.8006 Y52.2161
G01 X118.8100 Y52.2133
G01 X119.0575 Y52.1513
G01 X119.0672 Y52.1494
G01 X119.3196 Y52.1119
G01 X119.3293 Y52.1110
G01 X119.5842 Y52.0985
G01 X119.5940 Y52.0985
G01 X119.8488 Y52.1110
G01 X119.8586 Y52.1119
G01 X120.1110 Y52.1494
G01 X120.1206 Y52.1513
G01 X120.3681 Y52.2133
G01 X120.3775 Y52.2161
G01 X120.6178 Y52.3021
G01 X120.6268 Y52.3059
G01 X120.8575 Y52.4150
G01 X120.8661 Y52.4196
G01 X121.0850 Y52.5508
G01 X121.0932 Y52.5562
G01 X121.2981 Y52.7082
G01 X121.3057 Y52.7144
G01 X121.4947 Y52.8858
G01 X121.5017 Y52.8927
G01 X121.6730 Y53.0818
G01 X121.6793 Y53.0894
G01 X121.8313 Y53.2943
G01 X121.8367 Y53.3025
G01 X121.9679 Y53.5213
G01 X121.9725 Y53.5300
G01 X122.0816 Y53.7606
G01 X122.0854 Y53.7697
G01 X122.1713 Y54.0099
G01 X122.1742 Y54.0193
G01 X122.2362 Y54.2668
G01 X122.2381 Y54.2765
G01 X122.2755 Y54.5289
G01 X122.2765 Y54.5386
G01 X122.2890 Y54.7935
G00 Z2.0000
M05
G00 Z2.0000
G00 Z8.00


