(G-CODE GENERATED BY FLATCAM v8.994 - www.flatcam.org - Version Date: 2020/11/7)

(Name: fixed_head_pcb-B_Cu.gbr_iso_combined_cnc)
(Type: G-code from Geometry)
(Units: MM)

(Created on dimanche, 20 février 2022 at 13:53)

(This preprocessor is the default preprocessor used by FlatCAM.)
(It is made to work with MACH3 compatible motion controllers.)

(TOOL DIAMETER: 0.2536 mm)
(Feedrate_XY: 120.0 mm/min)
(Feedrate_Z: 60.0 mm/min)
(Feedrate rapids 1500.0 mm/min)

(Z_Cut: -0.1 mm)
(Z_Move: 2.0 mm)
(Z Start: None mm)
(Z End: 5.0 mm)
(X,Y End: None mm)
(Steps per circle: 64)
(Preprocessor Geometry: default)

(X range:   -0.0197 ...   50.3066  mm)
(Y range:   -0.0656 ...   47.1519  mm)

(Spindle Speed: 1000.0 RPM)
G21
G90
G94

G01 F120.00

M5
G00 Z15.0000
G00 X0.0000 Y0.0000
T1
M6    
(MSG, Change to Tool Dia = 0.2536)
M0
G00 Z15.0000

M03 S1000.0
G01 F120.00
G00 X12.7890 Y3.4651
G01 F60.00
G01 Z-0.1000
G01 F120.00
G01 X13.1790 Y3.2045
G01 X13.6123 Y3.0250
G01 X14.0724 Y2.9335
G01 X14.5414 Y2.9335
G01 X15.0014 Y3.0250
G01 X15.4348 Y3.2045
G01 X15.8248 Y3.4651
G01 X16.1564 Y3.7968
G01 X16.4170 Y4.1867
G01 X16.5965 Y4.6201
G01 X16.6880 Y5.0801
G01 X16.6880 Y5.5492
G01 X16.5965 Y6.0092
G01 X16.4170 Y6.4425
G01 X16.1564 Y6.8325
G01 X15.8248 Y7.1642
G01 X15.4348 Y7.4248
G01 X15.0014 Y7.6043
G01 X14.5414 Y7.6958
G01 X14.0724 Y7.6958
G01 X13.6123 Y7.6043
G01 X13.1790 Y7.4248
G01 X12.7890 Y7.1642
G01 X12.4573 Y6.8325
G01 X12.1967 Y6.4425
G01 X12.0172 Y6.0092
G01 X11.9257 Y5.5492
G01 X11.9257 Y5.0801
G01 X12.0172 Y4.6201
G01 X12.1967 Y4.1867
G01 X12.4573 Y3.7968
G01 X12.7890 Y3.4651
G00 Z2.0000
G00 X16.4231 Y5.1031
G01 F60.00
G01 Z-0.1000
G01 F120.00
G01 X16.4239 Y5.1124
G01 X16.4337 Y5.3146
G01 X16.4234 Y5.5231
G01 X16.3928 Y5.7296
G01 X16.3421 Y5.9320
G01 X16.2718 Y6.1285
G01 X16.1826 Y6.3172
G01 X16.0752 Y6.4962
G01 X15.9509 Y6.6639
G01 X15.8108 Y6.8185
G01 X15.6561 Y6.9587
G01 X15.4885 Y7.0830
G01 X15.3094 Y7.1903
G01 X15.1208 Y7.2795
G01 X14.9243 Y7.3499
G01 X14.7218 Y7.4006
G01 X14.5153 Y7.4312
G01 X14.3069 Y7.4414
G01 X14.0984 Y7.4312
G01 X13.8920 Y7.4006
G01 X13.6895 Y7.3499
G01 X13.4930 Y7.2795
G01 X13.3043 Y7.1903
G01 X13.1253 Y7.0830
G01 X12.9577 Y6.9587
G01 X12.8030 Y6.8185
G01 X12.6628 Y6.6639
G01 X12.5385 Y6.4962
G01 X12.4312 Y6.3172
G01 X12.3420 Y6.1285
G01 X12.2717 Y5.9320
G01 X12.2209 Y5.7296
G01 X12.1903 Y5.5231
G01 X12.1801 Y5.3146
G01 X12.1903 Y5.1062
G01 X12.2209 Y4.8997
G01 X12.2717 Y4.6973
G01 X12.3420 Y4.5007
G01 X12.4312 Y4.3121
G01 X12.5385 Y4.1331
G01 X12.6628 Y3.9654
G01 X12.8030 Y3.8108
G01 X12.9577 Y3.6706
G01 X13.1253 Y3.5463
G01 X13.3043 Y3.4390
G01 X13.4930 Y3.3497
G01 X13.6895 Y3.2794
G01 X13.8920 Y3.2287
G01 X14.0984 Y3.1981
G01 X14.3069 Y3.1878
G01 X14.5153 Y3.1981
G01 X14.7218 Y3.2287
G01 X14.9243 Y3.2794
G01 X15.1208 Y3.3497
G01 X15.3094 Y3.4390
G01 X15.4885 Y3.5463
G01 X15.6561 Y3.6706
G01 X15.8108 Y3.8108
G01 X15.9509 Y3.9654
G01 X16.0752 Y4.1331
G01 X16.1826 Y4.3121
G01 X16.2718 Y4.5007
G01 X16.3421 Y4.6973
G01 X16.3928 Y4.8997
G01 X16.4231 Y5.1031
G00 Z2.0000
G00 X21.7808 Y4.3143
G01 F60.00
G01 Z-0.1000
G01 F120.00
G01 X21.6987 Y4.2848
G01 X21.6738 Y4.2769
G01 X21.5807 Y4.2536
G01 X21.5637 Y4.2502
G01 X21.5517 Y4.2483
G01 X21.5684 Y4.2250
G01 X21.5841 Y4.1996
G01 X21.5967 Y4.1767
G01 X21.6095 Y4.1496
G01 X21.6631 Y4.2088
G01 X21.6814 Y4.2275
G01 X21.7525 Y4.2919
G01 X21.7659 Y4.3029
G01 X21.7813 Y4.3145
G01 X21.7808 Y4.3143
G00 Z2.0000
G00 X22.2689 Y5.2907
G01 F60.00
G01 Z-0.1000
G01 F120.00
G01 X22.2697 Y5.3000
G01 X22.2737 Y5.3846
G01 X22.2692 Y5.4755
G01 X22.2559 Y5.5654
G01 X22.2338 Y5.6537
G01 X22.2031 Y5.7393
G01 X22.1642 Y5.8215
G01 X22.1175 Y5.8995
G01 X22.0633 Y5.9726
G01 X22.0022 Y6.0400
G01 X21.9348 Y6.1011
G01 X21.8618 Y6.1552
G01 X21.7838 Y6.2020
G01 X21.7016 Y6.2409
G01 X21.6159 Y6.2715
G01 X21.5277 Y6.2936
G01 X21.4377 Y6.3070
G01 X21.3469 Y6.3114
G01 X21.2560 Y6.3070
G01 X21.1661 Y6.2936
G01 X21.0778 Y6.2715
G01 X20.9922 Y6.2409
G01 X20.9100 Y6.2020
G01 X20.8320 Y6.1552
G01 X20.7589 Y6.1011
G01 X20.6915 Y6.0400
G01 X20.6305 Y5.9726
G01 X20.5763 Y5.8995
G01 X20.5295 Y5.8215
G01 X20.4906 Y5.7393
G01 X20.4600 Y5.6537
G01 X20.4379 Y5.5654
G01 X20.4245 Y5.4755
G01 X20.4201 Y5.3846
G01 X20.4245 Y5.2938
G01 X20.4379 Y5.2038
G01 X20.4600 Y5.1156
G01 X20.4906 Y5.0300
G01 X20.5295 Y4.9477
G01 X20.5763 Y4.8697
G01 X20.6305 Y4.7967
G01 X20.6915 Y4.7293
G01 X20.7589 Y4.6682
G01 X20.8320 Y4.6140
G01 X20.9100 Y4.5673
G01 X20.9922 Y4.5284
G01 X21.0778 Y4.4977
G01 X21.1661 Y4.4756
G01 X21.2560 Y4.4623
G01 X21.3469 Y4.4578
G01 X21.4377 Y4.4623
G01 X21.5277 Y4.4756
G01 X21.6159 Y4.4977
G01 X21.7016 Y4.5284
G01 X21.7838 Y4.5673
G01 X21.8618 Y4.6140
G01 X21.9348 Y4.6682
G01 X22.0022 Y4.7293
G01 X22.0633 Y4.7967
G01 X22.1175 Y4.8697
G01 X22.1642 Y4.9477
G01 X22.2031 Y5.0300
G01 X22.2338 Y5.1156
G01 X22.2559 Y5.2038
G01 X22.2689 Y5.2907
G00 Z2.0000
G00 X22.1574 Y6.2075
G01 F60.00
G01 Z-0.1000
G01 F120.00
G01 X22.1756 Y6.1888
G01 X22.2284 Y6.1306
G01 X22.2397 Y6.1174
G01 X22.2505 Y6.1037
G01 X22.2972 Y6.0406
G01 X22.3073 Y6.0263
G01 X22.3166 Y6.0116
G01 X22.3569 Y5.9443
G01 X22.3695 Y5.9214
G01 X22.4069 Y5.8426
G01 X22.4140 Y5.8267
G01 X22.4203 Y5.8104
G01 X22.4467 Y5.7365
G01 X22.4522 Y5.7199
G01 X22.4568 Y5.7031
G01 X22.4759 Y5.6270
G01 X22.4797 Y5.6100
G01 X22.4827 Y5.5928
G01 X22.4919 Y5.5310
G01 X22.5011 Y5.5928
G01 X22.5040 Y5.6100
G01 X22.5079 Y5.6270
G01 X22.5269 Y5.7031
G01 X22.5316 Y5.7199
G01 X22.5370 Y5.7365
G01 X22.5635 Y5.8104
G01 X22.5698 Y5.8267
G01 X22.5768 Y5.8426
G01 X22.6142 Y5.9214
G01 X22.6268 Y5.9443
G01 X22.6672 Y6.0116
G01 X22.6765 Y6.0263
G01 X22.6865 Y6.0406
G01 X22.7333 Y6.1037
G01 X22.7440 Y6.1174
G01 X22.7554 Y6.1306
G01 X22.8081 Y6.1888
G01 X22.8201 Y6.2014
G01 X22.8287 Y6.2096
G01 X22.1551 Y6.2096
G01 X22.1574 Y6.2075
G00 Z2.0000
G00 X22.9179 Y4.4811
G01 F60.00
G01 Z-0.1000
G01 F120.00
G01 X22.9041 Y4.4918
G01 X22.8909 Y4.5032
G01 X22.8328 Y4.5559
G01 X22.8201 Y4.5679
G01 X22.8081 Y4.5805
G01 X22.7554 Y4.6387
G01 X22.7440 Y4.6519
G01 X22.7333 Y4.6656
G01 X22.6865 Y4.7287
G01 X22.6765 Y4.7429
G01 X22.6672 Y4.7577
G01 X22.6224 Y4.8325
G01 X22.6104 Y4.8557
G01 X22.5768 Y4.9267
G01 X22.5698 Y4.9426
G01 X22.5635 Y4.9589
G01 X22.5342 Y5.0410
G01 X22.5269 Y5.0661
G01 X22.5058 Y5.1508
G01 X22.5011 Y5.1765
G01 X22.4919 Y5.2383
G01 X22.4827 Y5.1765
G01 X22.4779 Y5.1508
G01 X22.4568 Y5.0661
G01 X22.4496 Y5.0410
G01 X22.4203 Y4.9589
G01 X22.4140 Y4.9426
G01 X22.4069 Y4.9267
G01 X22.3734 Y4.8557
G01 X22.3613 Y4.8325
G01 X22.3166 Y4.7577
G01 X22.3073 Y4.7429
G01 X22.2972 Y4.7287
G01 X22.2505 Y4.6656
G01 X22.2341 Y4.6452
G01 X22.1756 Y4.5805
G01 X22.1574 Y4.5618
G01 X22.0863 Y4.4974
G01 X22.0728 Y4.4863
G01 X22.0574 Y4.4748
G01 X22.1400 Y4.5045
G01 X22.1566 Y4.5099
G01 X22.1734 Y4.5146
G01 X22.2495 Y4.5337
G01 X22.2665 Y4.5375
G01 X22.2837 Y4.5405
G01 X22.3614 Y4.5520
G01 X22.3787 Y4.5541
G01 X22.3960 Y4.5554
G01 X22.4745 Y4.5593
G01 X22.4919 Y4.5597
G01 X22.5093 Y4.5593
G01 X22.5877 Y4.5554
G01 X22.6051 Y4.5541
G01 X22.6224 Y4.5520
G01 X22.7087 Y4.5391
G01 X22.7342 Y4.5337
G01 X22.8104 Y4.5146
G01 X22.8272 Y4.5099
G01 X22.8437 Y4.5045
G01 X22.9263 Y4.4748
G01 X22.9179 Y4.4811
G00 Z2.0000
G00 X23.6461 Y3.6128
G01 F60.00
G01 Z-0.1000
G01 F120.00
G01 X23.6490 Y3.6300
G01 X23.6529 Y3.6470
G01 X23.6719 Y3.7231
G01 X23.6766 Y3.7399
G01 X23.6820 Y3.7565
G01 X23.7115 Y3.8386
G01 X23.7218 Y3.8626
G01 X23.7554 Y3.9336
G01 X23.7632 Y3.9491
G01 X23.7718 Y3.9643
G01 X23.8122 Y4.0316
G01 X23.8264 Y4.0535
G01 X23.8836 Y4.1306
G01 X23.9004 Y4.1506
G01 X23.9531 Y4.2088
G01 X23.9714 Y4.2275
G01 X24.0359 Y4.2861
G01 X24.0491 Y4.2975
G01 X24.0713 Y4.3145
G01 X23.9887 Y4.2848
G01 X23.9722 Y4.2793
G01 X23.9554 Y4.2747
G01 X23.8792 Y4.2556
G01 X23.8622 Y4.2518
G01 X23.8450 Y4.2488
G01 X23.7674 Y4.2373
G01 X23.7501 Y4.2352
G01 X23.7327 Y4.2339
G01 X23.6543 Y4.2300
G01 X23.6369 Y4.2296
G01 X23.6195 Y4.2300
G01 X23.5410 Y4.2339
G01 X23.5237 Y4.2352
G01 X23.5064 Y4.2373
G01 X23.4287 Y4.2488
G01 X23.4115 Y4.2518
G01 X23.3945 Y4.2556
G01 X23.3184 Y4.2747
G01 X23.3016 Y4.2793
G01 X23.2850 Y4.2848
G01 X23.2024 Y4.3145
G01 X23.2246 Y4.2975
G01 X23.2378 Y4.2861
G01 X23.3024 Y4.2275
G01 X23.3206 Y4.2088
G01 X23.3734 Y4.1506
G01 X23.3847 Y4.1374
G01 X23.3955 Y4.1237
G01 X23.4422 Y4.0606
G01 X23.4570 Y4.0390
G01 X23.5019 Y3.9643
G01 X23.5105 Y3.9491
G01 X23.5184 Y3.9336
G01 X23.5519 Y3.8626
G01 X23.5590 Y3.8467
G01 X23.5653 Y3.8304
G01 X23.5946 Y3.7482
G01 X23.6018 Y3.7231
G01 X23.6209 Y3.6470
G01 X23.6247 Y3.6300
G01 X23.6277 Y3.6128
G01 X23.6369 Y3.5510
G01 X23.6461 Y3.6128
G00 Z2.0000
G00 X23.8315 Y2.7487
G01 F60.00
G01 Z-0.1000
G01 F120.00
G01 X23.8215 Y2.7629
G01 X23.8122 Y2.7777
G01 X23.7718 Y2.8450
G01 X23.7632 Y2.8602
G01 X23.7554 Y2.8757
G01 X23.7218 Y2.9467
G01 X23.7115 Y2.9707
G01 X23.6792 Y3.0610
G01 X23.6719 Y3.0861
G01 X23.6529 Y3.1623
G01 X23.6490 Y3.1793
G01 X23.6461 Y3.1965
G01 X23.6369 Y3.2583
G01 X23.6263 Y3.1879
G01 X23.6209 Y3.1623
G01 X23.6018 Y3.0861
G01 X23.5972 Y3.0693
G01 X23.5917 Y3.0528
G01 X23.5735 Y3.0020
G01 X23.8451 Y2.7304
G01 X23.8315 Y2.7487
G00 Z2.0000
G00 X24.3561 Y4.4780
G01 F60.00
G01 Z-0.1000
G01 F120.00
G01 X24.4300 Y4.5045
G01 X24.4466 Y4.5099
G01 X24.4634 Y4.5146
G01 X24.5395 Y4.5337
G01 X24.5565 Y4.5375
G01 X24.5737 Y4.5405
G01 X24.6514 Y4.5520
G01 X24.6687 Y4.5541
G01 X24.6860 Y4.5554
G01 X24.7645 Y4.5593
G01 X24.7819 Y4.5597
G01 X24.7993 Y4.5593
G01 X24.8777 Y4.5554
G01 X24.8951 Y4.5541
G01 X24.9124 Y4.5520
G01 X24.9900 Y4.5405
G01 X25.0072 Y4.5375
G01 X25.0242 Y4.5337
G01 X25.1004 Y4.5146
G01 X25.1172 Y4.5099
G01 X25.1337 Y4.5045
G01 X25.2163 Y4.4748
G01 X25.2009 Y4.4863
G01 X25.1875 Y4.4974
G01 X25.1164 Y4.5618
G01 X25.0981 Y4.5805
G01 X25.0396 Y4.6452
G01 X25.0233 Y4.6656
G01 X24.9765 Y4.7287
G01 X24.9665 Y4.7429
G01 X24.9572 Y4.7577
G01 X24.9124 Y4.8325
G01 X24.9004 Y4.8557
G01 X24.8668 Y4.9267
G01 X24.8598 Y4.9426
G01 X24.8535 Y4.9589
G01 X24.8242 Y5.0410
G01 X24.8169 Y5.0661
G01 X24.7958 Y5.1508
G01 X24.7911 Y5.1765
G01 X24.7819 Y5.2383
G01 X24.7727 Y5.1765
G01 X24.7679 Y5.1508
G01 X24.7468 Y5.0661
G01 X24.7396 Y5.0410
G01 X24.7103 Y4.9589
G01 X24.7040 Y4.9426
G01 X24.6969 Y4.9267
G01 X24.6634 Y4.8557
G01 X24.6513 Y4.8325
G01 X24.6066 Y4.7577
G01 X24.5973 Y4.7429
G01 X24.5872 Y4.7287
G01 X24.5405 Y4.6656
G01 X24.5297 Y4.6519
G01 X24.5184 Y4.6387
G01 X24.4656 Y4.5805
G01 X24.4474 Y4.5618
G01 X24.3763 Y4.4974
G01 X24.3628 Y4.4863
G01 X24.3474 Y4.4748
G01 X24.3561 Y4.4780
G00 Z2.0000
G00 X25.7039 Y3.3107
G01 F60.00
G01 Z-0.1000
G01 F120.00
G01 X25.7047 Y3.3200
G01 X25.7087 Y3.4046
G01 X25.7042 Y3.4955
G01 X25.6909 Y3.5854
G01 X25.6688 Y3.6737
G01 X25.6381 Y3.7593
G01 X25.5992 Y3.8415
G01 X25.5525 Y3.9195
G01 X25.4983 Y3.9926
G01 X25.4372 Y4.0600
G01 X25.3698 Y4.1211
G01 X25.2968 Y4.1752
G01 X25.2188 Y4.2220
G01 X25.1366 Y4.2609
G01 X25.0509 Y4.2915
G01 X24.9627 Y4.3136
G01 X24.8727 Y4.3270
G01 X24.7819 Y4.3314
G01 X24.6910 Y4.3270
G01 X24.6011 Y4.3136
G01 X24.5128 Y4.2915
G01 X24.4272 Y4.2609
G01 X24.3450 Y4.2220
G01 X24.2670 Y4.1752
G01 X24.1939 Y4.1211
G01 X24.1265 Y4.0600
G01 X24.0655 Y3.9926
G01 X24.0113 Y3.9195
G01 X23.9645 Y3.8415
G01 X23.9256 Y3.7593
G01 X23.8950 Y3.6737
G01 X23.8729 Y3.5854
G01 X23.8595 Y3.4955
G01 X23.8551 Y3.4046
G01 X23.8595 Y3.3138
G01 X23.8729 Y3.2238
G01 X23.8950 Y3.1356
G01 X23.9256 Y3.0500
G01 X23.9645 Y2.9677
G01 X24.0113 Y2.8897
G01 X24.0655 Y2.8167
G01 X24.1265 Y2.7493
G01 X24.1939 Y2.6882
G01 X24.2670 Y2.6340
G01 X24.3450 Y2.5873
G01 X24.4272 Y2.5484
G01 X24.5128 Y2.5177
G01 X24.6011 Y2.4956
G01 X24.6910 Y2.4823
G01 X24.7819 Y2.4778
G01 X24.8727 Y2.4823
G01 X24.9627 Y2.4956
G01 X25.0509 Y2.5177
G01 X25.1366 Y2.5484
G01 X25.2188 Y2.5873
G01 X25.2968 Y2.6340
G01 X25.3698 Y2.6882
G01 X25.4372 Y2.7493
G01 X25.4983 Y2.8167
G01 X25.5525 Y2.8897
G01 X25.5992 Y2.9677
G01 X25.6381 Y3.0500
G01 X25.6688 Y3.1356
G01 X25.6909 Y3.2238
G01 X25.7039 Y3.3107
G00 Z2.0000
G00 X25.9177 Y3.1965
G01 F60.00
G01 Z-0.1000
G01 F120.00
G01 X25.9147 Y3.1793
G01 X25.9109 Y3.1623
G01 X25.8918 Y3.0861
G01 X25.8872 Y3.0693
G01 X25.8817 Y3.0528
G01 X25.8553 Y2.9789
G01 X25.8490 Y2.9626
G01 X25.8419 Y2.9467
G01 X25.8084 Y2.8757
G01 X25.8005 Y2.8602
G01 X25.7919 Y2.8450
G01 X25.7516 Y2.7777
G01 X25.7423 Y2.7629
G01 X25.7322 Y2.7487
G01 X25.6855 Y2.6856
G01 X25.6747 Y2.6719
G01 X25.6634 Y2.6587
G01 X25.6106 Y2.6005
G01 X25.5986 Y2.5879
G01 X25.5860 Y2.5759
G01 X25.5278 Y2.5232
G01 X25.5146 Y2.5118
G01 X25.5009 Y2.5011
G01 X25.4378 Y2.4543
G01 X25.4236 Y2.4443
G01 X25.4089 Y2.4349
G01 X25.3415 Y2.3946
G01 X25.3264 Y2.3860
G01 X25.3108 Y2.3782
G01 X25.2398 Y2.3446
G01 X25.2239 Y2.3375
G01 X25.2076 Y2.3313
G01 X25.1337 Y2.3048
G01 X25.1172 Y2.2993
G01 X25.1004 Y2.2947
G01 X25.0242 Y2.2756
G01 X25.0072 Y2.2718
G01 X24.9900 Y2.2688
G01 X24.9124 Y2.2573
G01 X24.8951 Y2.2552
G01 X24.8777 Y2.2539
G01 X24.7993 Y2.2500
G01 X24.7819 Y2.2496
G01 X24.7645 Y2.2500
G01 X24.6860 Y2.2539
G01 X24.6600 Y2.2561
G01 X24.5651 Y2.2702
G01 X24.5395 Y2.2756
G01 X24.4634 Y2.2947
G01 X24.4466 Y2.2993
G01 X24.4300 Y2.3048
G01 X24.3480 Y2.3343
G01 X24.3239 Y2.3446
G01 X24.2530 Y2.3782
G01 X24.2298 Y2.3902
G01 X24.1475 Y2.4395
G01 X24.1330 Y2.4492
G01 X24.1076 Y2.4679
G01 X24.7360 Y1.8394
G01 X27.9581 Y1.8394
G01 X27.4746 Y2.3230
G01 X27.4237 Y2.3048
G01 X27.4072 Y2.2993
G01 X27.3904 Y2.2947
G01 X27.3142 Y2.2756
G01 X27.2887 Y2.2702
G01 X27.1938 Y2.2561
G01 X27.1677 Y2.2539
G01 X27.0893 Y2.2500
G01 X27.0719 Y2.2496
G01 X27.0545 Y2.2500
G01 X26.9760 Y2.2539
G01 X26.9500 Y2.2561
G01 X26.8551 Y2.2702
G01 X26.8295 Y2.2756
G01 X26.7534 Y2.2947
G01 X26.7366 Y2.2993
G01 X26.7200 Y2.3048
G01 X26.6461 Y2.3313
G01 X26.6299 Y2.3375
G01 X26.6139 Y2.3446
G01 X26.5430 Y2.3782
G01 X26.5274 Y2.3860
G01 X26.5122 Y2.3946
G01 X26.4449 Y2.4349
G01 X26.4302 Y2.4443
G01 X26.4159 Y2.4543
G01 X26.3529 Y2.5011
G01 X26.3391 Y2.5118
G01 X26.3259 Y2.5232
G01 X26.2678 Y2.5759
G01 X26.2551 Y2.5879
G01 X26.2431 Y2.6005
G01 X26.1904 Y2.6587
G01 X26.1790 Y2.6719
G01 X26.1683 Y2.6856
G01 X26.1215 Y2.7487
G01 X26.1115 Y2.7629
G01 X26.1022 Y2.7777
G01 X26.0618 Y2.8450
G01 X26.0532 Y2.8602
G01 X26.0454 Y2.8757
G01 X26.0118 Y2.9467
G01 X26.0015 Y2.9707
G01 X25.9692 Y3.0610
G01 X25.9619 Y3.0861
G01 X25.9429 Y3.1623
G01 X25.9390 Y3.1793
G01 X25.9361 Y3.1965
G01 X25.9269 Y3.2583
G01 X25.9177 Y3.1965
G00 Z2.0000
G00 X25.9239 Y2.6243
G01 F60.00
G01 Z-0.1000
G01 F120.00
G01 X25.8688 Y2.5497
G01 X25.8512 Y2.5271
G01 X25.8325 Y2.5054
G01 X25.7797 Y2.4472
G01 X25.7600 Y2.4265
G01 X25.7393 Y2.4068
G01 X25.6811 Y2.3540
G01 X25.6594 Y2.3354
G01 X25.6369 Y2.3177
G01 X25.5622 Y2.2626
G01 X25.5504 Y2.2545
G01 X25.5262 Y2.2392
G01 X25.4589 Y2.1988
G01 X25.4340 Y2.1847
G01 X25.4084 Y2.1718
G01 X25.3244 Y2.1323
G01 X25.3112 Y2.1267
G01 X25.2845 Y2.1164
G01 X25.1971 Y2.0852
G01 X25.1697 Y2.0769
G01 X25.1335 Y2.0677
G01 X26.7203 Y2.0677
G01 X26.6841 Y2.0769
G01 X26.6567 Y2.0852
G01 X26.5692 Y2.1164
G01 X26.5425 Y2.1267
G01 X26.5294 Y2.1323
G01 X26.4454 Y2.1718
G01 X26.4198 Y2.1847
G01 X26.3949 Y2.1988
G01 X26.3276 Y2.2392
G01 X26.3154 Y2.2467
G01 X26.2916 Y2.2626
G01 X26.2169 Y2.3177
G01 X26.1943 Y2.3354
G01 X26.1727 Y2.3540
G01 X26.1145 Y2.4068
G01 X26.0938 Y2.4265
G01 X26.0740 Y2.4472
G01 X26.0213 Y2.5054
G01 X26.0026 Y2.5271
G01 X25.9850 Y2.5497
G01 X25.9382 Y2.6127
G01 X25.9269 Y2.6286
G01 X25.9239 Y2.6243
G00 Z2.0000
G00 X26.3608 Y4.3143
G01 F60.00
G01 Z-0.1000
G01 F120.00
G01 X26.2787 Y4.2848
G01 X26.2622 Y4.2793
G01 X26.2454 Y4.2747
G01 X26.1692 Y4.2556
G01 X26.1522 Y4.2518
G01 X26.1350 Y4.2488
G01 X26.0574 Y4.2373
G01 X26.0401 Y4.2352
G01 X26.0227 Y4.2339
G01 X25.9443 Y4.2300
G01 X25.9269 Y4.2296
G01 X25.9095 Y4.2300
G01 X25.8310 Y4.2339
G01 X25.8137 Y4.2352
G01 X25.7964 Y4.2373
G01 X25.7187 Y4.2488
G01 X25.7015 Y4.2518
G01 X25.6845 Y4.2556
G01 X25.6084 Y4.2747
G01 X25.5916 Y4.2793
G01 X25.5750 Y4.2848
G01 X25.4924 Y4.3145
G01 X25.5078 Y4.3029
G01 X25.5213 Y4.2919
G01 X25.5924 Y4.2275
G01 X25.6106 Y4.2088
G01 X25.6691 Y4.1441
G01 X25.6855 Y4.1237
G01 X25.7322 Y4.0606
G01 X25.7423 Y4.0463
G01 X25.7516 Y4.0316
G01 X25.7963 Y3.9568
G01 X25.8084 Y3.9336
G01 X25.8419 Y3.8626
G01 X25.8490 Y3.8467
G01 X25.8553 Y3.8304
G01 X25.8846 Y3.7482
G01 X25.8918 Y3.7231
G01 X25.9129 Y3.6385
G01 X25.9177 Y3.6128
G01 X25.9269 Y3.5510
G01 X25.9361 Y3.6128
G01 X25.9408 Y3.6385
G01 X25.9619 Y3.7231
G01 X25.9692 Y3.7482
G01 X25.9985 Y3.8304
G01 X26.0048 Y3.8467
G01 X26.0118 Y3.8626
G01 X26.0454 Y3.9336
G01 X26.0574 Y3.9568
G01 X26.1022 Y4.0316
G01 X26.1115 Y4.0463
G01 X26.1215 Y4.0606
G01 X26.1683 Y4.1237
G01 X26.1846 Y4.1441
G01 X26.2431 Y4.2088
G01 X26.2614 Y4.2275
G01 X26.3325 Y4.2919
G01 X26.3459 Y4.3029
G01 X26.3613 Y4.3145
G01 X26.3608 Y4.3143
G00 Z2.0000
G00 X27.4979 Y4.4811
G01 F60.00
G01 Z-0.1000
G01 F120.00
G01 X27.4841 Y4.4918
G01 X27.4709 Y4.5032
G01 X27.4128 Y4.5559
G01 X27.4001 Y4.5679
G01 X27.3881 Y4.5805
G01 X27.3354 Y4.6387
G01 X27.3240 Y4.6519
G01 X27.3133 Y4.6656
G01 X27.2665 Y4.7287
G01 X27.2565 Y4.7429
G01 X27.2472 Y4.7577
G01 X27.2024 Y4.8325
G01 X27.1904 Y4.8557
G01 X27.1568 Y4.9267
G01 X27.1498 Y4.9426
G01 X27.1435 Y4.9589
G01 X27.1142 Y5.0410
G01 X27.1069 Y5.0661
G01 X27.0858 Y5.1508
G01 X27.0811 Y5.1765
G01 X27.0719 Y5.2383
G01 X27.0627 Y5.1765
G01 X27.0579 Y5.1508
G01 X27.0368 Y5.0661
G01 X27.0296 Y5.0410
G01 X27.0003 Y4.9589
G01 X26.9940 Y4.9426
G01 X26.9869 Y4.9267
G01 X26.9534 Y4.8557
G01 X26.9413 Y4.8325
G01 X26.8966 Y4.7577
G01 X26.8873 Y4.7429
G01 X26.8772 Y4.7287
G01 X26.8305 Y4.6656
G01 X26.8141 Y4.6452
G01 X26.7556 Y4.5805
G01 X26.7374 Y4.5618
G01 X26.6663 Y4.4974
G01 X26.6528 Y4.4863
G01 X26.6374 Y4.4748
G01 X26.7200 Y4.5045
G01 X26.7366 Y4.5099
G01 X26.7534 Y4.5146
G01 X26.8295 Y4.5337
G01 X26.8465 Y4.5375
G01 X26.8637 Y4.5405
G01 X26.9414 Y4.5520
G01 X26.9587 Y4.5541
G01 X26.9760 Y4.5554
G01 X27.0545 Y4.5593
G01 X27.0719 Y4.5597
G01 X27.0893 Y4.5593
G01 X27.1677 Y4.5554
G01 X27.1851 Y4.5541
G01 X27.2024 Y4.5520
G01 X27.2887 Y4.5391
G01 X27.3142 Y4.5337
G01 X27.3904 Y4.5146
G01 X27.4072 Y4.5099
G01 X27.4237 Y4.5045
G01 X27.5063 Y4.4748
G01 X27.4979 Y4.4811
G00 Z2.0000
G00 X28.6508 Y4.3143
G01 F60.00
G01 Z-0.1000
G01 F120.00
G01 X28.5687 Y4.2848
G01 X28.5522 Y4.2793
G01 X28.5354 Y4.2747
G01 X28.4592 Y4.2556
G01 X28.4422 Y4.2518
G01 X28.4250 Y4.2488
G01 X28.3474 Y4.2373
G01 X28.3301 Y4.2352
G01 X28.3127 Y4.2339
G01 X28.2343 Y4.2300
G01 X28.2169 Y4.2296
G01 X28.1995 Y4.2300
G01 X28.1210 Y4.2339
G01 X28.1037 Y4.2352
G01 X28.0864 Y4.2373
G01 X28.0087 Y4.2488
G01 X27.9915 Y4.2518
G01 X27.9745 Y4.2556
G01 X27.8984 Y4.2747
G01 X27.8816 Y4.2793
G01 X27.8650 Y4.2848
G01 X27.7824 Y4.3145
G01 X27.7978 Y4.3029
G01 X27.8113 Y4.2919
G01 X27.8824 Y4.2275
G01 X27.9006 Y4.2088
G01 X27.9591 Y4.1441
G01 X27.9755 Y4.1237
G01 X28.0222 Y4.0606
G01 X28.0323 Y4.0463
G01 X28.0416 Y4.0316
G01 X28.0863 Y3.9568
G01 X28.0984 Y3.9336
G01 X28.1319 Y3.8626
G01 X28.1390 Y3.8467
G01 X28.1453 Y3.8304
G01 X28.1746 Y3.7482
G01 X28.1818 Y3.7231
G01 X28.2029 Y3.6385
G01 X28.2077 Y3.6128
G01 X28.2169 Y3.5510
G01 X28.2261 Y3.6128
G01 X28.2308 Y3.6385
G01 X28.2519 Y3.7231
G01 X28.2592 Y3.7482
G01 X28.2885 Y3.8304
G01 X28.2948 Y3.8467
G01 X28.3018 Y3.8626
G01 X28.3354 Y3.9336
G01 X28.3474 Y3.9568
G01 X28.3922 Y4.0316
G01 X28.4015 Y4.0463
G01 X28.4115 Y4.0606
G01 X28.4583 Y4.1237
G01 X28.4746 Y4.1441
G01 X28.5331 Y4.2088
G01 X28.5514 Y4.2275
G01 X28.6225 Y4.2919
G01 X28.6359 Y4.3029
G01 X28.6513 Y4.3145
G01 X28.6508 Y4.3143
G00 Z2.0000
G00 X29.3527 Y5.1765
G01 F60.00
G01 Z-0.1000
G01 F120.00
G01 X29.3497 Y5.1593
G01 X29.3459 Y5.1423
G01 X29.3268 Y5.0661
G01 X29.3222 Y5.0493
G01 X29.3167 Y5.0328
G01 X29.2872 Y4.9507
G01 X29.2769 Y4.9267
G01 X29.2434 Y4.8557
G01 X29.2355 Y4.8402
G01 X29.2269 Y4.8250
G01 X29.1866 Y4.7577
G01 X29.1723 Y4.7357
G01 X29.1152 Y4.6587
G01 X29.0984 Y4.6387
G01 X29.0456 Y4.5805
G01 X29.0274 Y4.5618
G01 X28.9628 Y4.5032
G01 X28.9496 Y4.4918
G01 X28.9274 Y4.4748
G01 X29.0100 Y4.5045
G01 X29.0266 Y4.5099
G01 X29.0434 Y4.5146
G01 X29.1195 Y4.5337
G01 X29.1365 Y4.5375
G01 X29.1537 Y4.5405
G01 X29.2314 Y4.5520
G01 X29.2487 Y4.5541
G01 X29.2660 Y4.5554
G01 X29.3445 Y4.5593
G01 X29.3619 Y4.5597
G01 X29.3793 Y4.5593
G01 X29.4577 Y4.5554
G01 X29.4751 Y4.5541
G01 X29.4924 Y4.5520
G01 X29.5700 Y4.5405
G01 X29.5872 Y4.5375
G01 X29.6042 Y4.5337
G01 X29.6804 Y4.5146
G01 X29.6972 Y4.5099
G01 X29.7137 Y4.5045
G01 X29.7963 Y4.4748
G01 X29.7741 Y4.4918
G01 X29.7609 Y4.5032
G01 X29.6964 Y4.5618
G01 X29.6781 Y4.5805
G01 X29.6254 Y4.6387
G01 X29.6140 Y4.6519
G01 X29.6033 Y4.6656
G01 X29.5565 Y4.7287
G01 X29.5417 Y4.7502
G01 X29.4968 Y4.8250
G01 X29.4882 Y4.8402
G01 X29.4804 Y4.8557
G01 X29.4468 Y4.9267
G01 X29.4398 Y4.9426
G01 X29.4335 Y4.9589
G01 X29.4042 Y5.0410
G01 X29.3969 Y5.0661
G01 X29.3779 Y5.1423
G01 X29.3740 Y5.1593
G01 X29.3711 Y5.1765
G01 X29.3619 Y5.2383
G01 X29.3527 Y5.1765
G00 Z2.0000
G00 X28.9359 Y6.2882
G01 F60.00
G01 Z-0.1000
G01 F120.00
G01 X28.9496 Y6.2775
G01 X28.9628 Y6.2661
G01 X29.0210 Y6.2134
G01 X29.0336 Y6.2014
G01 X29.0456 Y6.1888
G01 X29.0984 Y6.1306
G01 X29.1097 Y6.1174
G01 X29.1205 Y6.1037
G01 X29.1672 Y6.0406
G01 X29.1773 Y6.0263
G01 X29.1866 Y6.0116
G01 X29.2313 Y5.9368
G01 X29.2434 Y5.9136
G01 X29.2769 Y5.8426
G01 X29.2840 Y5.8267
G01 X29.2903 Y5.8104
G01 X29.3196 Y5.7282
G01 X29.3268 Y5.7031
G01 X29.3479 Y5.6185
G01 X29.3527 Y5.5928
G01 X29.3619 Y5.5310
G01 X29.3711 Y5.5928
G01 X29.3758 Y5.6185
G01 X29.3969 Y5.7031
G01 X29.4042 Y5.7282
G01 X29.4335 Y5.8104
G01 X29.4398 Y5.8267
G01 X29.4468 Y5.8426
G01 X29.4804 Y5.9136
G01 X29.4924 Y5.9368
G01 X29.5372 Y6.0116
G01 X29.5465 Y6.0263
G01 X29.5565 Y6.0406
G01 X29.6033 Y6.1037
G01 X29.6196 Y6.1241
G01 X29.6781 Y6.1888
G01 X29.6964 Y6.2075
G01 X29.7675 Y6.2719
G01 X29.7809 Y6.2829
G01 X29.7963 Y6.2945
G01 X29.7137 Y6.2648
G01 X29.6972 Y6.2593
G01 X29.6804 Y6.2547
G01 X29.6042 Y6.2356
G01 X29.5872 Y6.2318
G01 X29.5700 Y6.2288
G01 X29.4924 Y6.2173
G01 X29.4751 Y6.2152
G01 X29.4577 Y6.2139
G01 X29.3793 Y6.2100
G01 X29.3619 Y6.2096
G01 X29.3445 Y6.2100
G01 X29.2660 Y6.2139
G01 X29.2487 Y6.2152
G01 X29.2314 Y6.2173
G01 X29.1451 Y6.2302
G01 X29.1195 Y6.2356
G01 X29.0434 Y6.2547
G01 X29.0266 Y6.2593
G01 X29.0100 Y6.2648
G01 X28.9274 Y6.2945
G01 X28.9359 Y6.2882
G00 Z2.0000
G00 X30.0811 Y6.4580
G01 F60.00
G01 Z-0.1000
G01 F120.00
G01 X30.1550 Y6.4845
G01 X30.1716 Y6.4899
G01 X30.1884 Y6.4946
G01 X30.2645 Y6.5137
G01 X30.2815 Y6.5175
G01 X30.2987 Y6.5205
G01 X30.3764 Y6.5320
G01 X30.3937 Y6.5341
G01 X30.4110 Y6.5354
G01 X30.4895 Y6.5393
G01 X30.5069 Y6.5397
G01 X30.5243 Y6.5393
G01 X30.6027 Y6.5354
G01 X30.6201 Y6.5341
G01 X30.6374 Y6.5320
G01 X30.7150 Y6.5205
G01 X30.7322 Y6.5175
G01 X30.7492 Y6.5137
G01 X30.8254 Y6.4946
G01 X30.8422 Y6.4899
G01 X30.8587 Y6.4845
G01 X30.9413 Y6.4548
G01 X30.9259 Y6.4663
G01 X30.9125 Y6.4774
G01 X30.8414 Y6.5418
G01 X30.8231 Y6.5605
G01 X30.7646 Y6.6252
G01 X30.7483 Y6.6456
G01 X30.7015 Y6.7087
G01 X30.6915 Y6.7229
G01 X30.6822 Y6.7377
G01 X30.6374 Y6.8125
G01 X30.6254 Y6.8357
G01 X30.5918 Y6.9067
G01 X30.5848 Y6.9226
G01 X30.5785 Y6.9389
G01 X30.5492 Y7.0210
G01 X30.5419 Y7.0461
G01 X30.5208 Y7.1308
G01 X30.5161 Y7.1565
G01 X30.5069 Y7.2183
G01 X30.4977 Y7.1565
G01 X30.4929 Y7.1308
G01 X30.4718 Y7.0461
G01 X30.4646 Y7.0210
G01 X30.4353 Y6.9389
G01 X30.4290 Y6.9226
G01 X30.4219 Y6.9067
G01 X30.3884 Y6.8357
G01 X30.3763 Y6.8125
G01 X30.3316 Y6.7377
G01 X30.3223 Y6.7229
G01 X30.3122 Y6.7087
G01 X30.2655 Y6.6456
G01 X30.2547 Y6.6319
G01 X30.2434 Y6.6187
G01 X30.1906 Y6.5605
G01 X30.1724 Y6.5418
G01 X30.1013 Y6.4774
G01 X30.0878 Y6.4663
G01 X30.0724 Y6.4548
G01 X30.0811 Y6.4580
G00 Z2.0000
G00 X31.2328 Y6.2829
G01 F60.00
G01 Z-0.1000
G01 F120.00
G01 X31.2528 Y6.2661
G01 X31.3174 Y6.2075
G01 X31.3297 Y6.1951
G01 X31.3684 Y6.1526
G01 X31.4444 Y6.2287
G01 X31.4180 Y6.2336
G01 X31.3250 Y6.2569
G01 X31.3000 Y6.2648
G01 X31.2174 Y6.2945
G01 X31.2328 Y6.2829
G00 Z2.0000
G00 X32.5391 Y7.0968
G01 F60.00
G01 Z-0.1000
G01 F120.00
G01 X32.5081 Y7.0100
G01 X32.4723 Y6.9338
G01 X32.5391 Y7.0006
G01 X32.5391 Y7.0968
G00 Z2.0000
G00 X31.4262 Y4.5732
G01 F60.00
G01 Z-0.1000
G01 F120.00
G01 X31.4170 Y4.5885
G01 X31.4063 Y4.6076
G01 X31.3983 Y4.6236
G01 X31.3905 Y4.6411
G01 X31.3356 Y4.5805
G01 X31.3174 Y4.5618
G01 X31.2463 Y4.4974
G01 X31.2328 Y4.4863
G01 X31.2174 Y4.4748
G01 X31.3000 Y4.5045
G01 X31.3250 Y4.5124
G01 X31.4180 Y4.5357
G01 X31.4351 Y4.5391
G01 X31.4485 Y4.5412
G01 X31.4362 Y4.5583
G01 X31.4262 Y4.5732
G00 Z2.0000
G00 X30.5174 Y3.6214
G01 F60.00
G01 Z-0.1000
G01 F120.00
G01 X30.5229 Y3.6470
G01 X30.5419 Y3.7231
G01 X30.5466 Y3.7399
G01 X30.5520 Y3.7565
G01 X30.5785 Y3.8304
G01 X30.5848 Y3.8467
G01 X30.5918 Y3.8626
G01 X30.6254 Y3.9336
G01 X30.6332 Y3.9491
G01 X30.6418 Y3.9643
G01 X30.6822 Y4.0316
G01 X30.6964 Y4.0535
G01 X30.7536 Y4.1306
G01 X30.7704 Y4.1506
G01 X30.8231 Y4.2088
G01 X30.8414 Y4.2275
G01 X30.9059 Y4.2861
G01 X30.9191 Y4.2975
G01 X30.9413 Y4.3145
G01 X30.8587 Y4.2848
G01 X30.8422 Y4.2793
G01 X30.8254 Y4.2747
G01 X30.7492 Y4.2556
G01 X30.7322 Y4.2518
G01 X30.7150 Y4.2488
G01 X30.6374 Y4.2373
G01 X30.6201 Y4.2352
G01 X30.6027 Y4.2339
G01 X30.5243 Y4.2300
G01 X30.5069 Y4.2296
G01 X30.4895 Y4.2300
G01 X30.4110 Y4.2339
G01 X30.3937 Y4.2352
G01 X30.3764 Y4.2373
G01 X30.2987 Y4.2488
G01 X30.2815 Y4.2518
G01 X30.2645 Y4.2556
G01 X30.1884 Y4.2747
G01 X30.1716 Y4.2793
G01 X30.1550 Y4.2848
G01 X30.0724 Y4.3145
G01 X30.0878 Y4.3029
G01 X30.1013 Y4.2919
G01 X30.1724 Y4.2275
G01 X30.1906 Y4.2088
G01 X30.2491 Y4.1441
G01 X30.2655 Y4.1237
G01 X30.3122 Y4.0606
G01 X30.3223 Y4.0463
G01 X30.3316 Y4.0316
G01 X30.3763 Y3.9568
G01 X30.3884 Y3.9336
G01 X30.4219 Y3.8626
G01 X30.4290 Y3.8467
G01 X30.4353 Y3.8304
G01 X30.4646 Y3.7482
G01 X30.4718 Y3.7231
G01 X30.4929 Y3.6385
G01 X30.4977 Y3.6128
G01 X30.5069 Y3.5510
G01 X30.5174 Y3.6214
G00 Z2.0000
G00 X30.6915 Y2.7629
G01 F60.00
G01 Z-0.1000
G01 F120.00
G01 X30.6822 Y2.7777
G01 X30.6418 Y2.8450
G01 X30.6332 Y2.8602
G01 X30.6254 Y2.8757
G01 X30.5918 Y2.9467
G01 X30.5815 Y2.9707
G01 X30.5492 Y3.0610
G01 X30.5419 Y3.0861
G01 X30.5229 Y3.1623
G01 X30.5190 Y3.1793
G01 X30.5161 Y3.1965
G01 X30.5069 Y3.2583
G01 X30.4963 Y3.1879
G01 X30.4909 Y3.1623
G01 X30.4718 Y3.0861
G01 X30.4672 Y3.0693
G01 X30.4617 Y3.0528
G01 X30.4435 Y3.0020
G01 X30.6931 Y2.7523
G01 X30.6989 Y2.7523
G01 X30.6915 Y2.7629
G00 Z2.0000
G00 X29.6888 Y2.2969
G01 F60.00
G01 Z-0.1000
G01 F120.00
G01 X29.6885 Y2.2968
G01 X29.7907 Y2.2968
G01 X29.7646 Y2.3230
G01 X29.7137 Y2.3048
G01 X29.6888 Y2.2969
G00 Z2.0000
G00 X29.0100 Y2.3048
G01 F60.00
G01 Z-0.1000
G01 F120.00
G01 X28.9361 Y2.3313
G01 X28.9199 Y2.3375
G01 X28.9039 Y2.3446
G01 X28.8251 Y2.3820
G01 X28.8022 Y2.3946
G01 X28.7275 Y2.4395
G01 X28.7130 Y2.4492
G01 X28.6876 Y2.4679
G01 X28.8586 Y2.2968
G01 X29.0352 Y2.2968
G01 X29.0100 Y2.3048
G00 Z2.0000
G00 X28.3967 Y2.7702
G01 F60.00
G01 Z-0.1000
G01 F120.00
G01 X28.3518 Y2.8450
G01 X28.3432 Y2.8602
G01 X28.3354 Y2.8757
G01 X28.3018 Y2.9467
G01 X28.2948 Y2.9626
G01 X28.2885 Y2.9789
G01 X28.2592 Y3.0610
G01 X28.2519 Y3.0861
G01 X28.2329 Y3.1623
G01 X28.2290 Y3.1793
G01 X28.2261 Y3.1965
G01 X28.2169 Y3.2583
G01 X28.2063 Y3.1879
G01 X28.2009 Y3.1623
G01 X28.1818 Y3.0861
G01 X28.1772 Y3.0693
G01 X28.1717 Y3.0528
G01 X28.1535 Y3.0020
G01 X28.4251 Y2.7304
G01 X28.4064 Y2.7557
G01 X28.3967 Y2.7702
G00 Z2.0000
G00 X32.1615 Y2.6307
G01 F60.00
G01 Z-0.1000
G01 F120.00
G01 X32.0942 Y2.5903
G01 X32.0832 Y2.5845
G01 X32.0066 Y2.5484
G01 X31.9391 Y2.5241
G01 X32.0567 Y2.5241
G01 X32.1662 Y2.6337
G01 X32.1615 Y2.6307
G00 Z2.0000
G00 X32.5739 Y3.3107
G01 F60.00
G01 Z-0.1000
G01 F120.00
G01 X32.5747 Y3.3200
G01 X32.5787 Y3.4046
G01 X32.5747 Y3.4893
G01 X32.5735 Y3.5017
G01 X32.5609 Y3.5854
G01 X32.5404 Y3.6677
G01 X32.5368 Y3.6796
G01 X32.5081 Y3.7593
G01 X32.4720 Y3.8360
G01 X32.4662 Y3.8469
G01 X32.4225 Y3.9195
G01 X32.3721 Y3.9877
G01 X32.3642 Y3.9973
G01 X32.3072 Y4.0600
G01 X32.2445 Y4.1170
G01 X32.2349 Y4.1249
G01 X32.1668 Y4.1752
G01 X32.0942 Y4.2189
G01 X32.0832 Y4.2248
G01 X32.0066 Y4.2609
G01 X31.9268 Y4.2896
G01 X31.9149 Y4.2932
G01 X31.8327 Y4.3136
G01 X31.7489 Y4.3262
G01 X31.7365 Y4.3274
G01 X31.6519 Y4.3314
G01 X31.5672 Y4.3274
G01 X31.5549 Y4.3262
G01 X31.4711 Y4.3136
G01 X31.3888 Y4.2932
G01 X31.3769 Y4.2896
G01 X31.3001 Y4.2620
G01 X31.2915 Y4.2584
G01 X31.2205 Y4.2248
G01 X31.2096 Y4.2189
G01 X31.1370 Y4.1752
G01 X31.0639 Y4.1211
G01 X30.9965 Y4.0600
G01 X30.9395 Y3.9973
G01 X30.9316 Y3.9877
G01 X30.8813 Y3.9195
G01 X30.8345 Y3.8415
G01 X30.7982 Y3.7650
G01 X30.7934 Y3.7535
G01 X30.7650 Y3.6737
G01 X30.7429 Y3.5854
G01 X30.7303 Y3.5017
G01 X30.7291 Y3.4893
G01 X30.7252 Y3.4109
G01 X30.7252 Y3.3984
G01 X30.7295 Y3.3138
G01 X30.7418 Y3.2300
G01 X30.7443 Y3.2178
G01 X30.7650 Y3.1356
G01 X30.7956 Y3.0500
G01 X30.8317 Y2.9733
G01 X30.8376 Y2.9623
G01 X30.8779 Y2.8950
G01 X30.8849 Y2.8846
G01 X30.9355 Y2.8167
G01 X30.9922 Y2.7538
G01 X31.0010 Y2.7450
G01 X31.0592 Y2.6923
G01 X31.0688 Y2.6844
G01 X31.1370 Y2.6340
G01 X31.2150 Y2.5873
G01 X31.2972 Y2.5484
G01 X31.3646 Y2.5241
G01 X30.5986 Y2.5241
G01 X30.1703 Y2.9525
G01 X30.1777 Y2.9650
G01 X30.1820 Y2.9733
G01 X30.2156 Y3.0443
G01 X30.2204 Y3.0558
G01 X30.2488 Y3.1356
G01 X30.2709 Y3.2238
G01 X30.2835 Y3.3076
G01 X30.2847 Y3.3200
G01 X30.2887 Y3.4046
G01 X30.2842 Y3.4955
G01 X30.2719 Y3.5793
G01 X30.2695 Y3.5915
G01 X30.2488 Y3.6737
G01 X30.2181 Y3.7593
G01 X30.1792 Y3.8415
G01 X30.1358 Y3.9143
G01 X30.1289 Y3.9246
G01 X30.0821 Y3.9877
G01 X30.0763 Y3.9950
G01 X30.0172 Y4.0600
G01 X29.9545 Y4.1170
G01 X29.9449 Y4.1249
G01 X29.8768 Y4.1752
G01 X29.8042 Y4.2189
G01 X29.7932 Y4.2248
G01 X29.7166 Y4.2609
G01 X29.6309 Y4.2915
G01 X29.5488 Y4.3123
G01 X29.5366 Y4.3147
G01 X29.4527 Y4.3270
G01 X29.3619 Y4.3314
G01 X29.2710 Y4.3270
G01 X29.1872 Y4.3147
G01 X29.1750 Y4.3123
G01 X29.0988 Y4.2932
G01 X29.0899 Y4.2906
G01 X29.0072 Y4.2609
G01 X28.9305 Y4.2248
G01 X28.9196 Y4.2189
G01 X28.8522 Y4.1786
G01 X28.8419 Y4.1717
G01 X28.7739 Y4.1211
G01 X28.7110 Y4.0643
G01 X28.7022 Y4.0555
G01 X28.6455 Y3.9926
G01 X28.5913 Y3.9195
G01 X28.5445 Y3.8415
G01 X28.5056 Y3.7593
G01 X28.4750 Y3.6737
G01 X28.4543 Y3.5915
G01 X28.4518 Y3.5793
G01 X28.4403 Y3.5017
G01 X28.4391 Y3.4893
G01 X28.4351 Y3.4046
G01 X28.4391 Y3.3200
G01 X28.4403 Y3.3076
G01 X28.4529 Y3.2238
G01 X28.4750 Y3.1356
G01 X28.5056 Y3.0500
G01 X28.5417 Y2.9733
G01 X28.5460 Y2.9650
G01 X28.5913 Y2.8897
G01 X28.6455 Y2.8167
G01 X28.7065 Y2.7493
G01 X28.7739 Y2.6882
G01 X28.8470 Y2.6340
G01 X28.9250 Y2.5873
G01 X29.0072 Y2.5484
G01 X29.0928 Y2.5177
G01 X29.1811 Y2.4956
G01 X29.2710 Y2.4823
G01 X29.3619 Y2.4778
G01 X29.4527 Y2.4823
G01 X29.5427 Y2.4956
G01 X29.6309 Y2.5177
G01 X29.7107 Y2.5461
G01 X29.7194 Y2.5496
G01 X29.7960 Y2.5858
G01 X29.8141 Y2.5963
G01 X30.3162 Y2.0941
G01 X30.3321 Y2.0796
G01 X30.3463 Y2.0686
G01 X28.7641 Y2.0686
G01 X27.8803 Y2.9525
G01 X27.8877 Y2.9650
G01 X27.8920 Y2.9733
G01 X27.9256 Y3.0443
G01 X27.9304 Y3.0558
G01 X27.9588 Y3.1356
G01 X27.9809 Y3.2238
G01 X27.9935 Y3.3076
G01 X27.9947 Y3.3200
G01 X27.9987 Y3.4046
G01 X27.9942 Y3.4955
G01 X27.9819 Y3.5793
G01 X27.9795 Y3.5915
G01 X27.9588 Y3.6737
G01 X27.9281 Y3.7593
G01 X27.8892 Y3.8415
G01 X27.8458 Y3.9143
G01 X27.8389 Y3.9246
G01 X27.7883 Y3.9926
G01 X27.7272 Y4.0600
G01 X27.6645 Y4.1170
G01 X27.6549 Y4.1249
G01 X27.5868 Y4.1752
G01 X27.5142 Y4.2189
G01 X27.5032 Y4.2248
G01 X27.4266 Y4.2609
G01 X27.3468 Y4.2896
G01 X27.3349 Y4.2932
G01 X27.2527 Y4.3136
G01 X27.1689 Y4.3262
G01 X27.1565 Y4.3274
G01 X27.0719 Y4.3314
G01 X26.9872 Y4.3274
G01 X26.9749 Y4.3262
G01 X26.8972 Y4.3147
G01 X26.8880 Y4.3130
G01 X26.8088 Y4.2932
G01 X26.7969 Y4.2896
G01 X26.7172 Y4.2609
G01 X26.6405 Y4.2248
G01 X26.6296 Y4.2189
G01 X26.5570 Y4.1752
G01 X26.4839 Y4.1211
G01 X26.4165 Y4.0600
G01 X26.3595 Y3.9973
G01 X26.3516 Y3.9877
G01 X26.3013 Y3.9195
G01 X26.2576 Y3.8469
G01 X26.2517 Y3.8360
G01 X26.2156 Y3.7593
G01 X26.1869 Y3.6796
G01 X26.1833 Y3.6677
G01 X26.1629 Y3.5854
G01 X26.1503 Y3.5017
G01 X26.1491 Y3.4893
G01 X26.1451 Y3.4046
G01 X26.1495 Y3.3138
G01 X26.1629 Y3.2238
G01 X26.1833 Y3.1416
G01 X26.1869 Y3.1297
G01 X26.2134 Y3.0558
G01 X26.2182 Y3.0443
G01 X26.2545 Y2.9677
G01 X26.2979 Y2.8950
G01 X26.3049 Y2.8846
G01 X26.3555 Y2.8167
G01 X26.4165 Y2.7493
G01 X26.4839 Y2.6882
G01 X26.5570 Y2.6340
G01 X26.6350 Y2.5873
G01 X26.7172 Y2.5484
G01 X26.8028 Y2.5177
G01 X26.8850 Y2.4970
G01 X26.8972 Y2.4946
G01 X26.9810 Y2.4823
G01 X27.0719 Y2.4778
G01 X27.1627 Y2.4823
G01 X27.2466 Y2.4946
G01 X27.2588 Y2.4970
G01 X27.3409 Y2.5177
G01 X27.4207 Y2.5461
G01 X27.4322 Y2.5509
G01 X27.5032 Y2.5845
G01 X27.5115 Y2.5888
G01 X27.5241 Y2.5963
G01 X28.4817 Y1.6386
G01 X28.5000 Y1.6220
G01 X28.5144 Y1.6112
G01 X24.6415 Y1.6112
G01 X23.3003 Y2.9525
G01 X23.3107 Y2.9705
G01 X23.3469 Y3.0471
G01 X23.3504 Y3.0558
G01 X23.3788 Y3.1356
G01 X23.4009 Y3.2238
G01 X23.4142 Y3.3138
G01 X23.4187 Y3.4046
G01 X23.4142 Y3.4955
G01 X23.4009 Y3.5854
G01 X23.3796 Y3.6707
G01 X23.3768 Y3.6796
G01 X23.3481 Y3.7593
G01 X23.3092 Y3.8415
G01 X23.2625 Y3.9195
G01 X23.2083 Y3.9926
G01 X23.1472 Y4.0600
G01 X23.0798 Y4.1211
G01 X23.0068 Y4.1752
G01 X22.9342 Y4.2189
G01 X22.9232 Y4.2248
G01 X22.8466 Y4.2609
G01 X22.7668 Y4.2896
G01 X22.7549 Y4.2932
G01 X22.6727 Y4.3136
G01 X22.5889 Y4.3262
G01 X22.5765 Y4.3274
G01 X22.4919 Y4.3314
G01 X22.4072 Y4.3274
G01 X22.3949 Y4.3262
G01 X22.3111 Y4.3136
G01 X22.2288 Y4.2932
G01 X22.2169 Y4.2896
G01 X22.1372 Y4.2609
G01 X22.0605 Y4.2248
G01 X22.0496 Y4.2189
G01 X21.9770 Y4.1752
G01 X21.9088 Y4.1249
G01 X21.8992 Y4.1170
G01 X21.8365 Y4.0600
G01 X21.7795 Y3.9973
G01 X21.7716 Y3.9877
G01 X21.7213 Y3.9195
G01 X21.6776 Y3.8469
G01 X21.6717 Y3.8360
G01 X21.6356 Y3.7593
G01 X21.6069 Y3.6796
G01 X21.6033 Y3.6677
G01 X21.5829 Y3.5854
G01 X21.5703 Y3.5017
G01 X21.5691 Y3.4893
G01 X21.5651 Y3.4046
G01 X21.5695 Y3.3138
G01 X21.5818 Y3.2300
G01 X21.5843 Y3.2178
G01 X21.6033 Y3.1416
G01 X21.6069 Y3.1297
G01 X21.6356 Y3.0500
G01 X21.6717 Y2.9733
G01 X21.6776 Y2.9623
G01 X21.7213 Y2.8897
G01 X21.7755 Y2.8167
G01 X21.8365 Y2.7493
G01 X21.8992 Y2.6923
G01 X21.9064 Y2.6863
G01 X21.9770 Y2.6340
G01 X22.0496 Y2.5903
G01 X22.0605 Y2.5845
G01 X22.1372 Y2.5484
G01 X22.2228 Y2.5177
G01 X22.3050 Y2.4970
G01 X22.3172 Y2.4946
G01 X22.4010 Y2.4823
G01 X22.4919 Y2.4778
G01 X22.5765 Y2.4818
G01 X22.5889 Y2.4831
G01 X22.6727 Y2.4956
G01 X22.7609 Y2.5177
G01 X22.8407 Y2.5461
G01 X22.8522 Y2.5509
G01 X22.9232 Y2.5845
G01 X22.9315 Y2.5888
G01 X22.9441 Y2.5963
G01 X24.3613 Y1.1791
G01 X24.3774 Y1.1646
G01 X24.3922 Y1.1535
G01 X24.3999 Y1.1482
G01 X24.4185 Y1.1372
G01 X24.4379 Y1.1279
G01 X24.4466 Y1.1244
G01 X24.4641 Y1.1183
G01 X24.4880 Y1.1123
G01 X24.5125 Y1.1087
G01 X24.5372 Y1.1075
G01 X32.5771 Y1.1076
G01 X32.5956 Y1.1087
G01 X32.6200 Y1.1123
G01 X32.6440 Y1.1183
G01 X32.6673 Y1.1266
G01 X32.6896 Y1.1372
G01 X32.7108 Y1.1499
G01 X32.7307 Y1.1646
G01 X32.7490 Y1.1812
G01 X36.6471 Y5.0796
G01 X36.6594 Y5.0934
G01 X36.6741 Y5.1132
G01 X36.6868 Y5.1344
G01 X36.6948 Y5.1511
G01 X36.6996 Y5.1626
G01 X36.7066 Y5.1830
G01 X36.7117 Y5.2040
G01 X36.7153 Y5.2285
G01 X36.7165 Y5.2531
G01 X36.7165 Y5.7221
G01 X37.7046 Y6.7102
G01 X37.6669 Y6.6686
G01 X37.6609 Y6.6614
G01 X37.5403 Y6.4988
G01 X37.5352 Y6.4910
G01 X37.4327 Y6.3199
G01 X37.4284 Y6.3116
G01 X37.3420 Y6.1285
G01 X37.2726 Y5.9350
G01 X37.2700 Y5.9260
G01 X37.2209 Y5.7296
G01 X37.1903 Y5.5231
G01 X37.1801 Y5.3146
G01 X37.1901 Y5.1093
G01 X37.1911 Y5.1000
G01 X37.2209 Y4.8997
G01 X37.2717 Y4.6973
G01 X37.3420 Y4.5007
G01 X37.4312 Y4.3121
G01 X37.5385 Y4.1331
G01 X37.6628 Y3.9654
G01 X37.8030 Y3.8108
G01 X37.9529 Y3.6747
G01 X37.9601 Y3.6687
G01 X38.1253 Y3.5463
G01 X38.3043 Y3.4390
G01 X38.4930 Y3.3497
G01 X38.6836 Y3.2814
G01 X38.6955 Y3.2778
G01 X38.8920 Y3.2287
G01 X39.0922 Y3.1988
G01 X39.1046 Y3.1976
G01 X39.3069 Y3.1878
G01 X39.5091 Y3.1976
G01 X39.5215 Y3.1988
G01 X39.7157 Y3.2276
G01 X39.7279 Y3.2301
G01 X39.9243 Y3.2794
G01 X40.1208 Y3.3497
G01 X40.3094 Y3.4390
G01 X40.4885 Y3.5463
G01 X40.6561 Y3.6706
G01 X40.8108 Y3.8108
G01 X40.9509 Y3.9654
G01 X41.0717 Y4.1280
G01 X41.0769 Y4.1357
G01 X41.1826 Y4.3121
G01 X41.2718 Y4.5007
G01 X41.3421 Y4.6973
G01 X41.3915 Y4.8936
G01 X41.3939 Y4.9059
G01 X41.4227 Y5.1000
G01 X41.4239 Y5.1124
G01 X41.4337 Y5.3146
G01 X41.4239 Y5.5169
G01 X41.4227 Y5.5293
G01 X41.3928 Y5.7296
G01 X41.3421 Y5.9320
G01 X41.2718 Y6.1285
G01 X41.1826 Y6.3172
G01 X41.0752 Y6.4962
G01 X40.9509 Y6.6639
G01 X40.8108 Y6.8185
G01 X40.6585 Y6.9567
G01 X40.6512 Y6.9625
G01 X40.4885 Y7.0830
G01 X40.3094 Y7.1903
G01 X40.1208 Y7.2795
G01 X39.9302 Y7.3479
G01 X39.9183 Y7.3515
G01 X39.7279 Y7.3992
G01 X39.7157 Y7.4016
G01 X39.5153 Y7.4312
G01 X39.3131 Y7.4413
G01 X39.3038 Y7.4414
G01 X39.0984 Y7.4312
G01 X38.8920 Y7.4006
G01 X38.6895 Y7.3499
G01 X38.4959 Y7.2807
G01 X38.4873 Y7.2770
G01 X38.3043 Y7.1903
G01 X38.1279 Y7.0847
G01 X38.1202 Y7.0794
G01 X37.9601 Y6.9606
G01 X37.9529 Y6.9546
G01 X37.9113 Y6.9169
G01 X44.4937 Y13.4992
G01 X44.5083 Y13.5152
G01 X44.5141 Y13.5225
G01 X44.5250 Y13.5374
G01 X44.5377 Y13.5586
G01 X44.5483 Y13.5810
G01 X44.5546 Y13.5983
G01 X44.5583 Y13.6102
G01 X44.5632 Y13.6313
G01 X44.5662 Y13.6527
G01 X44.5674 Y13.6773
G01 X44.5674 Y35.0479
G01 X44.5665 Y35.0695
G01 X44.5632 Y35.0940
G01 X44.5583 Y35.1151
G01 X44.5546 Y35.1270
G01 X44.5494 Y35.1414
G01 X44.5457 Y35.1500
G01 X44.5377 Y35.1667
G01 X44.5250 Y35.1879
G01 X44.5103 Y35.2077
G01 X44.4937 Y35.2260
G01 X42.9357 Y36.7839
G01 X42.9220 Y36.7963
G01 X42.9148 Y36.8022
G01 X42.8998 Y36.8131
G01 X42.8840 Y36.8227
G01 X42.8758 Y36.8272
G01 X42.8591 Y36.8351
G01 X42.8505 Y36.8386
G01 X42.8330 Y36.8447
G01 X42.8090 Y36.8507
G01 X42.7907 Y36.8535
G01 X42.7815 Y36.8546
G01 X42.7599 Y36.8555
G01 X42.7352 Y36.8543
G01 X42.7169 Y36.8517
G01 X42.7047 Y36.8493
G01 X42.6838 Y36.8437
G01 X42.6635 Y36.8363
G01 X42.6439 Y36.8272
G01 X42.6252 Y36.8164
G01 X42.6174 Y36.8113
G01 X42.6001 Y36.7983
G01 X42.5840 Y36.7839
G01 X42.5693 Y36.7681
G01 X42.5614 Y36.7585
G01 X42.5505 Y36.7436
G01 X42.5378 Y36.7224
G01 X42.5272 Y36.7000
G01 X42.5208 Y36.6827
G01 X42.5172 Y36.6708
G01 X42.5123 Y36.6497
G01 X42.5092 Y36.6283
G01 X42.5082 Y36.6099
G01 X42.5082 Y36.5974
G01 X42.5096 Y36.5759
G01 X42.5129 Y36.5545
G01 X42.5180 Y36.5335
G01 X42.5208 Y36.5246
G01 X42.5284 Y36.5044
G01 X42.5378 Y36.4849
G01 X42.5488 Y36.4663
G01 X42.5540 Y36.4586
G01 X42.5652 Y36.4439
G01 X42.5818 Y36.4255
G01 X44.0637 Y34.9436
G01 X44.0637 Y31.2532
G01 X44.0579 Y31.2605
G01 X44.0433 Y31.2764
G01 X42.9380 Y32.3817
G01 X42.9244 Y32.3943
G01 X42.9172 Y32.4003
G01 X42.9024 Y32.4113
G01 X42.8945 Y32.4164
G01 X42.8786 Y32.4258
G01 X42.8620 Y32.4338
G01 X42.8534 Y32.4375
G01 X42.8330 Y32.4447
G01 X42.8121 Y32.4500
G01 X42.8029 Y32.4517
G01 X42.7846 Y32.4543
G01 X42.7661 Y32.4553
G01 X42.7568 Y32.4555
G01 X42.7352 Y32.4543
G01 X42.7169 Y32.4517
G01 X42.7077 Y32.4500
G01 X42.6868 Y32.4447
G01 X42.6693 Y32.4386
G01 X42.6606 Y32.4351
G01 X42.6412 Y32.4258
G01 X42.6226 Y32.4148
G01 X42.6149 Y32.4095
G01 X42.6001 Y32.3983
G01 X42.5840 Y32.3839
G01 X42.5775 Y32.3772
G01 X42.5652 Y32.3634
G01 X42.5522 Y32.3461
G01 X42.5471 Y32.3383
G01 X42.5378 Y32.3224
G01 X42.5297 Y32.3057
G01 X42.5260 Y32.2971
G01 X42.5189 Y32.2768
G01 X42.5135 Y32.2558
G01 X42.5118 Y32.2466
G01 X42.5092 Y32.2283
G01 X42.5081 Y32.2068
G01 X42.5090 Y32.1821
G01 X42.5123 Y32.1576
G01 X42.5180 Y32.1335
G01 X42.5260 Y32.1101
G01 X42.5363 Y32.0877
G01 X42.5488 Y32.0663
G01 X42.5632 Y32.0463
G01 X42.5775 Y32.0301
G01 X43.6133 Y30.9940
G01 X43.6133 Y14.0806
G01 X38.8514 Y9.3186
G01 X38.8524 Y9.3280
G01 X38.8533 Y9.3495
G01 X38.8533 Y25.7409
G01 X42.9380 Y29.8255
G01 X42.9526 Y29.8415
G01 X42.9657 Y29.8586
G01 X42.9710 Y29.8663
G01 X42.9820 Y29.8849
G01 X42.9913 Y29.9044
G01 X42.9948 Y29.9131
G01 X43.0018 Y29.9335
G01 X43.0069 Y29.9545
G01 X43.0102 Y29.9759
G01 X43.0116 Y29.9974
G01 X43.0117 Y30.0068
G01 X43.0105 Y30.0283
G01 X43.0075 Y30.0497
G01 X43.0055 Y30.0588
G01 X43.0000 Y30.0797
G01 X42.9926 Y30.1000
G01 X42.9834 Y30.1196
G01 X42.9789 Y30.1278
G01 X42.9675 Y30.1461
G01 X42.9546 Y30.1634
G01 X42.9401 Y30.1795
G01 X42.9244 Y30.1943
G01 X42.9172 Y30.2003
G01 X42.8998 Y30.2131
G01 X42.8813 Y30.2243
G01 X42.8730 Y30.2286
G01 X42.8534 Y30.2375
G01 X42.8330 Y30.2447
G01 X42.8121 Y30.2500
G01 X42.7907 Y30.2535
G01 X42.7815 Y30.2546
G01 X42.7599 Y30.2555
G01 X42.7414 Y30.2547
G01 X42.7290 Y30.2535
G01 X42.7138 Y30.2512
G01 X42.7047 Y30.2493
G01 X42.6838 Y30.2437
G01 X42.6606 Y30.2351
G01 X42.6412 Y30.2258
G01 X42.6200 Y30.2131
G01 X42.6001 Y30.1983
G01 X42.5818 Y30.1817
G01 X38.4234 Y26.0233
G01 X38.4088 Y26.0074
G01 X38.4030 Y26.0001
G01 X38.3921 Y25.9852
G01 X38.3794 Y25.9640
G01 X38.3700 Y25.9445
G01 X38.3665 Y25.9358
G01 X38.3605 Y25.9184
G01 X38.3545 Y25.8944
G01 X38.3508 Y25.8699
G01 X38.3496 Y25.8452
G01 X38.3496 Y9.4539
G01 X35.2267 Y6.3309
G01 X35.2142 Y6.3173
G01 X35.2063 Y6.3077
G01 X35.1937 Y6.2902
G01 X35.1827 Y6.2716
G01 X35.1733 Y6.2521
G01 X35.1657 Y6.2319
G01 X35.1621 Y6.2200
G01 X35.1578 Y6.2020
G01 X35.1541 Y6.1775
G01 X35.1529 Y6.1528
G01 X35.1529 Y5.6204
G01 X32.4229 Y2.8903
G01 X32.4692 Y2.9677
G01 X32.5056 Y3.0443
G01 X32.5104 Y3.0558
G01 X32.5388 Y3.1356
G01 X32.5595 Y3.2178
G01 X32.5619 Y3.2300
G01 X32.5739 Y3.3107
G00 Z2.0000
G00 X32.8194 Y3.6267
G01 F60.00
G01 Z-0.1000
G01 F120.00
G01 X32.8024 Y3.6305
G01 X32.7836 Y3.6353
G01 X32.7863 Y3.6214
G01 X32.7922 Y3.5824
G01 X32.8339 Y3.6241
G01 X32.8194 Y3.6267
G00 Z2.0000
G00 X36.8760 Y4.9786
G01 F60.00
G01 Z-0.1000
G01 F120.00
G01 X36.9015 Y4.9732
G01 X36.9304 Y4.9655
G01 X36.9587 Y4.9558
G01 X36.9832 Y4.9460
G01 X36.9653 Y5.0665
G01 X36.9624 Y5.0925
G01 X36.9523 Y5.2972
G01 X36.9518 Y5.3146
G01 X36.9523 Y5.3321
G01 X36.9624 Y5.5368
G01 X36.9653 Y5.5628
G01 X36.9802 Y5.6630
G01 X36.9448 Y5.6276
G01 X36.9447 Y5.2444
G01 X36.9438 Y5.2235
G01 X36.9425 Y5.2061
G01 X36.9385 Y5.1766
G01 X36.9338 Y5.1510
G01 X36.9265 Y5.1221
G01 X36.9186 Y5.0972
G01 X36.9082 Y5.0694
G01 X36.9012 Y5.0535
G01 X36.8881 Y5.0268
G01 X36.8732 Y5.0011
G01 X36.8602 Y4.9810
G01 X36.8760 Y4.9786
G00 Z2.0000
G00 X39.0674 Y7.6574
G01 F60.00
G01 Z-0.1000
G01 F120.00
G01 X39.0934 Y7.6596
G01 X39.2450 Y7.6671
G01 X39.2301 Y7.6912
G01 X39.2215 Y7.7064
G01 X39.2084 Y7.7332
G01 X39.1981 Y7.7573
G01 X39.1880 Y7.7854
G01 X39.1829 Y7.8021
G01 X39.1757 Y7.8311
G01 X39.1713 Y7.8541
G01 X38.9586 Y7.6413
G01 X39.0674 Y7.6574
G00 Z2.0000
G00 X44.0558 Y13.8117
G01 F60.00
G01 Z-0.1000
G01 F120.00
G01 X44.0433 Y13.7981
G01 X36.1069 Y5.8618
G01 X36.1069 Y5.3262
G01 X36.1057 Y5.3047
G01 X36.1021 Y5.2802
G01 X36.0961 Y5.2562
G01 X36.0874 Y5.2320
G01 X36.2128 Y5.3575
G01 X36.2128 Y5.8264
G01 X36.2140 Y5.8511
G01 X36.2177 Y5.8756
G01 X36.2228 Y5.8966
G01 X36.2297 Y5.9170
G01 X36.2345 Y5.9285
G01 X36.2426 Y5.9452
G01 X36.2553 Y5.9664
G01 X36.2700 Y5.9862
G01 X36.2823 Y6.0000
G01 X44.0637 Y13.7817
G01 X44.0637 Y13.8214
G01 X44.0558 Y13.8117
G00 Z2.0000
G00 X30.0536 Y11.1238
G01 F60.00
G01 Z-0.1000
G01 F120.00
G01 X30.0566 Y11.1098
G01 X30.0615 Y11.0816
G01 X30.0652 Y11.0553
G01 X30.0668 Y11.0411
G01 X30.0689 Y11.0125
G01 X30.0700 Y10.9860
G01 X30.0702 Y10.9716
G01 X30.0702 Y8.5517
G01 X30.1184 Y8.5226
G01 X30.1422 Y8.5067
G01 X30.2282 Y8.4429
G01 X30.2504 Y8.4247
G01 X30.2611 Y8.4152
G01 X30.3298 Y8.3528
G01 X30.3400 Y8.3428
G01 X30.3597 Y8.3220
G01 X30.4125 Y8.2639
G01 X30.4312 Y8.2422
G01 X30.4488 Y8.2196
G01 X30.4956 Y8.1566
G01 X30.5069 Y8.1407
G01 X30.5182 Y8.1566
G01 X30.5650 Y8.2196
G01 X30.5826 Y8.2422
G01 X30.5918 Y8.2531
G01 X30.6638 Y8.3325
G01 X30.6840 Y8.3528
G01 X30.7184 Y8.3842
G01 X30.7184 Y10.4950
G01 X30.0412 Y11.1722
G01 X30.0474 Y11.1497
G01 X30.0536 Y11.1238
G00 Z2.0000
G00 X28.9708 Y12.5584
G01 F60.00
G01 Z-0.1000
G01 F120.00
G01 X28.9530 Y12.5344
G01 X28.9420 Y12.5209
G01 X28.9219 Y12.4987
G01 X28.9096 Y12.4864
G01 X28.8874 Y12.4663
G01 X28.8740 Y12.4553
G01 X28.8499 Y12.4375
G01 X28.8354 Y12.4278
G01 X28.8098 Y12.4124
G01 X28.7944 Y12.4042
G01 X28.7674 Y12.3914
G01 X28.7513 Y12.3848
G01 X28.7232 Y12.3747
G01 X28.7065 Y12.3696
G01 X28.6775 Y12.3624
G01 X28.6545 Y12.3580
G01 X29.7074 Y11.3049
G01 X29.7274 Y11.2829
G01 X29.7437 Y11.2625
G01 X29.7611 Y11.2384
G01 X29.7767 Y11.2131
G01 X29.7893 Y11.1902
G01 X29.8020 Y11.1634
G01 X29.8117 Y11.1391
G01 X29.8213 Y11.1110
G01 X29.8260 Y11.0942
G01 X29.8310 Y11.0738
G01 X29.8357 Y11.0481
G01 X29.8387 Y11.0274
G01 X29.8404 Y11.0100
G01 X29.8416 Y10.9891
G01 X29.8420 Y10.9716
G01 X29.8420 Y8.4142
G01 X29.8908 Y8.3911
G01 X29.9064 Y8.3833
G01 X29.9215 Y8.3747
G01 X29.9963 Y8.3298
G01 X30.0178 Y8.3150
G01 X30.0809 Y8.2682
G01 X30.0946 Y8.2575
G01 X30.1078 Y8.2461
G01 X30.1660 Y8.1934
G01 X30.1786 Y8.1814
G01 X30.1906 Y8.1688
G01 X30.2434 Y8.1106
G01 X30.2547 Y8.0974
G01 X30.2655 Y8.0837
G01 X30.3122 Y8.0206
G01 X30.3223 Y8.0063
G01 X30.3316 Y7.9916
G01 X30.3719 Y7.9243
G01 X30.3805 Y7.9091
G01 X30.3884 Y7.8936
G01 X30.4219 Y7.8226
G01 X30.4322 Y7.7986
G01 X30.4646 Y7.7082
G01 X30.4718 Y7.6831
G01 X30.4909 Y7.6070
G01 X30.4947 Y7.5900
G01 X30.4977 Y7.5728
G01 X30.5069 Y7.5110
G01 X30.5161 Y7.5728
G01 X30.5208 Y7.5985
G01 X30.5419 Y7.6831
G01 X30.5492 Y7.7082
G01 X30.5785 Y7.7904
G01 X30.5848 Y7.8067
G01 X30.5918 Y7.8226
G01 X30.6254 Y7.8936
G01 X30.6374 Y7.9168
G01 X30.6822 Y7.9916
G01 X30.6915 Y8.0063
G01 X30.7015 Y8.0206
G01 X30.7483 Y8.0837
G01 X30.7646 Y8.1041
G01 X30.8231 Y8.1688
G01 X30.8414 Y8.1875
G01 X30.9125 Y8.2519
G01 X30.9259 Y8.2629
G01 X30.9467 Y8.2785
G01 X30.9467 Y10.5895
G01 X29.0512 Y12.4850
G01 X29.0392 Y12.4976
G01 X29.0104 Y12.5296
G01 X28.9993 Y12.5431
G01 X28.9789 Y12.5704
G01 X28.9708 Y12.5584
G00 Z2.0000
G00 X28.6534 Y8.5008
G01 F60.00
G01 Z-0.1000
G01 F120.00
G01 X28.6637 Y8.4768
G01 X28.6737 Y8.4488
G01 X28.6787 Y8.4321
G01 X28.6860 Y8.4033
G01 X28.6894 Y8.3862
G01 X28.6937 Y8.3569
G01 X28.6954 Y8.3395
G01 X28.6969 Y8.3083
G01 X28.7130 Y8.3201
G01 X28.7275 Y8.3298
G01 X28.8098 Y8.3791
G01 X28.8330 Y8.3911
G01 X28.8818 Y8.4142
G01 X28.8818 Y8.5985
G01 X28.8624 Y8.5853
G01 X28.8443 Y8.5744
G01 X28.8291 Y8.5658
G01 X28.8023 Y8.5526
G01 X28.7783 Y8.5423
G01 X28.7584 Y8.5351
G01 X28.7418 Y8.5296
G01 X28.7129 Y8.5219
G01 X28.6874 Y8.5165
G01 X28.6664 Y8.5133
G01 X28.6485 Y8.5111
G01 X28.6534 Y8.5008
G00 Z2.0000
G00 X27.9650 Y8.1968
G01 F60.00
G01 Z-0.1000
G01 F120.00
G01 X23.8718 Y12.2900
G01 X23.8552 Y12.3084
G01 X23.8405 Y12.3282
G01 X23.8308 Y12.3440
G01 X23.8250 Y12.3550
G01 X23.8160 Y12.3746
G01 X23.8089 Y12.3950
G01 X23.8035 Y12.4160
G01 X23.8000 Y12.4373
G01 X23.7988 Y12.4497
G01 X23.7980 Y12.4681
G01 X23.7980 Y13.3410
G01 X22.1226 Y15.0165
G01 X21.6160 Y15.0165
G01 X21.5944 Y15.0177
G01 X21.5730 Y15.0207
G01 X21.5520 Y15.0257
G01 X21.5396 Y15.0295
G01 X22.0280 Y14.5410
G01 X22.0405 Y14.5274
G01 X22.0465 Y14.5203
G01 X22.0593 Y14.5029
G01 X22.0689 Y14.4871
G01 X22.0734 Y14.4789
G01 X22.0826 Y14.4593
G01 X22.0889 Y14.4420
G01 X22.0918 Y14.4331
G01 X22.0963 Y14.4151
G01 X22.0980 Y14.4059
G01 X22.1005 Y14.3876
G01 X22.1017 Y14.3629
G01 X22.1017 Y12.6011
G01 X26.1050 Y8.5978
G01 X26.1216 Y8.5795
G01 X26.1363 Y8.5597
G01 X26.1459 Y8.5439
G01 X26.1518 Y8.5329
G01 X26.1607 Y8.5132
G01 X26.1679 Y8.4929
G01 X26.1733 Y8.4719
G01 X26.1768 Y8.4506
G01 X26.1780 Y8.4382
G01 X26.1787 Y8.4197
G01 X26.1787 Y7.6094
G01 X26.1859 Y7.6366
G01 X26.2134 Y7.7135
G01 X26.2169 Y7.7222
G01 X26.2545 Y7.8015
G01 X26.2996 Y7.8769
G01 X26.3049 Y7.8846
G01 X26.3555 Y7.9526
G01 X26.4122 Y8.0155
G01 X26.4210 Y8.0243
G01 X26.4792 Y8.0770
G01 X26.4864 Y8.0830
G01 X26.5570 Y8.1352
G01 X26.6350 Y8.1820
G01 X26.7172 Y8.2209
G01 X26.7969 Y8.2496
G01 X26.8088 Y8.2532
G01 X26.8850 Y8.2723
G01 X26.8972 Y8.2747
G01 X26.9810 Y8.2870
G01 X27.0719 Y8.2914
G01 X27.1627 Y8.2870
G01 X27.2466 Y8.2747
G01 X27.2588 Y8.2723
G01 X27.3349 Y8.2532
G01 X27.3468 Y8.2496
G01 X27.4266 Y8.2209
G01 X27.5088 Y8.1820
G01 X27.5868 Y8.1352
G01 X27.6574 Y8.0830
G01 X27.6645 Y8.0770
G01 X27.7272 Y8.0200
G01 X27.7842 Y7.9573
G01 X27.7921 Y7.9477
G01 X27.8389 Y7.8846
G01 X27.8442 Y7.8769
G01 X27.8892 Y7.8015
G01 X27.9269 Y7.7222
G01 X27.9304 Y7.7135
G01 X27.9578 Y7.6366
G01 X27.9650 Y7.6094
G01 X27.9650 Y8.1968
G00 Z2.0000
G00 X26.4475 Y8.8999
G01 F60.00
G01 Z-0.1000
G01 F120.00
G01 X26.4652 Y8.8801
G01 X26.4744 Y8.8691
G01 X26.4920 Y8.8465
G01 X26.5077 Y8.8251
G01 X26.5158 Y8.8133
G01 X26.5312 Y8.7891
G01 X26.5447 Y8.7662
G01 X26.5516 Y8.7537
G01 X26.5645 Y8.7281
G01 X26.5757 Y8.7040
G01 X26.5813 Y8.6908
G01 X26.5926 Y8.6613
G01 X26.6567 Y8.6840
G01 X26.6841 Y8.6923
G01 X26.7741 Y8.7151
G01 X26.7962 Y8.7201
G01 X23.5490 Y11.9673
G01 X23.5390 Y11.9775
G01 X23.5210 Y11.9971
G01 X23.5115 Y12.0078
G01 X23.4934 Y12.0299
G01 X23.4774 Y12.0512
G01 X23.4609 Y12.0746
G01 X23.4531 Y12.0866
G01 X23.4393 Y12.1093
G01 X23.4321 Y12.1217
G01 X23.4186 Y12.1469
G01 X23.4071 Y12.1709
G01 X23.3955 Y12.1971
G01 X23.3852 Y12.2238
G01 X23.3764 Y12.2489
G01 X23.3720 Y12.2625
G01 X23.3644 Y12.2901
G01 X23.3581 Y12.3159
G01 X23.3551 Y12.3299
G01 X23.3503 Y12.3582
G01 X23.3465 Y12.3845
G01 X23.3437 Y12.4130
G01 X23.3428 Y12.4273
G01 X23.3417 Y12.4538
G01 X23.3415 Y12.4681
G01 X23.3415 Y13.1519
G01 X22.5582 Y13.9353
G01 X22.5582 Y12.7901
G01 X26.4278 Y8.9206
G01 X26.4475 Y8.8999
G00 Z2.0000
G00 X24.1478 Y8.8228
G01 F60.00
G01 Z-0.1000
G01 F120.00
G01 X24.1657 Y8.8032
G01 X24.1844 Y8.7815
G01 X24.2020 Y8.7589
G01 X24.2177 Y8.7375
G01 X24.2337 Y8.7137
G01 X24.2475 Y8.6910
G01 X24.2616 Y8.6661
G01 X24.2700 Y8.6495
G01 X24.3667 Y8.6840
G01 X24.3803 Y8.6884
G01 X24.4079 Y8.6960
G01 X24.4841 Y8.7151
G01 X24.5120 Y8.7213
G01 X24.5402 Y8.7262
G01 X24.6085 Y8.7364
G01 X21.3490 Y11.9959
G01 X21.3293 Y12.0166
G01 X21.3115 Y12.0364
G01 X21.2934 Y12.0585
G01 X21.2847 Y12.0699
G01 X21.2690 Y12.0914
G01 X21.2609 Y12.1032
G01 X21.2456 Y12.1274
G01 X21.2321 Y12.1503
G01 X21.2186 Y12.1755
G01 X21.2123 Y12.1884
G01 X21.2011 Y12.2125
G01 X21.1955 Y12.2257
G01 X21.1901 Y12.2390
G01 X21.1810 Y12.2639
G01 X21.1720 Y12.2911
G01 X21.1681 Y12.3049
G01 X21.1581 Y12.3445
G01 X21.1551 Y12.3585
G01 X21.1503 Y12.3868
G01 X21.1465 Y12.4131
G01 X21.1449 Y12.4273
G01 X21.1437 Y12.4416
G01 X21.1422 Y12.4681
G01 X21.1415 Y12.4967
G01 X21.1415 Y14.0695
G01 X9.4048 Y25.8063
G01 X9.4048 Y23.5659
G01 X24.1478 Y8.8228
G00 Z2.0000
G00 X23.9824 Y8.6654
G01 F60.00
G01 Z-0.1000
G01 F120.00
G01 X24.0024 Y8.6434
G01 X24.0134 Y8.6299
G01 X24.0311 Y8.6061
G01 X24.0408 Y8.5916
G01 X24.0561 Y8.5661
G01 X24.0643 Y8.5507
G01 X24.0770 Y8.5239
G01 X24.0837 Y8.5078
G01 X24.0937 Y8.4798
G01 X24.0987 Y8.4631
G01 X24.1060 Y8.4343
G01 X24.1094 Y8.4172
G01 X24.1137 Y8.3879
G01 X24.1154 Y8.3705
G01 X24.1169 Y8.3409
G01 X24.1170 Y8.3084
G01 X24.1330 Y8.3201
G01 X24.1475 Y8.3298
G01 X24.2222 Y8.3747
G01 X24.2374 Y8.3833
G01 X24.2530 Y8.3911
G01 X24.3239 Y8.4247
G01 X24.3480 Y8.4350
G01 X24.4300 Y8.4645
G01 X24.4466 Y8.4699
G01 X24.4634 Y8.4746
G01 X24.5395 Y8.4937
G01 X24.5565 Y8.4975
G01 X24.5737 Y8.5005
G01 X24.6514 Y8.5120
G01 X24.6687 Y8.5141
G01 X24.6860 Y8.5154
G01 X24.7645 Y8.5193
G01 X24.7819 Y8.5197
G01 X24.7993 Y8.5193
G01 X24.8777 Y8.5154
G01 X24.8951 Y8.5141
G01 X24.9124 Y8.5120
G01 X24.9900 Y8.5005
G01 X25.0072 Y8.4975
G01 X25.0242 Y8.4937
G01 X25.1004 Y8.4746
G01 X25.1172 Y8.4699
G01 X25.1337 Y8.4645
G01 X25.2158 Y8.4350
G01 X25.2319 Y8.4283
G01 X25.2458 Y8.4219
G01 X21.5104 Y12.1573
G01 X21.4984 Y12.1699
G01 X21.4788 Y12.1922
G01 X21.4607 Y12.2158
G01 X21.4507 Y12.2300
G01 X21.4414 Y12.2447
G01 X21.4307 Y12.2628
G01 X21.4186 Y12.2860
G01 X21.4063 Y12.3130
G01 X21.4001 Y12.3293
G01 X21.3931 Y12.3491
G01 X21.3858 Y12.3742
G01 X21.3808 Y12.3946
G01 X21.3774 Y12.4116
G01 X21.3742 Y12.4324
G01 X21.3721 Y12.4497
G01 X21.3702 Y12.4793
G01 X21.3698 Y12.4967
G01 X21.3698 Y14.1641
G01 X9.1766 Y26.3573
G01 X9.1766 Y23.4714
G01 X23.9824 Y8.6654
G00 Z2.0000
G00 X23.3012 Y8.2911
G01 F60.00
G01 Z-0.1000
G01 F120.00
G01 X23.2919 Y8.2914
G01 X21.6888 Y8.2914
G01 X21.6764 Y8.2905
G01 X21.6641 Y8.2884
G01 X21.6521 Y8.2850
G01 X21.6405 Y8.2806
G01 X21.6294 Y8.2750
G01 X21.6189 Y8.2683
G01 X21.6114 Y8.2627
G01 X21.6022 Y8.2543
G01 X21.5939 Y8.2451
G01 X21.5864 Y8.2351
G01 X21.5801 Y8.2244
G01 X21.5747 Y8.2132
G01 X21.5715 Y8.2044
G01 X21.5682 Y8.1924
G01 X21.5660 Y8.1802
G01 X21.5651 Y8.1678
G01 X21.5652 Y6.5584
G01 X21.5665 Y6.5460
G01 X21.5689 Y6.5338
G01 X21.5715 Y6.5249
G01 X21.5760 Y6.5133
G01 X21.5801 Y6.5049
G01 X21.5864 Y6.4942
G01 X21.5939 Y6.4842
G01 X21.6022 Y6.4750
G01 X21.6114 Y6.4666
G01 X21.6214 Y6.4592
G01 X21.6321 Y6.4528
G01 X21.6405 Y6.4487
G01 X21.6521 Y6.4442
G01 X21.6641 Y6.4409
G01 X21.6764 Y6.4388
G01 X21.6857 Y6.4380
G01 X23.2950 Y6.4379
G01 X23.3074 Y6.4388
G01 X23.3197 Y6.4409
G01 X23.3317 Y6.4442
G01 X23.3433 Y6.4487
G01 X23.3544 Y6.4543
G01 X23.3649 Y6.4610
G01 X23.3747 Y6.4686
G01 X23.3850 Y6.4786
G01 X23.3850 Y6.2760
G01 X23.3708 Y6.2724
G01 X23.3619 Y6.2696
G01 X23.2880 Y6.2431
G01 X23.2765 Y6.2384
G01 X23.2000 Y6.2020
G01 X23.1272 Y6.1586
G01 X23.1169 Y6.1517
G01 X23.0489 Y6.1011
G01 X22.9815 Y6.0400
G01 X22.9205 Y5.9726
G01 X22.8699 Y5.9046
G01 X22.8629 Y5.8943
G01 X22.8195 Y5.8215
G01 X22.7832 Y5.7450
G01 X22.7784 Y5.7335
G01 X22.7500 Y5.6537
G01 X22.7279 Y5.5654
G01 X22.7153 Y5.4817
G01 X22.7141 Y5.4693
G01 X22.7102 Y5.3909
G01 X22.7102 Y5.3784
G01 X22.7145 Y5.2938
G01 X22.7279 Y5.2038
G01 X22.7500 Y5.1156
G01 X22.7784 Y5.0358
G01 X22.7832 Y5.0243
G01 X22.8167 Y4.9533
G01 X22.8226 Y4.9423
G01 X22.8663 Y4.8697
G01 X22.9205 Y4.7967
G01 X22.9815 Y4.7293
G01 X23.0489 Y4.6682
G01 X23.1220 Y4.6140
G01 X23.1946 Y4.5703
G01 X23.2055 Y4.5645
G01 X23.2822 Y4.5284
G01 X23.3619 Y4.4997
G01 X23.3738 Y4.4961
G01 X23.4500 Y4.4770
G01 X23.4622 Y4.4746
G01 X23.5460 Y4.4623
G01 X23.6369 Y4.4578
G01 X23.7277 Y4.4623
G01 X23.8177 Y4.4756
G01 X23.9059 Y4.4977
G01 X23.9916 Y4.5284
G01 X24.0738 Y4.5673
G01 X24.1518 Y4.6140
G01 X24.2248 Y4.6682
G01 X24.2922 Y4.7293
G01 X24.3533 Y4.7967
G01 X24.4075 Y4.8697
G01 X24.4542 Y4.9477
G01 X24.4931 Y5.0300
G01 X24.5238 Y5.1156
G01 X24.5445 Y5.1978
G01 X24.5464 Y5.2069
G01 X24.5592 Y5.2938
G01 X24.5637 Y5.3846
G01 X24.5592 Y5.4755
G01 X24.5459 Y5.5654
G01 X24.5238 Y5.6537
G01 X24.4931 Y5.7393
G01 X24.4542 Y5.8215
G01 X24.4108 Y5.8943
G01 X24.4039 Y5.9046
G01 X24.3533 Y5.9726
G01 X24.2922 Y6.0400
G01 X24.2248 Y6.1011
G01 X24.1569 Y6.1517
G01 X24.1465 Y6.1586
G01 X24.0738 Y6.2020
G01 X23.9972 Y6.2384
G01 X23.9857 Y6.2431
G01 X23.9118 Y6.2696
G01 X23.9029 Y6.2724
G01 X23.8887 Y6.2760
G01 X23.8887 Y7.1199
G01 X23.8959 Y7.0926
G01 X23.9234 Y7.0158
G01 X23.9269 Y7.0071
G01 X23.9645 Y6.9277
G01 X24.0096 Y6.8523
G01 X24.0149 Y6.8446
G01 X24.0616 Y6.7816
G01 X24.0695 Y6.7720
G01 X24.1265 Y6.7093
G01 X24.1892 Y6.6523
G01 X24.1964 Y6.6463
G01 X24.2670 Y6.5940
G01 X24.3450 Y6.5473
G01 X24.4272 Y6.5084
G01 X24.5069 Y6.4797
G01 X24.5188 Y6.4761
G01 X24.5950 Y6.4570
G01 X24.6072 Y6.4546
G01 X24.6910 Y6.4423
G01 X24.7819 Y6.4378
G01 X24.8727 Y6.4423
G01 X24.9566 Y6.4546
G01 X24.9688 Y6.4570
G01 X25.0449 Y6.4761
G01 X25.0568 Y6.4797
G01 X25.1366 Y6.5084
G01 X25.2188 Y6.5473
G01 X25.2968 Y6.5940
G01 X25.3674 Y6.6463
G01 X25.3745 Y6.6523
G01 X25.4372 Y6.7093
G01 X25.4942 Y6.7720
G01 X25.5021 Y6.7816
G01 X25.5489 Y6.8446
G01 X25.5542 Y6.8523
G01 X25.5992 Y6.9277
G01 X25.6369 Y7.0071
G01 X25.6404 Y7.0158
G01 X25.6678 Y7.0926
G01 X25.6750 Y7.1199
G01 X25.6750 Y6.2760
G01 X25.6608 Y6.2724
G01 X25.6519 Y6.2696
G01 X25.5780 Y6.2431
G01 X25.5665 Y6.2384
G01 X25.4900 Y6.2020
G01 X25.4172 Y6.1586
G01 X25.4069 Y6.1517
G01 X25.3389 Y6.1011
G01 X25.2715 Y6.0400
G01 X25.2105 Y5.9726
G01 X25.1563 Y5.8995
G01 X25.1095 Y5.8215
G01 X25.0732 Y5.7450
G01 X25.0684 Y5.7335
G01 X25.0419 Y5.6596
G01 X25.0383 Y5.6477
G01 X25.0179 Y5.5654
G01 X25.0045 Y5.4755
G01 X25.0001 Y5.3846
G01 X25.0045 Y5.2938
G01 X25.0179 Y5.2038
G01 X25.0400 Y5.1156
G01 X25.0706 Y5.0300
G01 X25.1095 Y4.9477
G01 X25.1563 Y4.8697
G01 X25.2105 Y4.7967
G01 X25.2715 Y4.7293
G01 X25.3342 Y4.6723
G01 X25.3438 Y4.6644
G01 X25.4069 Y4.6176
G01 X25.4172 Y4.6107
G01 X25.4900 Y4.5673
G01 X25.5665 Y4.5309
G01 X25.5780 Y4.5261
G01 X25.6578 Y4.4977
G01 X25.7461 Y4.4756
G01 X25.8360 Y4.4623
G01 X25.9269 Y4.4578
G01 X26.0177 Y4.4623
G01 X26.1077 Y4.4756
G01 X26.1959 Y4.4977
G01 X26.2757 Y4.5261
G01 X26.2872 Y4.5309
G01 X26.3582 Y4.5645
G01 X26.3692 Y4.5703
G01 X26.4418 Y4.6140
G01 X26.5099 Y4.6644
G01 X26.5195 Y4.6723
G01 X26.5822 Y4.7293
G01 X26.6433 Y4.7967
G01 X26.6975 Y4.8697
G01 X26.7442 Y4.9477
G01 X26.7831 Y5.0300
G01 X26.8138 Y5.1156
G01 X26.8359 Y5.2038
G01 X26.8492 Y5.2938
G01 X26.8537 Y5.3846
G01 X26.8492 Y5.4755
G01 X26.8359 Y5.5654
G01 X26.8154 Y5.6477
G01 X26.8118 Y5.6596
G01 X26.7854 Y5.7335
G01 X26.7806 Y5.7450
G01 X26.7442 Y5.8215
G01 X26.6975 Y5.8995
G01 X26.6433 Y5.9726
G01 X26.5822 Y6.0400
G01 X26.5148 Y6.1011
G01 X26.4469 Y6.1517
G01 X26.4365 Y6.1586
G01 X26.3638 Y6.2020
G01 X26.2872 Y6.2384
G01 X26.2757 Y6.2431
G01 X26.2018 Y6.2696
G01 X26.1929 Y6.2724
G01 X26.1787 Y6.2760
G01 X26.1787 Y7.1199
G01 X26.1859 Y7.0926
G01 X26.2134 Y7.0158
G01 X26.2169 Y7.0071
G01 X26.2545 Y6.9277
G01 X26.2996 Y6.8523
G01 X26.3049 Y6.8446
G01 X26.3516 Y6.7816
G01 X26.3595 Y6.7720
G01 X26.4165 Y6.7093
G01 X26.4792 Y6.6523
G01 X26.4864 Y6.6463
G01 X26.5570 Y6.5940
G01 X26.6350 Y6.5473
G01 X26.7172 Y6.5084
G01 X26.7969 Y6.4797
G01 X26.8088 Y6.4761
G01 X26.8850 Y6.4570
G01 X26.8972 Y6.4546
G01 X26.9810 Y6.4423
G01 X27.0719 Y6.4378
G01 X27.1627 Y6.4423
G01 X27.2466 Y6.4546
G01 X27.2588 Y6.4570
G01 X27.3349 Y6.4761
G01 X27.3468 Y6.4797
G01 X27.4266 Y6.5084
G01 X27.5088 Y6.5473
G01 X27.5868 Y6.5940
G01 X27.6574 Y6.6463
G01 X27.6645 Y6.6523
G01 X27.7272 Y6.7093
G01 X27.7842 Y6.7720
G01 X27.7921 Y6.7816
G01 X27.8389 Y6.8446
G01 X27.8442 Y6.8523
G01 X27.8892 Y6.9277
G01 X27.9269 Y7.0071
G01 X27.9304 Y7.0158
G01 X27.9578 Y7.0926
G01 X27.9650 Y7.1199
G01 X27.9650 Y6.2760
G01 X27.9508 Y6.2724
G01 X27.9419 Y6.2696
G01 X27.8680 Y6.2431
G01 X27.8565 Y6.2384
G01 X27.7800 Y6.2020
G01 X27.7072 Y6.1586
G01 X27.6969 Y6.1517
G01 X27.6289 Y6.1011
G01 X27.5615 Y6.0400
G01 X27.5005 Y5.9726
G01 X27.4463 Y5.8995
G01 X27.3995 Y5.8215
G01 X27.3632 Y5.7450
G01 X27.3584 Y5.7335
G01 X27.3319 Y5.6596
G01 X27.3283 Y5.6477
G01 X27.3079 Y5.5654
G01 X27.2945 Y5.4755
G01 X27.2901 Y5.3846
G01 X27.2945 Y5.2938
G01 X27.3079 Y5.2038
G01 X27.3300 Y5.1156
G01 X27.3606 Y5.0300
G01 X27.3995 Y4.9477
G01 X27.4463 Y4.8697
G01 X27.5005 Y4.7967
G01 X27.5615 Y4.7293
G01 X27.6242 Y4.6723
G01 X27.6338 Y4.6644
G01 X27.6969 Y4.6176
G01 X27.7072 Y4.6107
G01 X27.7800 Y4.5673
G01 X27.8565 Y4.5309
G01 X27.8680 Y4.5261
G01 X27.9478 Y4.4977
G01 X28.0361 Y4.4756
G01 X28.1260 Y4.4623
G01 X28.2169 Y4.4578
G01 X28.3077 Y4.4623
G01 X28.3977 Y4.4756
G01 X28.4859 Y4.4977
G01 X28.5657 Y4.5261
G01 X28.5772 Y4.5309
G01 X28.6482 Y4.5645
G01 X28.6592 Y4.5703
G01 X28.7318 Y4.6140
G01 X28.7999 Y4.6644
G01 X28.8095 Y4.6723
G01 X28.8722 Y4.7293
G01 X28.9333 Y4.7967
G01 X28.9875 Y4.8697
G01 X29.0342 Y4.9477
G01 X29.0731 Y5.0300
G01 X29.1038 Y5.1156
G01 X29.1259 Y5.2038
G01 X29.1392 Y5.2938
G01 X29.1437 Y5.3846
G01 X29.1392 Y5.4755
G01 X29.1259 Y5.5654
G01 X29.1054 Y5.6477
G01 X29.1018 Y5.6596
G01 X29.0754 Y5.7335
G01 X29.0706 Y5.7450
G01 X29.0342 Y5.8215
G01 X28.9875 Y5.8995
G01 X28.9333 Y5.9726
G01 X28.8722 Y6.0400
G01 X28.8048 Y6.1011
G01 X28.7369 Y6.1517
G01 X28.7265 Y6.1586
G01 X28.6538 Y6.2020
G01 X28.5772 Y6.2384
G01 X28.5657 Y6.2431
G01 X28.4918 Y6.2696
G01 X28.4829 Y6.2724
G01 X28.4687 Y6.2760
G01 X28.4687 Y7.1199
G01 X28.4759 Y7.0926
G01 X28.5034 Y7.0158
G01 X28.5069 Y7.0071
G01 X28.5445 Y6.9277
G01 X28.5913 Y6.8497
G01 X28.6455 Y6.7767
G01 X28.7022 Y6.7138
G01 X28.7110 Y6.7050
G01 X28.7692 Y6.6523
G01 X28.7788 Y6.6444
G01 X28.8470 Y6.5940
G01 X28.9250 Y6.5473
G01 X29.0072 Y6.5084
G01 X29.0869 Y6.4797
G01 X29.0988 Y6.4761
G01 X29.1750 Y6.4570
G01 X29.1872 Y6.4546
G01 X29.2710 Y6.4423
G01 X29.3557 Y6.4380
G01 X29.3681 Y6.4380
G01 X29.4527 Y6.4423
G01 X29.5427 Y6.4556
G01 X29.6309 Y6.4777
G01 X29.7107 Y6.5061
G01 X29.7222 Y6.5109
G01 X29.7932 Y6.5445
G01 X29.8042 Y6.5503
G01 X29.8768 Y6.5940
G01 X29.9498 Y6.6482
G01 X30.0172 Y6.7093
G01 X30.0783 Y6.7767
G01 X30.1325 Y6.8497
G01 X30.1762 Y6.9223
G01 X30.1820 Y6.9333
G01 X30.2156 Y7.0043
G01 X30.2204 Y7.0158
G01 X30.2488 Y7.0956
G01 X30.2695 Y7.1778
G01 X30.2719 Y7.1900
G01 X30.2842 Y7.2738
G01 X30.2887 Y7.3646
G01 X30.2842 Y7.4555
G01 X30.2709 Y7.5454
G01 X30.2488 Y7.6337
G01 X30.2181 Y7.7193
G01 X30.1792 Y7.8015
G01 X30.1342 Y7.8769
G01 X30.1289 Y7.8846
G01 X30.0783 Y7.9526
G01 X30.0172 Y8.0200
G01 X29.9498 Y8.0811
G01 X29.8819 Y8.1317
G01 X29.8715 Y8.1386
G01 X29.7988 Y8.1820
G01 X29.7222 Y8.2184
G01 X29.7107 Y8.2231
G01 X29.6368 Y8.2496
G01 X29.6279 Y8.2524
G01 X29.6137 Y8.2560
G01 X29.6137 Y10.9716
G01 X29.6125 Y10.9963
G01 X29.6100 Y11.0146
G01 X29.6083 Y11.0238
G01 X29.6020 Y11.0477
G01 X29.5957 Y11.0651
G01 X29.5920 Y11.0737
G01 X29.5840 Y11.0904
G01 X29.5713 Y11.1116
G01 X29.5566 Y11.1314
G01 X29.5400 Y11.1497
G01 X27.5280 Y13.1617
G01 X27.5097 Y13.1783
G01 X27.4898 Y13.1931
G01 X27.4686 Y13.2058
G01 X27.4491 Y13.2151
G01 X27.4260 Y13.2237
G01 X27.4051 Y13.2293
G01 X27.3929 Y13.2317
G01 X27.3777 Y13.2339
G01 X27.3684 Y13.2347
G01 X27.3499 Y13.2355
G01 X27.3252 Y13.2343
G01 X27.3007 Y13.2307
G01 X27.2768 Y13.2247
G01 X27.2535 Y13.2163
G01 X27.2312 Y13.2058
G01 X27.2100 Y13.1931
G01 X27.1901 Y13.1783
G01 X27.1718 Y13.1617
G01 X27.1552 Y13.1434
G01 X27.1405 Y13.1236
G01 X27.1278 Y13.1024
G01 X27.1172 Y13.0800
G01 X27.1089 Y13.0568
G01 X27.1029 Y13.0328
G01 X27.1000 Y13.0145
G01 X27.0990 Y13.0052
G01 X27.0981 Y12.9868
G01 X27.0988 Y12.9652
G01 X27.1000 Y12.9528
G01 X27.1023 Y12.9376
G01 X27.1042 Y12.9284
G01 X27.1098 Y12.9076
G01 X27.1184 Y12.8844
G01 X27.1293 Y12.8622
G01 X27.1422 Y12.8411
G01 X27.1552 Y12.8239
G01 X27.1718 Y12.8055
G01 X29.1100 Y10.8673
G01 X29.1100 Y8.2560
G01 X29.0899 Y8.2506
G01 X29.0072 Y8.2209
G01 X28.9305 Y8.1848
G01 X28.9196 Y8.1789
G01 X28.8470 Y8.1352
G01 X28.7788 Y8.0849
G01 X28.7692 Y8.0770
G01 X28.7065 Y8.0200
G01 X28.6495 Y7.9573
G01 X28.6416 Y7.9477
G01 X28.5913 Y7.8795
G01 X28.5460 Y7.8043
G01 X28.5417 Y7.7960
G01 X28.5082 Y7.7250
G01 X28.5045 Y7.7164
G01 X28.4759 Y7.6366
G01 X28.4687 Y7.6094
G01 X28.4687 Y8.3011
G01 X28.4678 Y8.3227
G01 X28.4650 Y8.3441
G01 X28.4625 Y8.3563
G01 X28.4579 Y8.3743
G01 X28.4496 Y8.3975
G01 X28.4390 Y8.4199
G01 X28.4296 Y8.4358
G01 X28.4245 Y8.4436
G01 X28.4116 Y8.4609
G01 X28.3950 Y8.4792
G01 X24.3017 Y12.5725
G01 X24.3017 Y13.4453
G01 X24.3008 Y13.4669
G01 X24.2975 Y13.4914
G01 X24.2926 Y13.5125
G01 X24.2889 Y13.5244
G01 X24.2813 Y13.5446
G01 X24.2720 Y13.5641
G01 X24.2593 Y13.5853
G01 X24.2446 Y13.6051
G01 X24.2301 Y13.6212
G01 X22.4050 Y15.4464
G01 X22.3890 Y15.4610
G01 X22.3818 Y15.4669
G01 X22.3668 Y15.4778
G01 X22.3483 Y15.4890
G01 X22.3400 Y15.4933
G01 X22.3204 Y15.5022
G01 X22.3000 Y15.5094
G01 X22.2791 Y15.5147
G01 X22.2577 Y15.5182
G01 X22.2485 Y15.5193
G01 X22.2269 Y15.5202
G01 X21.7234 Y15.5202
G01 X10.1062 Y27.1374
G01 X10.1062 Y32.0891
G01 X10.1050 Y32.1138
G01 X10.1014 Y32.1383
G01 X10.0954 Y32.1623
G01 X10.0893 Y32.1797
G01 X10.0858 Y32.1884
G01 X10.0779 Y32.2051
G01 X10.0655 Y32.2265
G01 X10.0602 Y32.2342
G01 X10.0491 Y32.2489
G01 X10.0325 Y32.2672
G01 X7.7135 Y34.5860
G01 X7.6997 Y34.5983
G01 X7.6798 Y34.6131
G01 X7.6586 Y34.6258
G01 X7.6420 Y34.6338
G01 X7.6305 Y34.6386
G01 X7.6100 Y34.6455
G01 X7.5890 Y34.6507
G01 X7.5646 Y34.6543
G01 X7.5399 Y34.6555
G01 X7.5183 Y34.6546
G01 X7.4969 Y34.6517
G01 X7.4847 Y34.6493
G01 X7.4668 Y34.6447
G01 X7.4435 Y34.6363
G01 X7.4212 Y34.6258
G01 X7.4052 Y34.6164
G01 X7.3974 Y34.6113
G01 X7.3825 Y34.6003
G01 X7.3640 Y34.5839
G01 X7.3575 Y34.5772
G01 X7.3452 Y34.5634
G01 X7.3305 Y34.5436
G01 X7.3178 Y34.5224
G01 X7.3072 Y34.5000
G01 X7.2989 Y34.4768
G01 X7.2942 Y34.4588
G01 X7.2923 Y34.4497
G01 X7.2890 Y34.4252
G01 X7.2881 Y34.4068
G01 X7.2882 Y34.3974
G01 X7.2892 Y34.3790
G01 X7.2918 Y34.3606
G01 X7.2935 Y34.3515
G01 X7.2972 Y34.3365
G01 X7.2998 Y34.3276
G01 X7.3060 Y34.3101
G01 X7.3163 Y34.2877
G01 X7.3208 Y34.2795
G01 X7.3305 Y34.2637
G01 X7.3452 Y34.2439
G01 X7.3618 Y34.2255
G01 X9.6025 Y31.9848
G01 X9.6025 Y30.4944
G01 X9.5968 Y30.5016
G01 X9.5822 Y30.5175
G01 X7.7180 Y32.3817
G01 X7.7020 Y32.3963
G01 X7.6948 Y32.4022
G01 X7.6798 Y32.4131
G01 X7.6640 Y32.4227
G01 X7.6558 Y32.4272
G01 X7.6363 Y32.4363
G01 X7.6160 Y32.4437
G01 X7.6070 Y32.4463
G01 X7.5890 Y32.4507
G01 X7.5677 Y32.4539
G01 X7.5584 Y32.4547
G01 X7.5399 Y32.4555
G01 X7.5183 Y32.4546
G01 X7.5090 Y32.4535
G01 X7.4907 Y32.4507
G01 X7.4698 Y32.4455
G01 X7.4609 Y32.4427
G01 X7.4406 Y32.4351
G01 X7.4212 Y32.4258
G01 X7.4052 Y32.4164
G01 X7.3974 Y32.4113
G01 X7.3801 Y32.3983
G01 X7.3640 Y32.3839
G01 X7.3575 Y32.3772
G01 X7.3452 Y32.3634
G01 X7.3340 Y32.3487
G01 X7.3288 Y32.3410
G01 X7.3178 Y32.3224
G01 X7.3097 Y32.3057
G01 X7.3060 Y32.2971
G01 X7.2989 Y32.2768
G01 X7.2942 Y32.2588
G01 X7.2923 Y32.2497
G01 X7.2892 Y32.2283
G01 X7.2880 Y32.2036
G01 X7.2888 Y32.1852
G01 X7.2896 Y32.1759
G01 X7.2935 Y32.1515
G01 X7.2980 Y32.1335
G01 X7.3008 Y32.1246
G01 X7.3060 Y32.1101
G01 X7.3097 Y32.1016
G01 X7.3178 Y32.0849
G01 X7.3271 Y32.0690
G01 X7.3322 Y32.0611
G01 X7.3432 Y32.0463
G01 X7.3596 Y32.0278
G01 X9.1522 Y30.2351
G01 X9.1522 Y26.8087
G01 X9.1532 Y26.7872
G01 X9.1542 Y26.7779
G01 X9.1571 Y26.7596
G01 X9.1631 Y26.7356
G01 X9.1714 Y26.7124
G01 X9.1792 Y26.6956
G01 X9.1835 Y26.6873
G01 X9.1947 Y26.6688
G01 X9.2094 Y26.6490
G01 X9.2260 Y26.6306
G01 X21.5980 Y14.2586
G01 X21.5981 Y12.4936
G01 X21.5992 Y12.4721
G01 X21.6018 Y12.4537
G01 X21.6035 Y12.4446
G01 X21.6089 Y12.4236
G01 X21.6160 Y12.4032
G01 X21.6197 Y12.3947
G01 X21.6278 Y12.3780
G01 X21.6371 Y12.3621
G01 X21.6422 Y12.3542
G01 X21.6532 Y12.3394
G01 X21.6593 Y12.3322
G01 X21.6718 Y12.3186
G01 X25.6750 Y8.3154
G01 X25.6750 Y7.6094
G01 X25.6678 Y7.6366
G01 X25.6404 Y7.7135
G01 X25.6369 Y7.7222
G01 X25.5992 Y7.8015
G01 X25.5542 Y7.8769
G01 X25.5489 Y7.8846
G01 X25.5021 Y7.9477
G01 X25.4942 Y7.9573
G01 X25.4372 Y8.0200
G01 X25.3745 Y8.0770
G01 X25.3674 Y8.0830
G01 X25.2968 Y8.1352
G01 X25.2188 Y8.1820
G01 X25.1366 Y8.2209
G01 X25.0568 Y8.2496
G01 X25.0449 Y8.2532
G01 X24.9688 Y8.2723
G01 X24.9566 Y8.2747
G01 X24.8727 Y8.2870
G01 X24.7819 Y8.2914
G01 X24.6910 Y8.2870
G01 X24.6072 Y8.2747
G01 X24.5950 Y8.2723
G01 X24.5188 Y8.2532
G01 X24.5069 Y8.2496
G01 X24.4272 Y8.2209
G01 X24.3450 Y8.1820
G01 X24.2670 Y8.1352
G01 X24.1964 Y8.0830
G01 X24.1892 Y8.0770
G01 X24.1310 Y8.0243
G01 X24.1222 Y8.0155
G01 X24.0655 Y7.9526
G01 X24.0149 Y7.8846
G01 X24.0096 Y7.8769
G01 X23.9645 Y7.8015
G01 X23.9269 Y7.7222
G01 X23.9234 Y7.7135
G01 X23.8959 Y7.6366
G01 X23.8887 Y7.6094
G01 X23.8887 Y8.3321
G01 X23.8878 Y8.3537
G01 X23.8845 Y8.3782
G01 X23.8796 Y8.3993
G01 X23.8759 Y8.4112
G01 X23.8683 Y8.4314
G01 X23.8590 Y8.4509
G01 X23.8463 Y8.4721
G01 X23.8316 Y8.4919
G01 X23.8171 Y8.5080
G01 X8.9483 Y23.3769
G01 X8.9483 Y28.8470
G01 X8.9471 Y28.8717
G01 X8.9435 Y28.8962
G01 X8.9375 Y28.9202
G01 X8.9314 Y28.9376
G01 X8.9279 Y28.9463
G01 X8.9186 Y28.9658
G01 X8.9076 Y28.9844
G01 X8.9023 Y28.9921
G01 X8.8912 Y29.0068
G01 X8.8767 Y29.0229
G01 X7.7157 Y30.1839
G01 X7.6972 Y30.2003
G01 X7.6824 Y30.2113
G01 X7.6745 Y30.2164
G01 X7.6586 Y30.2258
G01 X7.6420 Y30.2338
G01 X7.6334 Y30.2375
G01 X7.6160 Y30.2437
G01 X7.6070 Y30.2463
G01 X7.5890 Y30.2507
G01 X7.5646 Y30.2543
G01 X7.5461 Y30.2553
G01 X7.5368 Y30.2555
G01 X7.5183 Y30.2546
G01 X7.5090 Y30.2535
G01 X7.4907 Y30.2507
G01 X7.4728 Y30.2463
G01 X7.4638 Y30.2437
G01 X7.4435 Y30.2363
G01 X7.4239 Y30.2272
G01 X7.4157 Y30.2227
G01 X7.4000 Y30.2131
G01 X7.3850 Y30.2022
G01 X7.3777 Y30.1963
G01 X7.3618 Y30.1817
G01 X7.3493 Y30.1681
G01 X7.3432 Y30.1610
G01 X7.3322 Y30.1461
G01 X7.3271 Y30.1383
G01 X7.3178 Y30.1224
G01 X7.3097 Y30.1057
G01 X7.3060 Y30.0971
G01 X7.2989 Y30.0768
G01 X7.2942 Y30.0588
G01 X7.2923 Y30.0497
G01 X7.2892 Y30.0283
G01 X7.2882 Y30.0099
G01 X7.2881 Y30.0005
G01 X7.2890 Y29.9821
G01 X7.2900 Y29.9728
G01 X7.2929 Y29.9545
G01 X7.2972 Y29.9365
G01 X7.2998 Y29.9276
G01 X7.3060 Y29.9101
G01 X7.3097 Y29.9016
G01 X7.3178 Y29.8849
G01 X7.3288 Y29.8663
G01 X7.3340 Y29.8586
G01 X7.3452 Y29.8439
G01 X7.3618 Y29.8255
G01 X8.4446 Y28.7427
G01 X8.4446 Y23.2725
G01 X8.4456 Y23.2510
G01 X8.4466 Y23.2417
G01 X8.4495 Y23.2234
G01 X8.4555 Y23.1994
G01 X8.4626 Y23.1790
G01 X8.4663 Y23.1705
G01 X8.4744 Y23.1538
G01 X8.4837 Y23.1379
G01 X8.4888 Y23.1300
G01 X8.4998 Y23.1152
G01 X8.5059 Y23.1080
G01 X8.5184 Y23.0944
G01 X23.3261 Y8.2867
G01 X23.3136 Y8.2896
G01 X23.3012 Y8.2911
G00 Z2.0000
G00 X22.7704 Y8.5197
G01 F60.00
G01 Z-0.1000
G01 F120.00
G01 X22.5669 Y8.7232
G01 X22.5625 Y8.7001
G01 X22.5553 Y8.6711
G01 X22.5474 Y8.6462
G01 X22.5369 Y8.6182
G01 X22.5245 Y8.5910
G01 X22.5125 Y8.5678
G01 X22.4971 Y8.5422
G01 X22.4816 Y8.5197
G01 X22.7704 Y8.5197
G00 Z2.0000
G00 X25.1337 Y6.2648
G01 F60.00
G01 Z-0.1000
G01 F120.00
G01 X25.1088 Y6.2569
G01 X25.0157 Y6.2336
G01 X24.9900 Y6.2288
G01 X24.9124 Y6.2173
G01 X24.8951 Y6.2152
G01 X24.8777 Y6.2139
G01 X24.7906 Y6.2097
G01 X24.7645 Y6.2100
G01 X24.6860 Y6.2139
G01 X24.6687 Y6.2152
G01 X24.6514 Y6.2173
G01 X24.5737 Y6.2288
G01 X24.5565 Y6.2318
G01 X24.5395 Y6.2356
G01 X24.4634 Y6.2547
G01 X24.4466 Y6.2593
G01 X24.4300 Y6.2648
G01 X24.3474 Y6.2945
G01 X24.3628 Y6.2829
G01 X24.3763 Y6.2719
G01 X24.4474 Y6.2075
G01 X24.4656 Y6.1888
G01 X24.5241 Y6.1241
G01 X24.5405 Y6.1037
G01 X24.5872 Y6.0406
G01 X24.5973 Y6.0263
G01 X24.6066 Y6.0116
G01 X24.6513 Y5.9368
G01 X24.6634 Y5.9136
G01 X24.6969 Y5.8426
G01 X24.7040 Y5.8267
G01 X24.7103 Y5.8104
G01 X24.7396 Y5.7282
G01 X24.7468 Y5.7031
G01 X24.7679 Y5.6185
G01 X24.7727 Y5.5928
G01 X24.7819 Y5.5310
G01 X24.7911 Y5.5928
G01 X24.7958 Y5.6185
G01 X24.8169 Y5.7031
G01 X24.8242 Y5.7282
G01 X24.8535 Y5.8104
G01 X24.8598 Y5.8267
G01 X24.8668 Y5.8426
G01 X24.9004 Y5.9136
G01 X24.9124 Y5.9368
G01 X24.9572 Y6.0116
G01 X24.9665 Y6.0263
G01 X24.9765 Y6.0406
G01 X25.0233 Y6.1037
G01 X25.0396 Y6.1241
G01 X25.0981 Y6.1888
G01 X25.1164 Y6.2075
G01 X25.1875 Y6.2719
G01 X25.2009 Y6.2829
G01 X25.2163 Y6.2945
G01 X25.1337 Y6.2648
G00 Z2.0000
G00 X26.6459 Y6.2882
G01 F60.00
G01 Z-0.1000
G01 F120.00
G01 X26.6596 Y6.2775
G01 X26.6728 Y6.2661
G01 X26.7310 Y6.2134
G01 X26.7436 Y6.2014
G01 X26.7556 Y6.1888
G01 X26.8084 Y6.1306
G01 X26.8197 Y6.1174
G01 X26.8305 Y6.1037
G01 X26.8772 Y6.0406
G01 X26.8873 Y6.0263
G01 X26.8966 Y6.0116
G01 X26.9413 Y5.9368
G01 X26.9534 Y5.9136
G01 X26.9869 Y5.8426
G01 X26.9940 Y5.8267
G01 X27.0003 Y5.8104
G01 X27.0296 Y5.7282
G01 X27.0368 Y5.7031
G01 X27.0579 Y5.6185
G01 X27.0627 Y5.5928
G01 X27.0719 Y5.5310
G01 X27.0811 Y5.5928
G01 X27.0858 Y5.6185
G01 X27.1069 Y5.7031
G01 X27.1142 Y5.7282
G01 X27.1435 Y5.8104
G01 X27.1498 Y5.8267
G01 X27.1568 Y5.8426
G01 X27.1904 Y5.9136
G01 X27.2024 Y5.9368
G01 X27.2472 Y6.0116
G01 X27.2565 Y6.0263
G01 X27.2665 Y6.0406
G01 X27.3133 Y6.1037
G01 X27.3296 Y6.1241
G01 X27.3881 Y6.1888
G01 X27.4064 Y6.2075
G01 X27.4775 Y6.2719
G01 X27.4909 Y6.2829
G01 X27.5063 Y6.2945
G01 X27.4237 Y6.2648
G01 X27.4072 Y6.2593
G01 X27.3904 Y6.2547
G01 X27.3142 Y6.2356
G01 X27.2972 Y6.2318
G01 X27.2800 Y6.2288
G01 X27.2024 Y6.2173
G01 X27.1851 Y6.2152
G01 X27.1677 Y6.2139
G01 X27.0893 Y6.2100
G01 X27.0719 Y6.2096
G01 X27.0545 Y6.2100
G01 X26.9760 Y6.2139
G01 X26.9587 Y6.2152
G01 X26.9414 Y6.2173
G01 X26.8551 Y6.2302
G01 X26.8295 Y6.2356
G01 X26.7534 Y6.2547
G01 X26.7366 Y6.2593
G01 X26.7200 Y6.2648
G01 X26.6374 Y6.2945
G01 X26.6459 Y6.2882
G00 Z2.0000
G00 X22.3169 Y14.4736
G01 F60.00
G01 Z-0.1000
G01 F120.00
G01 X22.3224 Y14.4480
G01 X22.3267 Y14.4187
G01 X22.3290 Y14.3926
G01 X22.3300 Y14.3629
G01 X22.3300 Y12.6956
G01 X26.2724 Y8.7530
G01 X26.2924 Y8.7310
G01 X26.3087 Y8.7106
G01 X26.3261 Y8.6865
G01 X26.3417 Y8.6612
G01 X26.3543 Y8.6383
G01 X26.3670 Y8.6115
G01 X26.3767 Y8.5872
G01 X26.3863 Y8.5591
G01 X26.3910 Y8.5423
G01 X26.3978 Y8.5134
G01 X26.4025 Y8.4841
G01 X26.4054 Y8.4581
G01 X26.4066 Y8.4372
G01 X26.4070 Y8.4197
G01 X26.4070 Y8.3084
G01 X26.4230 Y8.3201
G01 X26.4375 Y8.3298
G01 X26.5198 Y8.3791
G01 X26.5430 Y8.3911
G01 X26.6139 Y8.4247
G01 X26.6299 Y8.4318
G01 X26.6461 Y8.4380
G01 X26.7200 Y8.4645
G01 X26.7366 Y8.4699
G01 X26.7534 Y8.4746
G01 X26.8295 Y8.4937
G01 X26.8551 Y8.4991
G01 X26.9414 Y8.5120
G01 X26.9587 Y8.5141
G01 X26.9760 Y8.5154
G01 X27.0545 Y8.5193
G01 X27.0806 Y8.5196
G01 X27.1677 Y8.5154
G01 X27.1938 Y8.5132
G01 X27.2887 Y8.4991
G01 X27.3057 Y8.4957
G01 X27.3558 Y8.4833
G01 X23.7104 Y12.1287
G01 X23.6984 Y12.1413
G01 X23.6788 Y12.1636
G01 X23.6680 Y12.1773
G01 X23.6556 Y12.1942
G01 X23.6414 Y12.2161
G01 X23.6307 Y12.2342
G01 X23.6225 Y12.2496
G01 X23.6134 Y12.2685
G01 X23.6063 Y12.2844
G01 X23.6001 Y12.3007
G01 X23.5931 Y12.3205
G01 X23.5858 Y12.3456
G01 X23.5808 Y12.3660
G01 X23.5774 Y12.3830
G01 X23.5742 Y12.4038
G01 X23.5721 Y12.4211
G01 X23.5708 Y12.4385
G01 X23.5698 Y12.4681
G01 X23.5698 Y13.2465
G01 X22.3072 Y14.5091
G01 X22.3117 Y14.4939
G01 X22.3169 Y14.4736
G00 Z2.0000
G00 X16.6742 Y20.8922
G01 F60.00
G01 Z-0.1000
G01 F120.00
G01 X16.6786 Y20.9152
G01 X16.6836 Y20.9358
G01 X16.6882 Y20.9526
G01 X16.6979 Y20.9809
G01 X16.7076 Y21.0051
G01 X16.7204 Y21.0322
G01 X16.7330 Y21.0551
G01 X16.7487 Y21.0805
G01 X16.7588 Y21.0947
G01 X16.7715 Y21.1117
G01 X16.7883 Y21.1317
G01 X16.8087 Y21.1535
G01 X16.8306 Y21.1739
G01 X16.8506 Y21.1907
G01 X16.8675 Y21.2034
G01 X16.8818 Y21.2135
G01 X16.9072 Y21.2292
G01 X16.9301 Y21.2418
G01 X16.9571 Y21.2546
G01 X16.9732 Y21.2613
G01 X16.9931 Y21.2685
G01 X17.0096 Y21.2740
G01 X17.0264 Y21.2786
G01 X17.0470 Y21.2837
G01 X17.0641 Y21.2871
G01 X17.0937 Y21.2915
G01 X17.1110 Y21.2932
G01 X17.1322 Y21.2943
G01 X17.1496 Y21.2947
G01 X17.4643 Y21.2947
G01 X18.0905 Y21.4193
G01 X18.6804 Y21.6636
G01 X19.2113 Y22.0184
G01 X19.6628 Y22.4699
G01 X20.0176 Y23.0008
G01 X20.2619 Y23.5907
G01 X20.3865 Y24.2169
G01 X20.3865 Y24.8555
G01 X20.2619 Y25.4817
G01 X20.1870 Y25.6626
G01 X18.2714 Y27.5782
G01 X18.0905 Y27.6531
G01 X17.4643 Y27.7777
G01 X16.8257 Y27.7777
G01 X16.1995 Y27.6531
G01 X15.6096 Y27.4088
G01 X15.0787 Y27.0540
G01 X14.6272 Y26.6025
G01 X14.2724 Y26.0716
G01 X14.0281 Y25.4817
G01 X13.9035 Y24.8555
G01 X13.9035 Y24.5408
G01 X13.9031 Y24.5234
G01 X13.9020 Y24.5022
G01 X13.9003 Y24.4849
G01 X13.8972 Y24.4639
G01 X13.8925 Y24.4382
G01 X13.8874 Y24.4176
G01 X13.8828 Y24.4008
G01 X13.8773 Y24.3843
G01 X13.8701 Y24.3644
G01 X13.8598 Y24.3404
G01 X13.8466 Y24.3135
G01 X13.8380 Y24.2984
G01 X13.8270 Y24.2803
G01 X13.8122 Y24.2587
G01 X13.7941 Y24.2349
G01 X13.7827 Y24.2218
G01 X13.7684 Y24.2061
G01 X13.7497 Y24.1879
G01 X13.7273 Y24.1681
G01 X13.7135 Y24.1574
G01 X13.6965 Y24.1449
G01 X13.6745 Y24.1306
G01 X13.6487 Y24.1156
G01 X13.6331 Y24.1078
G01 X13.6139 Y24.0988
G01 X13.5897 Y24.0891
G01 X13.5614 Y24.0794
G01 X13.5446 Y24.0748
G01 X13.5240 Y24.0698
G01 X13.5010 Y24.0654
G01 X16.6742 Y20.8922
G00 Z2.0000
G00 X16.6122 Y21.2770
G01 F60.00
G01 Z-0.1000
G01 F120.00
G01 X16.6276 Y21.2942
G01 X16.6473 Y21.3149
G01 X16.6680 Y21.3347
G01 X16.6880 Y21.3525
G01 X16.6990 Y21.3617
G01 X16.7215 Y21.3793
G01 X16.7431 Y21.3952
G01 X16.7669 Y21.4111
G01 X16.7898 Y21.4250
G01 X16.8147 Y21.4391
G01 X16.8403 Y21.4520
G01 X16.8646 Y21.4633
G01 X16.8910 Y21.4742
G01 X16.9162 Y21.4834
G01 X16.9434 Y21.4924
G01 X16.9710 Y21.5000
G01 X16.9970 Y21.5064
G01 X17.0110 Y21.5093
G01 X17.0251 Y21.5119
G01 X17.0516 Y21.5160
G01 X17.0800 Y21.5196
G01 X17.0942 Y21.5208
G01 X17.1210 Y21.5223
G01 X17.1496 Y21.5230
G01 X17.4418 Y21.5230
G01 X18.0239 Y21.6388
G01 X18.5723 Y21.8659
G01 X19.0658 Y22.1957
G01 X19.4855 Y22.6154
G01 X19.8153 Y23.1089
G01 X20.0424 Y23.6573
G01 X20.1582 Y24.2394
G01 X20.1582 Y24.8330
G01 X20.0424 Y25.4151
G01 X19.9935 Y25.5334
G01 X18.1422 Y27.3847
G01 X18.0239 Y27.4336
G01 X17.4418 Y27.5494
G01 X16.8482 Y27.5494
G01 X16.2661 Y27.4336
G01 X15.7177 Y27.2065
G01 X15.2242 Y26.8767
G01 X14.8045 Y26.4570
G01 X14.4747 Y25.9635
G01 X14.2476 Y25.4151
G01 X14.1318 Y24.8330
G01 X14.1318 Y24.5408
G01 X14.1316 Y24.5265
G01 X14.1305 Y24.4997
G01 X14.1296 Y24.4854
G01 X14.1268 Y24.4569
G01 X14.1207 Y24.4163
G01 X14.1181 Y24.4022
G01 X14.1119 Y24.3743
G01 X14.1052 Y24.3483
G01 X14.1012 Y24.3346
G01 X14.0922 Y24.3074
G01 X14.0830 Y24.2822
G01 X14.0777 Y24.2690
G01 X14.0661 Y24.2428
G01 X14.0545 Y24.2186
G01 X14.0479 Y24.2059
G01 X14.0338 Y24.1810
G01 X14.0199 Y24.1581
G01 X14.0040 Y24.1343
G01 X13.9956 Y24.1227
G01 X13.9795 Y24.1013
G01 X13.9613 Y24.0792
G01 X13.9435 Y24.0592
G01 X13.9237 Y24.0385
G01 X13.9030 Y24.0188
G01 X13.8858 Y24.0034
G01 X16.6122 Y21.2770
G00 Z2.0000
G00 X8.9240 Y29.2985
G01 F60.00
G01 Z-0.1000
G01 F120.00
G01 X8.9240 Y29.5818
G01 X8.9046 Y29.5686
G01 X8.8790 Y29.5533
G01 X8.8558 Y29.5412
G01 X8.8286 Y29.5288
G01 X8.8006 Y29.5184
G01 X8.7757 Y29.5105
G01 X8.7467 Y29.5032
G01 X8.7236 Y29.4989
G01 X8.9240 Y29.2985
G00 Z2.0000
G00 X9.3743 Y31.0482
G01 F60.00
G01 Z-0.1000
G01 F120.00
G01 X9.3743 Y31.3315
G01 X9.3549 Y31.3183
G01 X9.3293 Y31.3030
G01 X9.3061 Y31.2909
G01 X9.2789 Y31.2785
G01 X9.2509 Y31.2681
G01 X9.2260 Y31.2602
G01 X9.1970 Y31.2529
G01 X9.1739 Y31.2486
G01 X9.3743 Y31.0482
G00 Z2.0000
G00 X0.4370 Y46.4429
G01 F60.00
G01 Z-0.1000
G01 F120.00
G01 X0.4516 Y0.6595
G01 X0.4529 Y0.6346
G01 X0.4565 Y0.6100
G01 X0.4626 Y0.5859
G01 X0.4710 Y0.5624
G01 X0.4816 Y0.5399
G01 X0.4944 Y0.5185
G01 X0.5093 Y0.4985
G01 X0.5217 Y0.4846
G01 X0.5282 Y0.4779
G01 X0.5445 Y0.4634
G01 X0.5645 Y0.4485
G01 X0.5858 Y0.4357
G01 X0.6083 Y0.4251
G01 X0.6318 Y0.4167
G01 X0.6559 Y0.4106
G01 X0.6806 Y0.4070
G01 X0.7054 Y0.4057
G01 X24.2493 Y0.3986
G01 X24.2742 Y0.3998
G01 X24.2958 Y0.4029
G01 X24.3170 Y0.4078
G01 X24.3289 Y0.4114
G01 X24.3464 Y0.4179
G01 X24.3690 Y0.4285
G01 X24.3903 Y0.4413
G01 X24.4104 Y0.4562
G01 X24.4288 Y0.4729
G01 X24.4456 Y0.4914
G01 X24.4604 Y0.5114
G01 X24.4702 Y0.5273
G01 X24.4760 Y0.5383
G01 X24.4850 Y0.5581
G01 X24.4923 Y0.5787
G01 X24.4983 Y0.6029
G01 X24.5017 Y0.6244
G01 X24.5025 Y0.6337
G01 X24.5032 Y0.6524
G01 X24.5025 Y0.6711
G01 X24.5017 Y0.6804
G01 X24.4989 Y0.6989
G01 X24.4970 Y0.7080
G01 X24.4923 Y0.7261
G01 X24.4861 Y0.7438
G01 X24.4827 Y0.7524
G01 X24.4747 Y0.7693
G01 X24.4702 Y0.7775
G01 X24.4605 Y0.7935
G01 X24.4494 Y0.8086
G01 X24.4436 Y0.8159
G01 X24.4311 Y0.8297
G01 X24.4244 Y0.8362
G01 X24.4104 Y0.8487
G01 X24.3930 Y0.8618
G01 X24.3852 Y0.8669
G01 X24.3690 Y0.8763
G01 X24.3502 Y0.8854
G01 X24.2546 Y0.9365
G01 X24.1776 Y0.9997
G01 X24.1676 Y1.0118
G01 X24.1529 Y1.0278
G01 X22.9953 Y2.1855
G01 X22.9768 Y2.2022
G01 X22.9594 Y2.2153
G01 X22.9515 Y2.2204
G01 X22.9327 Y2.2313
G01 X22.9129 Y2.2405
G01 X22.8954 Y2.2469
G01 X22.8865 Y2.2498
G01 X22.8653 Y2.2549
G01 X22.8468 Y2.2578
G01 X22.8375 Y2.2589
G01 X22.8189 Y2.2598
G01 X22.8095 Y2.2597
G01 X22.7909 Y2.2586
G01 X22.7724 Y2.2560
G01 X22.6082 Y2.2235
G01 X22.3755 Y2.2235
G01 X22.1474 Y2.2689
G01 X21.9324 Y2.3579
G01 X21.7389 Y2.4872
G01 X21.5744 Y2.6517
G01 X21.4452 Y2.8452
G01 X21.3561 Y3.0601
G01 X21.3107 Y3.2883
G01 X21.3107 Y3.5210
G01 X21.3561 Y3.7492
G01 X21.4021 Y3.8601
G01 X21.4085 Y3.8776
G01 X21.4113 Y3.8865
G01 X21.4159 Y3.9046
G01 X21.4176 Y3.9138
G01 X21.4202 Y3.9323
G01 X21.4214 Y3.9572
G01 X21.4206 Y3.9759
G01 X21.4198 Y3.9852
G01 X21.4165 Y4.0067
G01 X21.4105 Y4.0309
G01 X21.4043 Y4.0485
G01 X21.3995 Y4.0600
G01 X21.3899 Y4.0796
G01 X21.3786 Y4.0982
G01 X21.3676 Y4.1133
G01 X21.3597 Y4.1230
G01 X21.3448 Y4.1389
G01 X21.3286 Y4.1534
G01 X21.3111 Y4.1665
G01 X21.2926 Y4.1780
G01 X21.2816 Y4.1839
G01 X21.2647 Y4.1917
G01 X21.2471 Y4.1982
G01 X21.2382 Y4.2010
G01 X21.2201 Y4.2055
G01 X21.0024 Y4.2489
G01 X20.7874 Y4.3379
G01 X20.5939 Y4.4672
G01 X20.4294 Y4.6317
G01 X20.3002 Y4.8252
G01 X20.2111 Y5.0401
G01 X20.1657 Y5.2683
G01 X20.1657 Y5.5010
G01 X20.2111 Y5.7292
G01 X20.3002 Y5.9441
G01 X20.4294 Y6.1376
G01 X20.5939 Y6.3021
G01 X20.7874 Y6.4313
G01 X21.0024 Y6.5204
G01 X21.1033 Y6.5405
G01 X21.1245 Y6.5457
G01 X21.1334 Y6.5485
G01 X21.1510 Y6.5549
G01 X21.1679 Y6.5628
G01 X21.1762 Y6.5671
G01 X21.1948 Y6.5784
G01 X21.2149 Y6.5932
G01 X21.2333 Y6.6099
G01 X21.2500 Y6.6284
G01 X21.2649 Y6.6484
G01 X21.2777 Y6.6698
G01 X21.2883 Y6.6923
G01 X21.2948 Y6.7099
G01 X21.2984 Y6.7218
G01 X21.3034 Y6.7430
G01 X21.3064 Y6.7646
G01 X21.3077 Y6.7895
G01 X21.3077 Y8.1522
G01 X21.3163 Y8.2394
G01 X21.3381 Y8.3112
G01 X21.3734 Y8.3774
G01 X21.4211 Y8.4354
G01 X21.4791 Y8.4831
G01 X21.5453 Y8.5185
G01 X21.6172 Y8.5403
G01 X21.7044 Y8.5488
G01 X22.0915 Y8.5488
G01 X22.1164 Y8.5501
G01 X22.1380 Y8.5532
G01 X22.1471 Y8.5551
G01 X22.1652 Y8.5598
G01 X22.1828 Y8.5659
G01 X22.1915 Y8.5694
G01 X22.2084 Y8.5774
G01 X22.2166 Y8.5819
G01 X22.2325 Y8.5916
G01 X22.2526 Y8.6065
G01 X22.2710 Y8.6232
G01 X22.2877 Y8.6417
G01 X22.3026 Y8.6617
G01 X22.3154 Y8.6830
G01 X22.3260 Y8.7056
G01 X22.3344 Y8.7290
G01 X22.3391 Y8.7471
G01 X22.3411 Y8.7562
G01 X22.3441 Y8.7778
G01 X22.3454 Y8.8027
G01 X22.3441 Y8.8276
G01 X22.3416 Y8.8461
G01 X22.3398 Y8.8553
G01 X22.3344 Y8.8764
G01 X22.3283 Y8.8941
G01 X22.3248 Y8.9027
G01 X22.3139 Y8.9251
G01 X22.3043 Y8.9411
G01 X22.2990 Y8.9488
G01 X22.2877 Y8.9638
G01 X22.2710 Y8.9822
G01 X8.3650 Y22.8882
G01 X8.3489 Y22.9030
G01 X8.3369 Y22.9129
G01 X8.2736 Y22.9900
G01 X8.2266 Y23.0779
G01 X8.1977 Y23.1733
G01 X8.1879 Y23.2725
G01 X8.1894 Y23.2881
G01 X8.1903 Y23.3099
G01 X8.1903 Y28.5322
G01 X8.1891 Y28.5571
G01 X8.1860 Y28.5787
G01 X8.1811 Y28.5999
G01 X8.1775 Y28.6118
G01 X8.1710 Y28.6294
G01 X8.1604 Y28.6519
G01 X8.1493 Y28.6707
G01 X8.1440 Y28.6784
G01 X8.1327 Y28.6933
G01 X8.1182 Y28.7095
G01 X7.1644 Y29.6633
G01 X7.1170 Y29.7211
G01 X7.0700 Y29.8090
G01 X7.0411 Y29.9044
G01 X7.0313 Y30.0036
G01 X7.0411 Y30.1029
G01 X7.0700 Y30.1983
G01 X7.1170 Y30.2862
G01 X7.1803 Y30.3633
G01 X7.2573 Y30.4265
G01 X7.3453 Y30.4735
G01 X7.4407 Y30.5025
G01 X7.5399 Y30.5122
G01 X7.6391 Y30.5025
G01 X7.7345 Y30.4735
G01 X7.8224 Y30.4265
G01 X7.8802 Y30.3791
G01 X8.4668 Y29.7926
G01 X8.4855 Y29.7761
G01 X8.5005 Y29.7649
G01 X8.5083 Y29.7598
G01 X8.5244 Y29.7504
G01 X8.5412 Y29.7422
G01 X8.5498 Y29.7385
G01 X8.5674 Y29.7322
G01 X8.5764 Y29.7296
G01 X8.5976 Y29.7247
G01 X8.6192 Y29.7216
G01 X8.6379 Y29.7205
G01 X8.6472 Y29.7204
G01 X8.6690 Y29.7216
G01 X8.6905 Y29.7247
G01 X8.6997 Y29.7266
G01 X8.7178 Y29.7313
G01 X8.7354 Y29.7375
G01 X8.7441 Y29.7409
G01 X8.7638 Y29.7504
G01 X8.7825 Y29.7615
G01 X8.7902 Y29.7667
G01 X8.8051 Y29.7780
G01 X8.8214 Y29.7926
G01 X8.8279 Y29.7992
G01 X8.8403 Y29.8132
G01 X8.8534 Y29.8306
G01 X8.8585 Y29.8385
G01 X8.8680 Y29.8546
G01 X8.8774 Y29.8742
G01 X8.8809 Y29.8829
G01 X8.8879 Y29.9035
G01 X8.8936 Y29.9278
G01 X8.8964 Y29.9463
G01 X8.8972 Y29.9556
G01 X8.8979 Y29.9742
G01 X8.8979 Y30.0246
G01 X8.8972 Y30.0433
G01 X8.8964 Y30.0526
G01 X8.8931 Y30.0742
G01 X8.8870 Y30.0983
G01 X8.8786 Y30.1218
G01 X8.8708 Y30.1387
G01 X8.8649 Y30.1497
G01 X8.8534 Y30.1682
G01 X8.8403 Y30.1857
G01 X8.8258 Y30.2019
G01 X7.1644 Y31.8633
G01 X7.1170 Y31.9211
G01 X7.0700 Y32.0090
G01 X7.0411 Y32.1044
G01 X7.0313 Y32.2036
G01 X7.0411 Y32.3029
G01 X7.0700 Y32.3983
G01 X7.1170 Y32.4862
G01 X7.1803 Y32.5633
G01 X7.2573 Y32.6265
G01 X7.3453 Y32.6735
G01 X7.4407 Y32.7025
G01 X7.5399 Y32.7122
G01 X7.6391 Y32.7025
G01 X7.7345 Y32.6735
G01 X7.8224 Y32.6265
G01 X7.8802 Y32.5791
G01 X8.9149 Y31.5444
G01 X8.9309 Y31.5297
G01 X8.9382 Y31.5239
G01 X8.9533 Y31.5129
G01 X8.9747 Y31.5001
G01 X8.9972 Y31.4894
G01 X9.0148 Y31.4830
G01 X9.0237 Y31.4801
G01 X9.0449 Y31.4750
G01 X9.0695 Y31.4713
G01 X9.0882 Y31.4702
G01 X9.0975 Y31.4701
G01 X9.1193 Y31.4713
G01 X9.1439 Y31.4750
G01 X9.1621 Y31.4793
G01 X9.1710 Y31.4819
G01 X9.1915 Y31.4894
G01 X9.2141 Y31.5001
G01 X9.2302 Y31.5095
G01 X9.2380 Y31.5146
G01 X9.2554 Y31.5277
G01 X9.2717 Y31.5423
G01 X9.2782 Y31.5489
G01 X9.2906 Y31.5629
G01 X9.3055 Y31.5829
G01 X9.3168 Y31.6015
G01 X9.3211 Y31.6098
G01 X9.3289 Y31.6268
G01 X9.3364 Y31.6473
G01 X9.3390 Y31.6562
G01 X9.3434 Y31.6744
G01 X9.3463 Y31.6929
G01 X9.3473 Y31.7022
G01 X9.3482 Y31.7208
G01 X9.3482 Y31.7743
G01 X9.3470 Y31.7992
G01 X9.3434 Y31.8239
G01 X9.3382 Y31.8450
G01 X9.3312 Y31.8657
G01 X9.3264 Y31.8772
G01 X9.3183 Y31.8940
G01 X9.3055 Y31.9154
G01 X9.2906 Y31.9354
G01 X9.2761 Y31.9516
G01 X7.1644 Y34.0633
G01 X7.1170 Y34.1211
G01 X7.0700 Y34.2090
G01 X7.0411 Y34.3044
G01 X7.0313 Y34.4036
G01 X7.0411 Y34.5029
G01 X7.0700 Y34.5983
G01 X7.1170 Y34.6862
G01 X7.1803 Y34.7633
G01 X7.2573 Y34.8265
G01 X7.3453 Y34.8735
G01 X7.4407 Y34.9025
G01 X7.5399 Y34.9122
G01 X7.6391 Y34.9025
G01 X7.7345 Y34.8735
G01 X7.8224 Y34.8265
G01 X7.8802 Y34.7791
G01 X10.1859 Y32.4734
G01 X10.2020 Y32.4587
G01 X10.2140 Y32.4488
G01 X10.2773 Y32.3717
G01 X10.3243 Y32.2838
G01 X10.3532 Y32.1884
G01 X10.3630 Y32.0891
G01 X10.3615 Y32.0736
G01 X10.3605 Y32.0518
G01 X10.3605 Y27.3478
G01 X10.3617 Y27.3230
G01 X10.3654 Y27.2983
G01 X10.3714 Y27.2741
G01 X10.3787 Y27.2536
G01 X10.3824 Y27.2450
G01 X10.3905 Y27.2282
G01 X10.4033 Y27.2068
G01 X10.4181 Y27.1868
G01 X10.4349 Y27.1683
G01 X13.2419 Y24.3613
G01 X13.2604 Y24.3446
G01 X13.2804 Y24.3297
G01 X13.3018 Y24.3169
G01 X13.3186 Y24.3088
G01 X13.3272 Y24.3051
G01 X13.3507 Y24.2970
G01 X13.3689 Y24.2925
G01 X13.3780 Y24.2907
G01 X13.3965 Y24.2882
G01 X13.4152 Y24.2871
G01 X13.4245 Y24.2870
G01 X13.4401 Y24.2877
G01 X13.4494 Y24.2885
G01 X13.4679 Y24.2912
G01 X13.4921 Y24.2970
G01 X13.5010 Y24.2998
G01 X13.5186 Y24.3063
G01 X13.5411 Y24.3169
G01 X13.5625 Y24.3297
G01 X13.5825 Y24.3446
G01 X13.6009 Y24.3613
G01 X13.6136 Y24.3750
G01 X13.6196 Y24.3822
G01 X13.6342 Y24.4024
G01 X13.6438 Y24.4184
G01 X13.6481 Y24.4267
G01 X13.6571 Y24.4465
G01 X13.6652 Y24.4701
G01 X13.6710 Y24.4943
G01 X13.6737 Y24.5128
G01 X13.6745 Y24.5221
G01 X13.6753 Y24.5408
G01 X13.6753 Y24.8779
G01 X13.8086 Y25.5483
G01 X14.0702 Y26.1797
G01 X14.4499 Y26.7480
G01 X14.9332 Y27.2313
G01 X15.5015 Y27.6110
G01 X16.1329 Y27.8726
G01 X16.8033 Y28.0059
G01 X17.4867 Y28.0059
G01 X18.1571 Y27.8726
G01 X18.4007 Y27.7716
G01 X20.3804 Y25.7919
G01 X20.4814 Y25.5483
G01 X20.6147 Y24.8779
G01 X20.6147 Y24.1945
G01 X20.4814 Y23.5241
G01 X20.2198 Y22.8927
G01 X19.8401 Y22.3244
G01 X19.3568 Y21.8411
G01 X18.7885 Y21.4614
G01 X18.1571 Y21.1998
G01 X17.4867 Y21.0665
G01 X17.1496 Y21.0665
G01 X17.1278 Y21.0655
G01 X17.1185 Y21.0645
G01 X17.1001 Y21.0616
G01 X17.0759 Y21.0556
G01 X17.0524 Y21.0472
G01 X17.0355 Y21.0393
G01 X17.0272 Y21.0350
G01 X17.0086 Y21.0237
G01 X16.9885 Y21.0089
G01 X16.9701 Y20.9921
G01 X16.9534 Y20.9737
G01 X16.9385 Y20.9537
G01 X16.9257 Y20.9323
G01 X16.9151 Y20.9098
G01 X16.9067 Y20.8863
G01 X16.9006 Y20.8622
G01 X16.8970 Y20.8375
G01 X16.8957 Y20.8126
G01 X16.8970 Y20.7877
G01 X16.9006 Y20.7631
G01 X16.9067 Y20.7389
G01 X16.9151 Y20.7155
G01 X16.9229 Y20.6985
G01 X16.9272 Y20.6902
G01 X16.9385 Y20.6716
G01 X16.9495 Y20.6565
G01 X16.9554 Y20.6492
G01 X16.9701 Y20.6331
G01 X21.7589 Y15.8445
G01 X21.7728 Y15.8321
G01 X21.7878 Y15.8208
G01 X21.7955 Y15.8156
G01 X21.8142 Y15.8045
G01 X21.8339 Y15.7950
G01 X21.8425 Y15.7916
G01 X21.8602 Y15.7854
G01 X21.8844 Y15.7794
G01 X21.9090 Y15.7757
G01 X21.9339 Y15.7745
G01 X22.1896 Y15.7745
G01 X22.2113 Y15.7754
G01 X22.2269 Y15.7769
G01 X22.3261 Y15.7672
G01 X22.4215 Y15.7382
G01 X22.5094 Y15.6912
G01 X22.5865 Y15.6280
G01 X22.5964 Y15.6159
G01 X22.6112 Y15.5998
G01 X24.3814 Y13.8296
G01 X24.3975 Y13.8149
G01 X24.4095 Y13.8050
G01 X24.4728 Y13.7279
G01 X24.5198 Y13.6400
G01 X24.5487 Y13.5446
G01 X24.5585 Y13.4453
G01 X24.5570 Y13.4298
G01 X24.5560 Y13.4080
G01 X24.5560 Y12.7829
G01 X24.5570 Y12.7612
G01 X24.5598 Y12.7395
G01 X24.5623 Y12.7273
G01 X24.5669 Y12.7092
G01 X24.5753 Y12.6858
G01 X24.5860 Y12.6633
G01 X24.5955 Y12.6472
G01 X24.6006 Y12.6393
G01 X24.6136 Y12.6219
G01 X24.6304 Y12.6034
G01 X28.4224 Y8.8114
G01 X28.4361 Y8.7988
G01 X28.4433 Y8.7928
G01 X28.4583 Y8.7816
G01 X28.4661 Y8.7765
G01 X28.4795 Y8.7686
G01 X28.4878 Y8.7643
G01 X28.5047 Y8.7564
G01 X28.5223 Y8.7500
G01 X28.5312 Y8.7471
G01 X28.5493 Y8.7426
G01 X28.5585 Y8.7409
G01 X28.5770 Y8.7383
G01 X28.5957 Y8.7372
G01 X28.6050 Y8.7371
G01 X28.6237 Y8.7380
G01 X28.6329 Y8.7391
G01 X28.6514 Y8.7420
G01 X28.6696 Y8.7463
G01 X28.6785 Y8.7489
G01 X28.6990 Y8.7564
G01 X28.7188 Y8.7656
G01 X28.7270 Y8.7701
G01 X28.7429 Y8.7799
G01 X28.7580 Y8.7909
G01 X28.7653 Y8.7967
G01 X28.7792 Y8.8093
G01 X28.7857 Y8.8159
G01 X28.7981 Y8.8299
G01 X28.8094 Y8.8448
G01 X28.8147 Y8.8525
G01 X28.8243 Y8.8685
G01 X28.8286 Y8.8768
G01 X28.8364 Y8.8938
G01 X28.8429 Y8.9113
G01 X28.8457 Y8.9202
G01 X28.8509 Y8.9414
G01 X28.8545 Y8.9661
G01 X28.8557 Y8.9909
G01 X28.8557 Y10.6568
G01 X28.8548 Y10.6786
G01 X28.8538 Y10.6879
G01 X28.8509 Y10.7064
G01 X28.8448 Y10.7305
G01 X28.8387 Y10.7482
G01 X28.8352 Y10.7568
G01 X28.8272 Y10.7737
G01 X28.8227 Y10.7819
G01 X28.8130 Y10.7979
G01 X28.8019 Y10.8130
G01 X28.7961 Y10.8203
G01 X28.7836 Y10.8341
G01 X26.9744 Y12.6433
G01 X26.9270 Y12.7011
G01 X26.8800 Y12.7890
G01 X26.8511 Y12.8844
G01 X26.8413 Y12.9836
G01 X26.8511 Y13.0829
G01 X26.8800 Y13.1783
G01 X26.9270 Y13.2662
G01 X26.9903 Y13.3433
G01 X27.0673 Y13.4065
G01 X27.1553 Y13.4535
G01 X27.2507 Y13.4825
G01 X27.3499 Y13.4922
G01 X27.4491 Y13.4825
G01 X27.5445 Y13.4535
G01 X27.6324 Y13.4065
G01 X27.6902 Y13.3591
G01 X28.3954 Y12.6539
G01 X28.4115 Y12.6392
G01 X28.4188 Y12.6333
G01 X28.4339 Y12.6223
G01 X28.4552 Y12.6095
G01 X28.4778 Y12.5989
G01 X28.5012 Y12.5905
G01 X28.5254 Y12.5844
G01 X28.5500 Y12.5808
G01 X28.5749 Y12.5795
G01 X28.5998 Y12.5808
G01 X28.6214 Y12.5839
G01 X28.6305 Y12.5858
G01 X28.6486 Y12.5905
G01 X28.6692 Y12.5977
G01 X28.6777 Y12.6014
G01 X28.6946 Y12.6095
G01 X28.7133 Y12.6206
G01 X28.7210 Y12.6259
G01 X28.7360 Y12.6372
G01 X28.7499 Y12.6496
G01 X28.7566 Y12.6561
G01 X28.7711 Y12.6724
G01 X28.7842 Y12.6898
G01 X28.7893 Y12.6976
G01 X28.7988 Y12.7137
G01 X28.8069 Y12.7306
G01 X28.8106 Y12.7391
G01 X28.8159 Y12.7538
G01 X28.8195 Y12.7657
G01 X28.8245 Y12.7869
G01 X28.8272 Y12.8054
G01 X28.8280 Y12.8147
G01 X28.8288 Y12.8334
G01 X28.8278 Y12.8552
G01 X28.8152 Y12.9836
G01 X28.8293 Y13.1270
G01 X28.8711 Y13.2648
G01 X28.9390 Y13.3918
G01 X29.0304 Y13.5031
G01 X29.1417 Y13.5945
G01 X29.2687 Y13.6624
G01 X29.4066 Y13.7042
G01 X29.5499 Y13.7183
G01 X29.6932 Y13.7042
G01 X29.8310 Y13.6624
G01 X29.9580 Y13.5945
G01 X30.0415 Y13.5260
G01 X32.1347 Y11.4328
G01 X32.1507 Y11.4181
G01 X32.1714 Y11.4011
G01 X32.2627 Y11.2898
G01 X32.3306 Y11.1628
G01 X32.3724 Y11.0250
G01 X32.3866 Y10.8816
G01 X32.3840 Y10.8550
G01 X32.3830 Y10.8333
G01 X32.3832 Y8.4028
G01 X32.3842 Y8.3842
G01 X32.3868 Y8.3656
G01 X32.3885 Y8.3565
G01 X32.3939 Y8.3353
G01 X32.4012 Y8.3148
G01 X32.4049 Y8.3062
G01 X32.4130 Y8.2894
G01 X32.4225 Y8.2733
G01 X32.4276 Y8.2654
G01 X32.4387 Y8.2504
G01 X32.4552 Y8.2318
G01 X32.5391 Y8.1478
G01 X32.5391 Y7.6325
G01 X32.5081 Y7.7193
G01 X32.4692 Y7.8015
G01 X32.4225 Y7.8795
G01 X32.3703 Y7.9502
G01 X32.3642 Y7.9573
G01 X32.3072 Y8.0200
G01 X32.2422 Y8.0791
G01 X32.2349 Y8.0849
G01 X32.1693 Y8.1335
G01 X32.1615 Y8.1386
G01 X32.1289 Y8.1582
G01 X32.1288 Y10.8848
G01 X32.1266 Y10.9284
G01 X32.1208 Y10.9686
G01 X32.1183 Y10.9808
G01 X32.1083 Y11.0201
G01 X32.0948 Y11.0584
G01 X32.0900 Y11.0699
G01 X32.0725 Y11.1065
G01 X32.0518 Y11.1414
G01 X32.0449 Y11.1517
G01 X32.0206 Y11.1842
G01 X31.9892 Y11.2189
G01 X29.8872 Y13.3209
G01 X29.8525 Y13.3523
G01 X29.8200 Y13.3766
G01 X29.8096 Y13.3836
G01 X29.7747 Y13.4043
G01 X29.7324 Y13.4243
G01 X29.6883 Y13.4401
G01 X29.6429 Y13.4515
G01 X29.5966 Y13.4583
G01 X29.5499 Y13.4606
G01 X29.5031 Y13.4583
G01 X29.4568 Y13.4515
G01 X29.4114 Y13.4401
G01 X29.3673 Y13.4243
G01 X29.3250 Y13.4043
G01 X29.2849 Y13.3802
G01 X29.2473 Y13.3523
G01 X29.2126 Y13.3209
G01 X29.1812 Y13.2862
G01 X29.1569 Y13.2537
G01 X29.1500 Y13.2434
G01 X29.1292 Y13.2085
G01 X29.1104 Y13.1690
G01 X29.1070 Y13.1604
G01 X29.0954 Y13.1280
G01 X29.0918 Y13.1161
G01 X29.0821 Y13.0767
G01 X29.0752 Y13.0304
G01 X29.0729 Y12.9836
G01 X29.0747 Y12.9431
G01 X29.0760 Y12.9307
G01 X29.0815 Y12.8936
G01 X29.0834 Y12.8845
G01 X29.0934 Y12.8452
G01 X29.1092 Y12.8011
G01 X29.1264 Y12.7644
G01 X29.1323 Y12.7534
G01 X29.1533 Y12.7186
G01 X29.1792 Y12.6835
G01 X29.1852 Y12.6763
G01 X29.2126 Y12.6464
G01 X31.1749 Y10.6841
G01 X31.1749 Y8.1582
G01 X31.1422 Y8.1386
G01 X31.1344 Y8.1335
G01 X31.0688 Y8.0849
G01 X31.0615 Y8.0791
G01 X30.9965 Y8.0200
G01 X30.9395 Y7.9573
G01 X30.9335 Y7.9502
G01 X30.8813 Y7.8795
G01 X30.8345 Y7.8015
G01 X30.7956 Y7.7193
G01 X30.7659 Y7.6366
G01 X30.7633 Y7.6277
G01 X30.7429 Y7.5454
G01 X30.7295 Y7.4555
G01 X30.7251 Y7.3646
G01 X30.7291 Y7.2800
G01 X30.7303 Y7.2676
G01 X30.7418 Y7.1900
G01 X30.7443 Y7.1778
G01 X30.7650 Y7.0956
G01 X30.7934 Y7.0158
G01 X30.7969 Y7.0071
G01 X30.8345 Y6.9277
G01 X30.8813 Y6.8497
G01 X30.9355 Y6.7767
G01 X30.9965 Y6.7093
G01 X31.0639 Y6.6482
G01 X31.1370 Y6.5940
G01 X31.2150 Y6.5473
G01 X31.2915 Y6.5109
G01 X31.3030 Y6.5061
G01 X31.3828 Y6.4777
G01 X31.4711 Y6.4556
G01 X31.5610 Y6.4423
G01 X31.6457 Y6.4380
G01 X31.6581 Y6.4380
G01 X31.7427 Y6.4423
G01 X31.8266 Y6.4546
G01 X31.8388 Y6.4570
G01 X31.9149 Y6.4761
G01 X31.9268 Y6.4797
G01 X32.0066 Y6.5084
G01 X32.0828 Y6.5443
G01 X31.6743 Y6.1358
G01 X31.6605 Y6.1239
G01 X31.6539 Y6.1176
G01 X31.6415 Y6.1044
G01 X31.6351 Y6.0966
G01 X31.4001 Y5.8616
G01 X31.3004 Y5.8616
G01 X31.2808 Y5.8943
G01 X31.2757 Y5.9021
G01 X31.2253 Y5.9702
G01 X31.2192 Y5.9773
G01 X31.1644 Y6.0378
G01 X31.1577 Y6.0443
G01 X31.0948 Y6.1011
G01 X31.0269 Y6.1517
G01 X31.0165 Y6.1586
G01 X30.9438 Y6.2020
G01 X30.8616 Y6.2409
G01 X30.7759 Y6.2715
G01 X30.6877 Y6.2936
G01 X30.5977 Y6.3070
G01 X30.5069 Y6.3114
G01 X30.4160 Y6.3070
G01 X30.3261 Y6.2936
G01 X30.2378 Y6.2715
G01 X30.1522 Y6.2409
G01 X30.0700 Y6.2020
G01 X29.9946 Y6.1569
G01 X29.9869 Y6.1517
G01 X29.9189 Y6.1011
G01 X29.8560 Y6.0443
G01 X29.8472 Y6.0355
G01 X29.7945 Y5.9773
G01 X29.7866 Y5.9677
G01 X29.7363 Y5.8995
G01 X29.6895 Y5.8215
G01 X29.6506 Y5.7393
G01 X29.6200 Y5.6537
G01 X29.5979 Y5.5654
G01 X29.5845 Y5.4755
G01 X29.5801 Y5.3846
G01 X29.5841 Y5.3000
G01 X29.5853 Y5.2876
G01 X29.5968 Y5.2100
G01 X29.5993 Y5.1978
G01 X29.6200 Y5.1156
G01 X29.6506 Y5.0300
G01 X29.6895 Y4.9477
G01 X29.7329 Y4.8750
G01 X29.7399 Y4.8646
G01 X29.7905 Y4.7967
G01 X29.8472 Y4.7338
G01 X29.8560 Y4.7250
G01 X29.9189 Y4.6682
G01 X29.9869 Y4.6176
G01 X29.9972 Y4.6107
G01 X30.0700 Y4.5673
G01 X30.1465 Y4.5309
G01 X30.1580 Y4.5261
G01 X30.2378 Y4.4977
G01 X30.3200 Y4.4770
G01 X30.3322 Y4.4746
G01 X30.4099 Y4.4631
G01 X30.4191 Y4.4620
G01 X30.5069 Y4.4578
G01 X30.5915 Y4.4618
G01 X30.6039 Y4.4631
G01 X30.6877 Y4.4756
G01 X30.7699 Y4.4961
G01 X30.7818 Y4.4997
G01 X30.8616 Y4.5284
G01 X30.9410 Y4.5658
G01 X30.9492 Y4.5703
G01 X31.0165 Y4.6107
G01 X31.0269 Y4.6176
G01 X31.0948 Y4.6682
G01 X31.1600 Y4.7271
G01 X31.1665 Y4.7338
G01 X31.2192 Y4.7920
G01 X31.2253 Y4.7991
G01 X31.2757 Y4.8672
G01 X31.2808 Y4.8750
G01 X31.3004 Y4.9077
G01 X31.5911 Y4.9077
G01 X31.5867 Y4.8926
G01 X31.5823 Y4.8706
G01 X31.5811 Y4.8611
G01 X31.5794 Y4.8387
G01 X31.5797 Y4.8163
G01 X31.5817 Y4.7971
G01 X31.5838 Y4.7845
G01 X31.5889 Y4.7626
G01 X31.5959 Y4.7413
G01 X31.6035 Y4.7237
G01 X31.6077 Y4.7150
G01 X31.6189 Y4.6956
G01 X31.6337 Y4.6746
G01 X31.6462 Y4.6600
G01 X31.6551 Y4.6508
G01 X31.6718 Y4.6358
G01 X31.6897 Y4.6223
G01 X31.7115 Y4.6089
G01 X31.7346 Y4.5977
G01 X31.7557 Y4.5900
G01 X31.7649 Y4.5873
G01 X31.7836 Y4.5827
G01 X31.9964 Y4.5404
G01 X32.2114 Y4.4513
G01 X32.4048 Y4.3221
G01 X32.5693 Y4.1576
G01 X32.7041 Y3.9559
G01 X32.7172 Y3.9385
G01 X32.7296 Y3.9245
G01 X32.7362 Y3.9178
G01 X32.7524 Y3.9033
G01 X32.7724 Y3.8884
G01 X32.7938 Y3.8756
G01 X32.8163 Y3.8650
G01 X32.8398 Y3.8566
G01 X32.8639 Y3.8505
G01 X32.8886 Y3.8469
G01 X32.9134 Y3.8456
G01 X32.9352 Y3.8466
G01 X32.9599 Y3.8500
G01 X32.9811 Y3.8549
G01 X32.9930 Y3.8585
G01 X33.0077 Y3.8638
G01 X33.0163 Y3.8675
G01 X33.0331 Y3.8756
G01 X33.0545 Y3.8884
G01 X33.0745 Y3.9033
G01 X33.0907 Y3.9178
G01 X34.8243 Y5.6513
G01 X34.8370 Y5.6651
G01 X34.8430 Y5.6722
G01 X34.8559 Y5.6898
G01 X34.8656 Y5.7058
G01 X34.8701 Y5.7139
G01 X34.8793 Y5.7337
G01 X34.8868 Y5.7542
G01 X34.8894 Y5.7631
G01 X34.8938 Y5.7813
G01 X34.8974 Y5.8060
G01 X34.8986 Y5.8308
G01 X34.8986 Y6.1155
G01 X34.8977 Y6.1373
G01 X34.8962 Y6.1528
G01 X34.9060 Y6.2521
G01 X34.9349 Y6.3475
G01 X34.9819 Y6.4354
G01 X35.0452 Y6.5125
G01 X35.0572 Y6.5224
G01 X35.0733 Y6.5371
G01 X38.0210 Y9.4848
G01 X38.0337 Y9.4986
G01 X38.0397 Y9.5057
G01 X38.0508 Y9.5207
G01 X38.0559 Y9.5286
G01 X38.0654 Y9.5447
G01 X38.0735 Y9.5615
G01 X38.0772 Y9.5701
G01 X38.0844 Y9.5907
G01 X38.0905 Y9.6148
G01 X38.0934 Y9.6333
G01 X38.0944 Y9.6426
G01 X38.0953 Y9.6643
G01 X38.0953 Y25.8079
G01 X38.0944 Y25.8297
G01 X38.0929 Y25.8452
G01 X38.1027 Y25.9445
G01 X38.1316 Y26.0399
G01 X38.1786 Y26.1278
G01 X38.2419 Y26.2049
G01 X38.2539 Y26.2148
G01 X38.2700 Y26.2295
G01 X42.4196 Y30.3791
G01 X42.4773 Y30.4265
G01 X42.5653 Y30.4735
G01 X42.6607 Y30.5025
G01 X42.7599 Y30.5122
G01 X42.8591 Y30.5025
G01 X42.9545 Y30.4735
G01 X42.9883 Y30.4555
G01 X43.0080 Y30.4463
G01 X43.0315 Y30.4379
G01 X43.0557 Y30.4318
G01 X43.0803 Y30.4282
G01 X43.1052 Y30.4270
G01 X43.1301 Y30.4282
G01 X43.1486 Y30.4308
G01 X43.1578 Y30.4325
G01 X43.1759 Y30.4370
G01 X43.1848 Y30.4398
G01 X43.2023 Y30.4463
G01 X43.2193 Y30.4541
G01 X43.2276 Y30.4584
G01 X43.2436 Y30.4680
G01 X43.2513 Y30.4733
G01 X43.2662 Y30.4846
G01 X43.2802 Y30.4970
G01 X43.2869 Y30.5035
G01 X43.2994 Y30.5174
G01 X43.3052 Y30.5247
G01 X43.3163 Y30.5398
G01 X43.3260 Y30.5557
G01 X43.3305 Y30.5639
G01 X43.3397 Y30.5837
G01 X43.3481 Y30.6071
G01 X43.3528 Y30.6252
G01 X43.3552 Y30.6374
G01 X43.3581 Y30.6590
G01 X43.3590 Y30.6808
G01 X43.3590 Y30.7835
G01 X43.3581 Y30.8053
G01 X43.3571 Y30.8146
G01 X43.3542 Y30.8331
G01 X43.3490 Y30.8542
G01 X43.3462 Y30.8631
G01 X43.3397 Y30.8807
G01 X43.3319 Y30.8976
G01 X43.3276 Y30.9059
G01 X43.3163 Y30.9246
G01 X43.3014 Y30.9446
G01 X43.2847 Y30.9630
G01 X42.3844 Y31.8633
G01 X42.3370 Y31.9211
G01 X42.2900 Y32.0090
G01 X42.2611 Y32.1044
G01 X42.2513 Y32.2036
G01 X42.2611 Y32.3029
G01 X42.2900 Y32.3983
G01 X42.3370 Y32.4862
G01 X42.4003 Y32.5633
G01 X42.4773 Y32.6265
G01 X42.5653 Y32.6735
G01 X42.6607 Y32.7025
G01 X42.7599 Y32.7122
G01 X42.8591 Y32.7025
G01 X42.9545 Y32.6735
G01 X43.0424 Y32.6265
G01 X43.1002 Y32.5791
G01 X43.3761 Y32.3032
G01 X43.3921 Y32.2885
G01 X43.3994 Y32.2827
G01 X43.4145 Y32.2717
G01 X43.4332 Y32.2604
G01 X43.4415 Y32.2561
G01 X43.4584 Y32.2482
G01 X43.4760 Y32.2418
G01 X43.4849 Y32.2389
G01 X43.5030 Y32.2344
G01 X43.5122 Y32.2327
G01 X43.5307 Y32.2301
G01 X43.5556 Y32.2289
G01 X43.5805 Y32.2301
G01 X43.6051 Y32.2338
G01 X43.6293 Y32.2398
G01 X43.6469 Y32.2460
G01 X43.6556 Y32.2494
G01 X43.6780 Y32.2604
G01 X43.6940 Y32.2700
G01 X43.7017 Y32.2752
G01 X43.7190 Y32.2885
G01 X43.7329 Y32.3011
G01 X43.7394 Y32.3077
G01 X43.7518 Y32.3217
G01 X43.7631 Y32.3366
G01 X43.7684 Y32.3443
G01 X43.7764 Y32.3577
G01 X43.7809 Y32.3658
G01 X43.7889 Y32.3827
G01 X43.7976 Y32.4061
G01 X43.8002 Y32.4150
G01 X43.8046 Y32.4332
G01 X43.8082 Y32.4579
G01 X43.8094 Y32.4827
G01 X43.8094 Y34.7331
G01 X43.8082 Y34.7580
G01 X43.8046 Y34.7827
G01 X43.7985 Y34.8068
G01 X43.7913 Y34.8274
G01 X43.7876 Y34.8360
G01 X43.7795 Y34.8528
G01 X43.7667 Y34.8742
G01 X43.7518 Y34.8942
G01 X43.7351 Y34.9126
G01 X42.3844 Y36.2633
G01 X42.3370 Y36.3211
G01 X42.2900 Y36.4090
G01 X42.2611 Y36.5044
G01 X42.2513 Y36.6036
G01 X42.2611 Y36.7029
G01 X42.2900 Y36.7983
G01 X42.3370 Y36.8862
G01 X42.4003 Y36.9633
G01 X42.4773 Y37.0265
G01 X42.5653 Y37.0735
G01 X42.6607 Y37.1025
G01 X42.7599 Y37.1122
G01 X42.8591 Y37.1025
G01 X42.9545 Y37.0735
G01 X43.0424 Y37.0265
G01 X43.1002 Y36.9791
G01 X44.6471 Y35.4322
G01 X44.6632 Y35.4175
G01 X44.6752 Y35.4076
G01 X44.7385 Y35.3305
G01 X44.7855 Y35.2426
G01 X44.8144 Y35.1472
G01 X44.8242 Y35.0479
G01 X44.8227 Y35.0324
G01 X44.8217 Y35.0106
G01 X44.8217 Y13.7147
G01 X44.8227 Y13.6929
G01 X44.8242 Y13.6773
G01 X44.8144 Y13.5781
G01 X44.7855 Y13.4827
G01 X44.7385 Y13.3948
G01 X44.6752 Y13.3177
G01 X44.6632 Y13.3078
G01 X44.6471 Y13.2930
G01 X39.4672 Y8.1132
G01 X39.4505 Y8.0947
G01 X39.4356 Y8.0747
G01 X39.4228 Y8.0533
G01 X39.4147 Y8.0365
G01 X39.4110 Y8.0279
G01 X39.4038 Y8.0074
G01 X39.3977 Y7.9832
G01 X39.3941 Y7.9585
G01 X39.3930 Y7.9399
G01 X39.3930 Y7.9274
G01 X39.3938 Y7.9119
G01 X39.3948 Y7.9026
G01 X39.3984 Y7.8811
G01 X39.4047 Y7.8570
G01 X39.4122 Y7.8365
G01 X39.4228 Y7.8140
G01 X39.4356 Y7.7926
G01 X39.4485 Y7.7750
G01 X39.4650 Y7.7564
G01 X39.4809 Y7.7415
G01 X39.4906 Y7.7336
G01 X39.5031 Y7.7243
G01 X39.5109 Y7.7193
G01 X39.5270 Y7.7098
G01 X39.5496 Y7.6991
G01 X39.5730 Y7.6907
G01 X39.5941 Y7.6853
