(G-CODE GENERATED BY FLATCAM v8.994 - www.flatcam.org - Version Date: 2020/11/7)

(Name: fixed_head_pcb-F_Cu.gbr_iso_combined_cnc)
(Type: G-code from Geometry)
(Units: MM)

(Created on dimanche, 20 février 2022 at 15:14)

(This preprocessor is the default preprocessor used by FlatCAM.)
(It is made to work with MACH3 compatible motion controllers.)

(TOOL DIAMETER: 0.2536 mm)
(Feedrate_XY: 100.0 mm/min)
(Feedrate_Z: 60.0 mm/min)
(Feedrate rapids 1500.0 mm/min)

(Z_Cut: -0.1 mm)
(Z_Move: 5.0 mm)
(Z Start: None mm)
(Z End: 5.0 mm)
(X,Y End: None mm)
(Steps per circle: 64)
(Preprocessor Geometry: default)

(X range:   -0.0197 ...   50.3066  mm)
(Y range:   -0.0656 ...   47.1519  mm)

(Spindle Speed: 1000.0 RPM)
G21
G90
G94

G01 F100.00

M5
G00 Z15.0000
G00 X0.0000 Y0.0000
T1
M6    
(MSG, Change to Tool Dia = 0.2536)
M0
G00 Z15.0000

M03 S1000.0
G01 F100.00
G00 X14.4499 Y20.3383
G01 F60.00
G01 Z-0.1000
G01 F100.00
G01 X14.9332 Y19.8550
G01 X15.5015 Y19.4753
G01 X16.1329 Y19.2138
G01 X16.8033 Y19.0804
G01 X17.4867 Y19.0804
G01 X18.1571 Y19.2138
G01 X18.7885 Y19.4753
G01 X19.3568 Y19.8550
G01 X19.8401 Y20.3383
G01 X20.2198 Y20.9066
G01 X20.4814 Y21.5380
G01 X20.6147 Y22.2084
G01 X20.6147 Y22.8919
G01 X20.4814 Y23.5622
G01 X20.2198 Y24.1936
G01 X19.8401 Y24.7619
G01 X19.3568 Y25.2452
G01 X18.7885 Y25.6249
G01 X18.1571 Y25.8865
G01 X17.4867 Y26.0198
G01 X16.8033 Y26.0198
G01 X16.1329 Y25.8865
G01 X15.5015 Y25.6249
G01 X14.9332 Y25.2452
G01 X14.4499 Y24.7619
G01 X14.0702 Y24.1936
G01 X13.8086 Y23.5622
G01 X13.6753 Y22.8919
G01 X13.6753 Y22.2084
G01 X13.8086 Y21.5380
G01 X14.0702 Y20.9066
G01 X14.4499 Y20.3383
G00 Z5.0000
G00 X14.6272 Y20.4838
G01 F60.00
G01 Z-0.1000
G01 F100.00
G01 X15.0787 Y20.0323
G01 X15.6096 Y19.6776
G01 X16.1995 Y19.4332
G01 X16.8257 Y19.3087
G01 X17.4643 Y19.3087
G01 X18.0905 Y19.4332
G01 X18.6804 Y19.6776
G01 X19.2113 Y20.0323
G01 X19.6628 Y20.4838
G01 X20.0176 Y21.0147
G01 X20.2619 Y21.6046
G01 X20.3865 Y22.2309
G01 X20.3865 Y22.8694
G01 X20.2619 Y23.4956
G01 X20.0176 Y24.0855
G01 X19.6628 Y24.6164
G01 X19.2113 Y25.0679
G01 X18.6804 Y25.4227
G01 X18.0905 Y25.6670
G01 X17.4643 Y25.7916
G01 X16.8257 Y25.7916
G01 X16.1995 Y25.6670
G01 X15.6096 Y25.4227
G01 X15.0787 Y25.0679
G01 X14.6272 Y24.6164
G01 X14.2724 Y24.0855
G01 X14.0281 Y23.4956
G01 X13.9035 Y22.8694
G01 X13.9035 Y22.2309
G01 X14.0281 Y21.6046
G01 X14.2724 Y21.0147
G01 X14.6272 Y20.4838
G00 Z5.0000
G00 X14.8045 Y20.6293
G01 F60.00
G01 Z-0.1000
G01 F100.00
G01 X15.2242 Y20.2096
G01 X15.7177 Y19.8798
G01 X16.2661 Y19.6527
G01 X16.8482 Y19.5369
G01 X17.4418 Y19.5369
G01 X18.0239 Y19.6527
G01 X18.5723 Y19.8798
G01 X19.0658 Y20.2096
G01 X19.4855 Y20.6293
G01 X19.8153 Y21.1228
G01 X20.0424 Y21.6712
G01 X20.1582 Y22.2533
G01 X20.1582 Y22.8469
G01 X20.0424 Y23.4290
G01 X19.8153 Y23.9774
G01 X19.4855 Y24.4709
G01 X19.0658 Y24.8906
G01 X18.5723 Y25.2204
G01 X18.0239 Y25.4476
G01 X17.4418 Y25.5633
G01 X16.8482 Y25.5633
G01 X16.2661 Y25.4476
G01 X15.7177 Y25.2204
G01 X15.2242 Y24.8906
G01 X14.8045 Y24.4709
G01 X14.4747 Y23.9774
G01 X14.2476 Y23.4290
G01 X14.1318 Y22.8469
G01 X14.1318 Y22.2533
G01 X14.2476 Y21.6712
G01 X14.4747 Y21.1228
G01 X14.8045 Y20.6293
G00 Z5.0000
G00 X7.2890 Y27.9163
G01 F60.00
G01 Z-0.1000
G01 F100.00
G01 X7.2880 Y27.8947
G01 X7.2881 Y19.2796
G01 X7.2896 Y19.2549
G01 X7.2935 Y19.2305
G01 X7.2998 Y19.2066
G01 X7.3084 Y19.1834
G01 X7.3193 Y19.1612
G01 X7.3322 Y19.1402
G01 X7.3472 Y19.1205
G01 X7.3640 Y19.1024
G01 X7.3825 Y19.0860
G01 X7.4026 Y19.0716
G01 X7.4239 Y19.0591
G01 X7.4464 Y19.0488
G01 X7.4698 Y19.0408
G01 X7.4938 Y19.0351
G01 X7.5183 Y19.0318
G01 X7.5430 Y19.0309
G01 X7.5646 Y19.0320
G01 X7.5890 Y19.0357
G01 X7.6130 Y19.0417
G01 X7.6363 Y19.0500
G01 X7.6586 Y19.0606
G01 X7.6798 Y19.0733
G01 X7.6997 Y19.0880
G01 X7.7180 Y19.1046
G01 X7.7346 Y19.1229
G01 X7.7493 Y19.1428
G01 X7.7620 Y19.1640
G01 X7.7726 Y19.1863
G01 X7.7809 Y19.2096
G01 X7.7869 Y19.2335
G01 X7.7905 Y19.2580
G01 X7.7917 Y19.2796
G01 X7.7917 Y27.7904
G01 X20.8947 Y40.8933
G01 X20.9073 Y40.8858
G01 X20.9155 Y40.8815
G01 X20.9865 Y40.8480
G01 X20.9980 Y40.8432
G01 X21.0778 Y40.8148
G01 X21.1661 Y40.7927
G01 X21.2560 Y40.7793
G01 X21.3407 Y40.7750
G01 X21.3531 Y40.7750
G01 X21.4315 Y40.7789
G01 X21.4439 Y40.7801
G01 X21.5277 Y40.7927
G01 X21.6159 Y40.8148
G01 X21.7016 Y40.8454
G01 X21.7782 Y40.8815
G01 X21.7892 Y40.8874
G01 X21.8565 Y40.9277
G01 X21.8669 Y40.9347
G01 X21.9348 Y40.9853
G01 X21.9977 Y41.0420
G01 X22.0044 Y41.0486
G01 X22.0633 Y41.1137
G01 X22.1175 Y41.1868
G01 X22.1642 Y41.2648
G01 X22.2031 Y41.3470
G01 X22.2338 Y41.4326
G01 X22.2559 Y41.5209
G01 X22.2692 Y41.6108
G01 X22.2737 Y41.7017
G01 X22.2692 Y41.7925
G01 X22.2559 Y41.8825
G01 X22.2338 Y41.9707
G01 X22.2031 Y42.0564
G01 X22.1642 Y42.1386
G01 X22.1175 Y42.2166
G01 X22.0633 Y42.2896
G01 X22.0022 Y42.3570
G01 X21.9348 Y42.4181
G01 X21.8618 Y42.4723
G01 X21.7838 Y42.5190
G01 X21.7016 Y42.5579
G01 X21.6159 Y42.5886
G01 X21.5277 Y42.6107
G01 X21.4377 Y42.6240
G01 X21.3469 Y42.6285
G01 X21.2560 Y42.6240
G01 X21.1661 Y42.6107
G01 X21.0778 Y42.5886
G01 X20.9922 Y42.5579
G01 X20.9100 Y42.5190
G01 X20.8320 Y42.4723
G01 X20.7589 Y42.4181
G01 X20.6915 Y42.3570
G01 X20.6305 Y42.2896
G01 X20.5799 Y42.2217
G01 X20.5729 Y42.2113
G01 X20.5326 Y42.1440
G01 X20.5267 Y42.1330
G01 X20.4906 Y42.0564
G01 X20.4600 Y41.9707
G01 X20.4379 Y41.8825
G01 X20.4253 Y41.7987
G01 X20.4241 Y41.7863
G01 X20.4202 Y41.7079
G01 X20.4202 Y41.6955
G01 X20.4245 Y41.6108
G01 X20.4379 Y41.5209
G01 X20.4600 Y41.4326
G01 X20.4884 Y41.3528
G01 X20.4932 Y41.3413
G01 X20.5267 Y41.2703
G01 X20.5310 Y41.2621
G01 X20.5385 Y41.2495
G01 X7.3618 Y28.0728
G01 X7.3452 Y28.0545
G01 X7.3305 Y28.0346
G01 X7.3178 Y28.0134
G01 X7.3097 Y27.9968
G01 X7.3049 Y27.9853
G01 X7.2998 Y27.9708
G01 X7.2972 Y27.9618
G01 X7.2923 Y27.9408
G01 X7.2890 Y27.9163
G00 Z5.0000
G00 X12.4573 Y40.2538
G01 F60.00
G01 Z-0.1000
G01 F100.00
G01 X12.7890 Y39.9221
G01 X13.1790 Y39.6615
G01 X13.6123 Y39.4820
G01 X14.0724 Y39.3905
G01 X14.5414 Y39.3905
G01 X15.0014 Y39.4820
G01 X15.4348 Y39.6615
G01 X15.8248 Y39.9221
G01 X16.1564 Y40.2538
G01 X16.4170 Y40.6438
G01 X16.5965 Y41.0771
G01 X16.6880 Y41.5372
G01 X16.6880 Y42.0062
G01 X16.5965 Y42.4662
G01 X16.4170 Y42.8996
G01 X16.1564 Y43.2896
G01 X15.8248 Y43.6212
G01 X15.4348 Y43.8818
G01 X15.0014 Y44.0613
G01 X14.5414 Y44.1528
G01 X14.0724 Y44.1528
G01 X13.6123 Y44.0613
G01 X13.1790 Y43.8818
G01 X12.7890 Y43.6212
G01 X12.4573 Y43.2896
G01 X12.1967 Y42.8996
G01 X12.0172 Y42.4662
G01 X11.9257 Y42.0062
G01 X11.9257 Y41.5372
G01 X12.0172 Y41.0771
G01 X12.1967 Y40.6438
G01 X12.4573 Y40.2538
G00 Z5.0000
G00 X16.4335 Y41.7655
G01 F60.00
G01 Z-0.1000
G01 F100.00
G01 X16.4335 Y41.7779
G01 X16.4234 Y41.9801
G01 X16.3928 Y42.1866
G01 X16.3421 Y42.3891
G01 X16.2718 Y42.5856
G01 X16.1826 Y42.7742
G01 X16.0752 Y42.9533
G01 X15.9509 Y43.1209
G01 X15.8108 Y43.2756
G01 X15.6561 Y43.4157
G01 X15.4885 Y43.5400
G01 X15.3094 Y43.6474
G01 X15.1208 Y43.7366
G01 X14.9243 Y43.8069
G01 X14.7218 Y43.8576
G01 X14.5153 Y43.8882
G01 X14.3069 Y43.8985
G01 X14.0984 Y43.8882
G01 X13.8920 Y43.8576
G01 X13.6895 Y43.8069
G01 X13.4930 Y43.7366
G01 X13.3043 Y43.6474
G01 X13.1253 Y43.5400
G01 X12.9577 Y43.4157
G01 X12.8030 Y43.2756
G01 X12.6628 Y43.1209
G01 X12.5385 Y42.9533
G01 X12.4312 Y42.7742
G01 X12.3420 Y42.5856
G01 X12.2717 Y42.3891
G01 X12.2209 Y42.1866
G01 X12.1903 Y41.9801
G01 X12.1801 Y41.7717
G01 X12.1903 Y41.5632
G01 X12.2209 Y41.3568
G01 X12.2717 Y41.1543
G01 X12.3420 Y40.9578
G01 X12.4312 Y40.7691
G01 X12.5385 Y40.5901
G01 X12.6628 Y40.4225
G01 X12.8030 Y40.2678
G01 X12.9577 Y40.1276
G01 X13.1253 Y40.0033
G01 X13.3043 Y39.8960
G01 X13.4930 Y39.8068
G01 X13.6895 Y39.7365
G01 X13.8920 Y39.6857
G01 X14.0984 Y39.6551
G01 X14.3069 Y39.6449
G01 X14.5153 Y39.6551
G01 X14.7218 Y39.6857
G01 X14.9243 Y39.7365
G01 X15.1208 Y39.8068
G01 X15.3094 Y39.8960
G01 X15.4885 Y40.0033
G01 X15.6561 Y40.1276
G01 X15.8108 Y40.2678
G01 X15.9509 Y40.4225
G01 X16.0752 Y40.5901
G01 X16.1826 Y40.7691
G01 X16.2718 Y40.9578
G01 X16.3421 Y41.1543
G01 X16.3928 Y41.3568
G01 X16.4234 Y41.5632
G01 X16.4335 Y41.7655
G00 Z5.0000
G00 X21.6095 Y42.9366
G01 F60.00
G01 Z-0.1000
G01 F100.00
G01 X21.5967 Y42.9096
G01 X21.5841 Y42.8867
G01 X21.5684 Y42.8613
G01 X21.5517 Y42.8380
G01 X21.5637 Y42.8361
G01 X21.5807 Y42.8327
G01 X21.6738 Y42.8094
G01 X21.6987 Y42.8015
G01 X21.7813 Y42.7718
G01 X21.7659 Y42.7834
G01 X21.7525 Y42.7944
G01 X21.6814 Y42.8589
G01 X21.6631 Y42.8776
G01 X21.6095 Y42.9366
G00 Z5.0000
G00 X22.0659 Y42.6053
G01 F60.00
G01 Z-0.1000
G01 F100.00
G01 X22.0796 Y42.5945
G01 X22.0928 Y42.5832
G01 X22.1510 Y42.5304
G01 X22.1636 Y42.5184
G01 X22.1756 Y42.5058
G01 X22.2284 Y42.4476
G01 X22.2397 Y42.4344
G01 X22.2505 Y42.4207
G01 X22.2972 Y42.3576
G01 X22.3073 Y42.3434
G01 X22.3166 Y42.3287
G01 X22.3613 Y42.2538
G01 X22.3734 Y42.2306
G01 X22.4069 Y42.1596
G01 X22.4140 Y42.1437
G01 X22.4203 Y42.1274
G01 X22.4496 Y42.0453
G01 X22.4568 Y42.0202
G01 X22.4779 Y41.9355
G01 X22.4827 Y41.9098
G01 X22.4919 Y41.8480
G01 X22.5011 Y41.9098
G01 X22.5058 Y41.9355
G01 X22.5269 Y42.0202
G01 X22.5342 Y42.0453
G01 X22.5635 Y42.1274
G01 X22.5698 Y42.1437
G01 X22.5768 Y42.1596
G01 X22.6104 Y42.2306
G01 X22.6224 Y42.2538
G01 X22.6672 Y42.3287
G01 X22.6765 Y42.3434
G01 X22.6865 Y42.3576
G01 X22.7333 Y42.4207
G01 X22.7496 Y42.4411
G01 X22.8081 Y42.5058
G01 X22.8264 Y42.5245
G01 X22.8975 Y42.5889
G01 X22.9109 Y42.6000
G01 X22.9263 Y42.6115
G01 X22.8437 Y42.5818
G01 X22.8272 Y42.5764
G01 X22.8104 Y42.5717
G01 X22.7342 Y42.5527
G01 X22.7172 Y42.5488
G01 X22.7000 Y42.5459
G01 X22.6224 Y42.5343
G01 X22.6051 Y42.5322
G01 X22.5877 Y42.5309
G01 X22.5093 Y42.5271
G01 X22.4919 Y42.5266
G01 X22.4745 Y42.5271
G01 X22.3960 Y42.5309
G01 X22.3787 Y42.5322
G01 X22.3614 Y42.5343
G01 X22.2751 Y42.5472
G01 X22.2495 Y42.5527
G01 X22.1734 Y42.5717
G01 X22.1566 Y42.5764
G01 X22.1400 Y42.5818
G01 X22.0574 Y42.6115
G01 X22.0659 Y42.6053
G00 Z5.0000
G00 X22.4813 Y41.4849
G01 F60.00
G01 Z-0.1000
G01 F100.00
G01 X22.4759 Y41.4593
G01 X22.4568 Y41.3832
G01 X22.4522 Y41.3664
G01 X22.4467 Y41.3498
G01 X22.4203 Y41.2759
G01 X22.4140 Y41.2597
G01 X22.4069 Y41.2437
G01 X22.3734 Y41.1728
G01 X22.3655 Y41.1572
G01 X22.3569 Y41.1420
G01 X22.3166 Y41.0747
G01 X22.3073 Y41.0600
G01 X22.2972 Y41.0457
G01 X22.2505 Y40.9827
G01 X22.2397 Y40.9689
G01 X22.2284 Y40.9557
G01 X22.1756 Y40.8976
G01 X22.1636 Y40.8849
G01 X22.1551 Y40.8767
G01 X22.8287 Y40.8767
G01 X22.8201 Y40.8849
G01 X22.8081 Y40.8976
G01 X22.7554 Y40.9557
G01 X22.7440 Y40.9689
G01 X22.7333 Y40.9827
G01 X22.6865 Y41.0457
G01 X22.6765 Y41.0600
G01 X22.6672 Y41.0747
G01 X22.6268 Y41.1420
G01 X22.6142 Y41.1649
G01 X22.5768 Y41.2437
G01 X22.5698 Y41.2597
G01 X22.5635 Y41.2759
G01 X22.5370 Y41.3498
G01 X22.5316 Y41.3664
G01 X22.5269 Y41.3832
G01 X22.5079 Y41.4593
G01 X22.5040 Y41.4763
G01 X22.5011 Y41.4935
G01 X22.4919 Y41.5554
G01 X22.4813 Y41.4849
G00 Z5.0000
G00 X23.6490 Y39.9470
G01 F60.00
G01 Z-0.1000
G01 F100.00
G01 X23.6529 Y39.9640
G01 X23.6719 Y40.0402
G01 X23.6766 Y40.0570
G01 X23.6820 Y40.0735
G01 X23.7085 Y40.1474
G01 X23.7148 Y40.1637
G01 X23.7218 Y40.1796
G01 X23.7554 Y40.2506
G01 X23.7632 Y40.2662
G01 X23.7718 Y40.2813
G01 X23.8167 Y40.3561
G01 X23.8315 Y40.3776
G01 X23.8783 Y40.4407
G01 X23.8890 Y40.4544
G01 X23.9004 Y40.4676
G01 X23.9531 Y40.5258
G01 X23.9714 Y40.5445
G01 X24.0359 Y40.6032
G01 X24.0491 Y40.6145
G01 X24.0713 Y40.6315
G01 X23.9887 Y40.6018
G01 X23.9722 Y40.5964
G01 X23.9554 Y40.5917
G01 X23.8792 Y40.5727
G01 X23.8622 Y40.5688
G01 X23.8450 Y40.5659
G01 X23.7674 Y40.5543
G01 X23.7501 Y40.5522
G01 X23.7327 Y40.5509
G01 X23.6460 Y40.5468
G01 X23.6469 Y40.5217
G01 X23.6469 Y39.9352
G01 X23.6490 Y39.9470
G00 Z5.0000
G00 X23.6820 Y39.3698
G01 F60.00
G01 Z-0.1000
G01 F100.00
G01 X23.6766 Y39.3864
G01 X23.6719 Y39.4032
G01 X23.6529 Y39.4793
G01 X23.6490 Y39.4963
G01 X23.6469 Y39.5081
G01 X23.6469 Y39.2657
G01 X23.7002 Y39.3190
G01 X23.6820 Y39.3698
G00 Z5.0000
G00 X24.9776 Y38.5672
G01 F60.00
G01 Z-0.1000
G01 F100.00
G01 X24.9870 Y38.5525
G01 X25.0020 Y38.5266
G01 X25.0151 Y38.4998
G01 X25.0254 Y38.4758
G01 X25.0355 Y38.4476
G01 X25.0406 Y38.4309
G01 X25.0478 Y38.4019
G01 X25.0519 Y38.3807
G01 X25.4562 Y38.7849
G01 X25.4308 Y38.7662
G01 X25.4163 Y38.7565
G01 X25.3340 Y38.7072
G01 X25.3108 Y38.6952
G01 X25.2319 Y38.6580
G01 X25.2076 Y38.6483
G01 X25.1337 Y38.6218
G01 X25.1088 Y38.6139
G01 X25.0157 Y38.5906
G01 X24.9987 Y38.5872
G01 X24.9669 Y38.5824
G01 X24.9776 Y38.5672
G00 Z5.0000
G00 X24.8990 Y37.8213
G01 F60.00
G01 Z-0.1000
G01 F100.00
G01 X24.8980 Y37.7997
G01 X24.8980 Y34.1027
G01 X24.8990 Y34.0811
G01 X24.9023 Y34.0566
G01 X24.9080 Y34.0326
G01 X24.9160 Y34.0092
G01 X24.9263 Y33.9867
G01 X24.9388 Y33.9654
G01 X24.9532 Y33.9453
G01 X24.9696 Y33.9268
G01 X24.9877 Y33.9100
G01 X25.0074 Y33.8950
G01 X25.0284 Y33.8821
G01 X25.0506 Y33.8712
G01 X25.0738 Y33.8626
G01 X25.0977 Y33.8563
G01 X25.1221 Y33.8524
G01 X25.1468 Y33.8509
G01 X25.1715 Y33.8518
G01 X25.1960 Y33.8551
G01 X25.2170 Y33.8600
G01 X25.2260 Y33.8626
G01 X25.2405 Y33.8677
G01 X25.2520 Y33.8725
G01 X25.2686 Y33.8806
G01 X25.2898 Y33.8933
G01 X25.3097 Y33.9080
G01 X25.3280 Y33.9246
G01 X25.3446 Y33.9429
G01 X25.3593 Y33.9628
G01 X25.3720 Y33.9840
G01 X25.3813 Y34.0034
G01 X25.3900 Y34.0266
G01 X25.3955 Y34.0475
G01 X25.3980 Y34.0597
G01 X25.4002 Y34.0749
G01 X25.4010 Y34.0842
G01 X25.4017 Y34.1027
G01 X25.4017 Y37.6954
G01 X26.6197 Y38.9133
G01 X26.6323 Y38.9058
G01 X26.6405 Y38.9015
G01 X26.7115 Y38.8680
G01 X26.7230 Y38.8632
G01 X26.8028 Y38.8348
G01 X26.8911 Y38.8127
G01 X26.9810 Y38.7993
G01 X27.0657 Y38.7950
G01 X27.0781 Y38.7950
G01 X27.1565 Y38.7989
G01 X27.1689 Y38.8001
G01 X27.2527 Y38.8127
G01 X27.3409 Y38.8348
G01 X27.4266 Y38.8654
G01 X27.5032 Y38.9015
G01 X27.5142 Y38.9074
G01 X27.5815 Y38.9477
G01 X27.5919 Y38.9547
G01 X27.6598 Y39.0053
G01 X27.7227 Y39.0620
G01 X27.7315 Y39.0708
G01 X27.7883 Y39.1337
G01 X27.8425 Y39.2068
G01 X27.8892 Y39.2848
G01 X27.9281 Y39.3670
G01 X27.9588 Y39.4526
G01 X27.9809 Y39.5409
G01 X27.9942 Y39.6308
G01 X27.9985 Y39.7155
G01 X27.9985 Y39.7279
G01 X27.9947 Y39.8063
G01 X27.9935 Y39.8187
G01 X27.9809 Y39.9025
G01 X27.9604 Y39.9847
G01 X27.9568 Y39.9966
G01 X27.9281 Y40.0764
G01 X27.8892 Y40.1586
G01 X27.8425 Y40.2366
G01 X27.7921 Y40.3047
G01 X27.7863 Y40.3120
G01 X27.7272 Y40.3770
G01 X27.6598 Y40.4381
G01 X27.5868 Y40.4923
G01 X27.5088 Y40.5390
G01 X27.4266 Y40.5779
G01 X27.3409 Y40.6086
G01 X27.2527 Y40.6307
G01 X27.1627 Y40.6440
G01 X27.0719 Y40.6485
G01 X26.9810 Y40.6440
G01 X26.8911 Y40.6307
G01 X26.8028 Y40.6086
G01 X26.7172 Y40.5779
G01 X26.6350 Y40.5390
G01 X26.5570 Y40.4923
G01 X26.4888 Y40.4419
G01 X26.4815 Y40.4361
G01 X26.4165 Y40.3770
G01 X26.3555 Y40.3096
G01 X26.3013 Y40.2366
G01 X26.2576 Y40.1640
G01 X26.2517 Y40.1530
G01 X26.2182 Y40.0820
G01 X26.2134 Y40.0705
G01 X26.1850 Y39.9907
G01 X26.1629 Y39.9025
G01 X26.1495 Y39.8125
G01 X26.1451 Y39.7217
G01 X26.1495 Y39.6308
G01 X26.1618 Y39.5470
G01 X26.1643 Y39.5348
G01 X26.1850 Y39.4526
G01 X26.2134 Y39.3728
G01 X26.2182 Y39.3613
G01 X26.2517 Y39.2903
G01 X26.2560 Y39.2821
G01 X26.2635 Y39.2695
G01 X24.9696 Y37.9755
G01 X24.9552 Y37.9595
G01 X24.9405 Y37.9396
G01 X24.9278 Y37.9184
G01 X24.9184 Y37.8989
G01 X24.9108 Y37.8787
G01 X24.9072 Y37.8668
G01 X24.9023 Y37.8458
G01 X24.8990 Y37.8213
G00 Z5.0000
G00 X25.9129 Y39.4878
G01 F60.00
G01 Z-0.1000
G01 F100.00
G01 X25.8918 Y39.4032
G01 X25.8872 Y39.3864
G01 X25.8817 Y39.3698
G01 X25.8553 Y39.2959
G01 X25.8456 Y39.2717
G01 X25.8084 Y39.1928
G01 X25.7963 Y39.1696
G01 X25.7470 Y39.0873
G01 X25.7373 Y39.0728
G01 X25.7186 Y39.0474
G01 X25.9902 Y39.3190
G01 X25.9720 Y39.3698
G01 X25.9666 Y39.3864
G01 X25.9619 Y39.4032
G01 X25.9429 Y39.4793
G01 X25.9374 Y39.5049
G01 X25.9269 Y39.5754
G01 X25.9177 Y39.5135
G01 X25.9129 Y39.4878
G00 Z5.0000
G00 X25.5078 Y40.6200
G01 F60.00
G01 Z-0.1000
G01 F100.00
G01 X25.5278 Y40.6032
G01 X25.5860 Y40.5504
G01 X25.5986 Y40.5384
G01 X25.6106 Y40.5258
G01 X25.6634 Y40.4676
G01 X25.6747 Y40.4544
G01 X25.6855 Y40.4407
G01 X25.7322 Y40.3776
G01 X25.7423 Y40.3634
G01 X25.7516 Y40.3487
G01 X25.7963 Y40.2738
G01 X25.8084 Y40.2506
G01 X25.8419 Y40.1796
G01 X25.8490 Y40.1637
G01 X25.8553 Y40.1474
G01 X25.8846 Y40.0653
G01 X25.8918 Y40.0402
G01 X25.9129 Y39.9555
G01 X25.9177 Y39.9298
G01 X25.9269 Y39.8680
G01 X25.9361 Y39.9298
G01 X25.9408 Y39.9555
G01 X25.9619 Y40.0402
G01 X25.9692 Y40.0653
G01 X25.9985 Y40.1474
G01 X26.0048 Y40.1637
G01 X26.0118 Y40.1796
G01 X26.0454 Y40.2506
G01 X26.0574 Y40.2738
G01 X26.1022 Y40.3487
G01 X26.1115 Y40.3634
G01 X26.1215 Y40.3776
G01 X26.1683 Y40.4407
G01 X26.1846 Y40.4611
G01 X26.2431 Y40.5258
G01 X26.2614 Y40.5445
G01 X26.3325 Y40.6089
G01 X26.3459 Y40.6200
G01 X26.3613 Y40.6315
G01 X26.2787 Y40.6018
G01 X26.2622 Y40.5964
G01 X26.2454 Y40.5917
G01 X26.1692 Y40.5727
G01 X26.1522 Y40.5688
G01 X26.1350 Y40.5659
G01 X26.0574 Y40.5543
G01 X26.0401 Y40.5522
G01 X26.0227 Y40.5509
G01 X25.9356 Y40.5467
G01 X25.9095 Y40.5471
G01 X25.8310 Y40.5509
G01 X25.8137 Y40.5522
G01 X25.7964 Y40.5543
G01 X25.7187 Y40.5659
G01 X25.7015 Y40.5688
G01 X25.6845 Y40.5727
G01 X25.6084 Y40.5917
G01 X25.5916 Y40.5964
G01 X25.5750 Y40.6018
G01 X25.4924 Y40.6315
G01 X25.5078 Y40.6200
G00 Z5.0000
G00 X26.6461 Y40.7951
G01 F60.00
G01 Z-0.1000
G01 F100.00
G01 X26.7200 Y40.8215
G01 X26.7366 Y40.8270
G01 X26.7534 Y40.8316
G01 X26.8295 Y40.8507
G01 X26.8465 Y40.8545
G01 X26.8637 Y40.8575
G01 X26.9414 Y40.8690
G01 X26.9587 Y40.8712
G01 X26.9760 Y40.8724
G01 X27.0545 Y40.8763
G01 X27.0719 Y40.8767
G01 X27.0893 Y40.8763
G01 X27.1677 Y40.8724
G01 X27.1851 Y40.8712
G01 X27.2024 Y40.8690
G01 X27.2800 Y40.8575
G01 X27.2972 Y40.8545
G01 X27.3142 Y40.8507
G01 X27.3904 Y40.8316
G01 X27.4072 Y40.8270
G01 X27.4237 Y40.8215
G01 X27.5063 Y40.7918
G01 X27.4909 Y40.8034
G01 X27.4775 Y40.8144
G01 X27.4064 Y40.8789
G01 X27.3881 Y40.8976
G01 X27.3296 Y40.9623
G01 X27.3133 Y40.9827
G01 X27.2665 Y41.0457
G01 X27.2565 Y41.0600
G01 X27.2472 Y41.0747
G01 X27.2024 Y41.1496
G01 X27.1904 Y41.1728
G01 X27.1568 Y41.2437
G01 X27.1498 Y41.2597
G01 X27.1435 Y41.2759
G01 X27.1142 Y41.3581
G01 X27.1069 Y41.3832
G01 X27.0858 Y41.4678
G01 X27.0811 Y41.4935
G01 X27.0719 Y41.5554
G01 X27.0627 Y41.4935
G01 X27.0579 Y41.4678
G01 X27.0368 Y41.3832
G01 X27.0296 Y41.3581
G01 X27.0003 Y41.2759
G01 X26.9940 Y41.2597
G01 X26.9869 Y41.2437
G01 X26.9534 Y41.1728
G01 X26.9413 Y41.1496
G01 X26.8966 Y41.0747
G01 X26.8873 Y41.0600
G01 X26.8772 Y41.0457
G01 X26.8305 Y40.9827
G01 X26.8197 Y40.9689
G01 X26.8084 Y40.9557
G01 X26.7556 Y40.8976
G01 X26.7374 Y40.8789
G01 X26.6663 Y40.8144
G01 X26.6528 Y40.8034
G01 X26.6374 Y40.7918
G01 X26.6461 Y40.7951
G00 Z5.0000
G00 X26.8535 Y41.6955
G01 F60.00
G01 Z-0.1000
G01 F100.00
G01 X26.8535 Y41.7079
G01 X26.8492 Y41.7925
G01 X26.8359 Y41.8825
G01 X26.8138 Y41.9707
G01 X26.7831 Y42.0564
G01 X26.7442 Y42.1386
G01 X26.6975 Y42.2166
G01 X26.6433 Y42.2896
G01 X26.5822 Y42.3570
G01 X26.5148 Y42.4181
G01 X26.4418 Y42.4723
G01 X26.3638 Y42.5190
G01 X26.2816 Y42.5579
G01 X26.1959 Y42.5886
G01 X26.1077 Y42.6107
G01 X26.0177 Y42.6240
G01 X25.9269 Y42.6285
G01 X25.8360 Y42.6240
G01 X25.7461 Y42.6107
G01 X25.6578 Y42.5886
G01 X25.5722 Y42.5579
G01 X25.4900 Y42.5190
G01 X25.4120 Y42.4723
G01 X25.3389 Y42.4181
G01 X25.2715 Y42.3570
G01 X25.2105 Y42.2896
G01 X25.1563 Y42.2166
G01 X25.1095 Y42.1386
G01 X25.0706 Y42.0564
G01 X25.0400 Y41.9707
G01 X25.0179 Y41.8825
G01 X25.0045 Y41.7925
G01 X25.0001 Y41.7017
G01 X25.0045 Y41.6108
G01 X25.0179 Y41.5209
G01 X25.0400 Y41.4326
G01 X25.0706 Y41.3470
G01 X25.1095 Y41.2648
G01 X25.1563 Y41.1868
G01 X25.2105 Y41.1137
G01 X25.2715 Y41.0463
G01 X25.3389 Y40.9853
G01 X25.4120 Y40.9311
G01 X25.4900 Y40.8843
G01 X25.5722 Y40.8454
G01 X25.6578 Y40.8148
G01 X25.7461 Y40.7927
G01 X25.8360 Y40.7793
G01 X25.9269 Y40.7749
G01 X26.0177 Y40.7793
G01 X26.1077 Y40.7927
G01 X26.1959 Y40.8148
G01 X26.2816 Y40.8454
G01 X26.3638 Y40.8843
G01 X26.4418 Y40.9311
G01 X26.5148 Y40.9853
G01 X26.5822 Y41.0463
G01 X26.6433 Y41.1137
G01 X26.6975 Y41.1868
G01 X26.7442 Y41.2648
G01 X26.7831 Y41.3470
G01 X26.8138 Y41.4326
G01 X26.8359 Y41.5209
G01 X26.8492 Y41.6108
G01 X26.8535 Y41.6955
G00 Z5.0000
G00 X26.6459 Y42.6053
G01 F60.00
G01 Z-0.1000
G01 F100.00
G01 X26.6596 Y42.5945
G01 X26.6728 Y42.5832
G01 X26.7310 Y42.5304
G01 X26.7436 Y42.5184
G01 X26.7556 Y42.5058
G01 X26.8084 Y42.4476
G01 X26.8197 Y42.4344
G01 X26.8305 Y42.4207
G01 X26.8772 Y42.3576
G01 X26.8873 Y42.3434
G01 X26.8966 Y42.3287
G01 X26.9413 Y42.2538
G01 X26.9534 Y42.2306
G01 X26.9869 Y42.1596
G01 X26.9940 Y42.1437
G01 X27.0003 Y42.1274
G01 X27.0296 Y42.0453
G01 X27.0368 Y42.0202
G01 X27.0579 Y41.9355
G01 X27.0627 Y41.9098
G01 X27.0719 Y41.8480
G01 X27.0811 Y41.9098
G01 X27.0858 Y41.9355
G01 X27.1069 Y42.0202
G01 X27.1142 Y42.0453
G01 X27.1435 Y42.1274
G01 X27.1498 Y42.1437
G01 X27.1568 Y42.1596
G01 X27.1904 Y42.2306
G01 X27.2024 Y42.2538
G01 X27.2472 Y42.3287
G01 X27.2565 Y42.3434
G01 X27.2665 Y42.3576
G01 X27.3133 Y42.4207
G01 X27.3296 Y42.4411
G01 X27.3881 Y42.5058
G01 X27.4064 Y42.5245
G01 X27.4775 Y42.5889
G01 X27.4909 Y42.6000
G01 X27.5063 Y42.6115
G01 X27.4237 Y42.5818
G01 X27.4072 Y42.5764
G01 X27.3904 Y42.5717
G01 X27.3142 Y42.5527
G01 X27.2972 Y42.5488
G01 X27.2800 Y42.5459
G01 X27.2024 Y42.5343
G01 X27.1851 Y42.5322
G01 X27.1677 Y42.5309
G01 X27.0893 Y42.5271
G01 X27.0719 Y42.5266
G01 X27.0545 Y42.5271
G01 X26.9760 Y42.5309
G01 X26.9587 Y42.5322
G01 X26.9414 Y42.5343
G01 X26.8551 Y42.5472
G01 X26.8295 Y42.5527
G01 X26.7534 Y42.5717
G01 X26.7366 Y42.5764
G01 X26.7200 Y42.5818
G01 X26.6374 Y42.6115
G01 X26.6459 Y42.6053
G00 Z5.0000
G00 X25.9177 Y43.4735
G01 F60.00
G01 Z-0.1000
G01 F100.00
G01 X25.9147 Y43.4563
G01 X25.9109 Y43.4393
G01 X25.8918 Y43.3632
G01 X25.8872 Y43.3464
G01 X25.8817 Y43.3298
G01 X25.8522 Y43.2478
G01 X25.8419 Y43.2237
G01 X25.8084 Y43.1528
G01 X25.8005 Y43.1372
G01 X25.7919 Y43.1220
G01 X25.7516 Y43.0547
G01 X25.7373 Y43.0328
G01 X25.6802 Y42.9557
G01 X25.6634 Y42.9357
G01 X25.6106 Y42.8776
G01 X25.5924 Y42.8589
G01 X25.5278 Y42.8002
G01 X25.5146 Y42.7888
G01 X25.4924 Y42.7718
G01 X25.5750 Y42.8015
G01 X25.5916 Y42.8070
G01 X25.6084 Y42.8116
G01 X25.6845 Y42.8307
G01 X25.7015 Y42.8345
G01 X25.7187 Y42.8375
G01 X25.7964 Y42.8490
G01 X25.8137 Y42.8512
G01 X25.8310 Y42.8524
G01 X25.9095 Y42.8563
G01 X25.9269 Y42.8567
G01 X25.9443 Y42.8563
G01 X26.0227 Y42.8524
G01 X26.0401 Y42.8512
G01 X26.0574 Y42.8490
G01 X26.1350 Y42.8375
G01 X26.1522 Y42.8345
G01 X26.1692 Y42.8307
G01 X26.2454 Y42.8116
G01 X26.2622 Y42.8070
G01 X26.2787 Y42.8015
G01 X26.3613 Y42.7718
G01 X26.3391 Y42.7888
G01 X26.3259 Y42.8002
G01 X26.2614 Y42.8589
G01 X26.2431 Y42.8776
G01 X26.1904 Y42.9357
G01 X26.1790 Y42.9489
G01 X26.1683 Y42.9627
G01 X26.1215 Y43.0257
G01 X26.1067 Y43.0473
G01 X26.0618 Y43.1220
G01 X26.0532 Y43.1372
G01 X26.0454 Y43.1528
G01 X26.0118 Y43.2237
G01 X26.0048 Y43.2397
G01 X25.9985 Y43.2559
G01 X25.9692 Y43.3381
G01 X25.9619 Y43.3632
G01 X25.9429 Y43.4393
G01 X25.9390 Y43.4563
G01 X25.9361 Y43.4735
G01 X25.9269 Y43.5354
G01 X25.9177 Y43.4735
G00 Z5.0000
G00 X25.9267 Y43.8292
G01 F60.00
G01 Z-0.1000
G01 F100.00
G01 X25.9269 Y43.8280
G01 X25.9271 Y43.8296
G01 X25.9267 Y43.8292
G00 Z5.0000
G00 X25.2076 Y42.6083
G01 F60.00
G01 Z-0.1000
G01 F100.00
G01 X25.1337 Y42.5818
G01 X25.1172 Y42.5764
G01 X25.1004 Y42.5717
G01 X25.0242 Y42.5527
G01 X25.0072 Y42.5488
G01 X24.9900 Y42.5459
G01 X24.9124 Y42.5343
G01 X24.8951 Y42.5322
G01 X24.8777 Y42.5309
G01 X24.7993 Y42.5271
G01 X24.7819 Y42.5266
G01 X24.7645 Y42.5271
G01 X24.6860 Y42.5309
G01 X24.6687 Y42.5322
G01 X24.6514 Y42.5343
G01 X24.5737 Y42.5459
G01 X24.5565 Y42.5488
G01 X24.5395 Y42.5527
G01 X24.4634 Y42.5717
G01 X24.4466 Y42.5764
G01 X24.4300 Y42.5818
G01 X24.3474 Y42.6115
G01 X24.3628 Y42.6000
G01 X24.3763 Y42.5889
G01 X24.4474 Y42.5245
G01 X24.4656 Y42.5058
G01 X24.5241 Y42.4411
G01 X24.5405 Y42.4207
G01 X24.5872 Y42.3576
G01 X24.5973 Y42.3434
G01 X24.6066 Y42.3287
G01 X24.6513 Y42.2538
G01 X24.6634 Y42.2306
G01 X24.6969 Y42.1596
G01 X24.7040 Y42.1437
G01 X24.7103 Y42.1274
G01 X24.7396 Y42.0453
G01 X24.7468 Y42.0202
G01 X24.7679 Y41.9355
G01 X24.7727 Y41.9098
G01 X24.7819 Y41.8480
G01 X24.7911 Y41.9098
G01 X24.7958 Y41.9355
G01 X24.8169 Y42.0202
G01 X24.8242 Y42.0453
G01 X24.8535 Y42.1274
G01 X24.8598 Y42.1437
G01 X24.8668 Y42.1596
G01 X24.9004 Y42.2306
G01 X24.9124 Y42.2538
G01 X24.9572 Y42.3287
G01 X24.9665 Y42.3434
G01 X24.9765 Y42.3576
G01 X25.0233 Y42.4207
G01 X25.0340 Y42.4344
G01 X25.0454 Y42.4476
G01 X25.0981 Y42.5058
G01 X25.1164 Y42.5245
G01 X25.1875 Y42.5889
G01 X25.2009 Y42.6000
G01 X25.2163 Y42.6115
G01 X25.2076 Y42.6083
G00 Z5.0000
G00 X24.5635 Y41.6955
G01 F60.00
G01 Z-0.1000
G01 F100.00
G01 X24.5635 Y41.7079
G01 X24.5592 Y41.7925
G01 X24.5459 Y41.8825
G01 X24.5238 Y41.9707
G01 X24.4931 Y42.0564
G01 X24.4542 Y42.1386
G01 X24.4075 Y42.2166
G01 X24.3533 Y42.2896
G01 X24.2922 Y42.3570
G01 X24.2248 Y42.4181
G01 X24.1518 Y42.4723
G01 X24.0738 Y42.5190
G01 X23.9916 Y42.5579
G01 X23.9059 Y42.5886
G01 X23.8177 Y42.6107
G01 X23.7277 Y42.6240
G01 X23.6369 Y42.6285
G01 X23.5460 Y42.6240
G01 X23.4561 Y42.6107
G01 X23.3678 Y42.5886
G01 X23.2822 Y42.5579
G01 X23.2000 Y42.5190
G01 X23.1220 Y42.4723
G01 X23.0489 Y42.4181
G01 X22.9815 Y42.3570
G01 X22.9205 Y42.2896
G01 X22.8663 Y42.2166
G01 X22.8195 Y42.1386
G01 X22.7806 Y42.0564
G01 X22.7500 Y41.9707
G01 X22.7279 Y41.8825
G01 X22.7145 Y41.7925
G01 X22.7101 Y41.7017
G01 X22.7145 Y41.6108
G01 X22.7279 Y41.5209
G01 X22.7500 Y41.4326
G01 X22.7806 Y41.3470
G01 X22.8195 Y41.2648
G01 X22.8663 Y41.1868
G01 X22.9205 Y41.1137
G01 X22.9815 Y41.0463
G01 X23.0489 Y40.9853
G01 X23.1220 Y40.9311
G01 X23.2000 Y40.8843
G01 X23.2822 Y40.8454
G01 X23.3678 Y40.8148
G01 X23.4561 Y40.7927
G01 X23.5460 Y40.7793
G01 X23.6369 Y40.7749
G01 X23.7277 Y40.7793
G01 X23.8177 Y40.7927
G01 X23.9059 Y40.8148
G01 X23.9916 Y40.8454
G01 X24.0738 Y40.8843
G01 X24.1518 Y40.9311
G01 X24.2248 Y40.9853
G01 X24.2922 Y41.0463
G01 X24.3533 Y41.1137
G01 X24.4075 Y41.1868
G01 X24.4542 Y41.2648
G01 X24.4931 Y41.3470
G01 X24.5238 Y41.4326
G01 X24.5459 Y41.5209
G01 X24.5592 Y41.6108
G01 X24.5635 Y41.6955
G00 Z5.0000
G00 X24.3561 Y40.7951
G01 F60.00
G01 Z-0.1000
G01 F100.00
G01 X24.4300 Y40.8215
G01 X24.4466 Y40.8270
G01 X24.4634 Y40.8316
G01 X24.5395 Y40.8507
G01 X24.5565 Y40.8545
G01 X24.5737 Y40.8575
G01 X24.6514 Y40.8690
G01 X24.6687 Y40.8712
G01 X24.6860 Y40.8724
G01 X24.7645 Y40.8763
G01 X24.7819 Y40.8767
G01 X24.7993 Y40.8763
G01 X24.8777 Y40.8724
G01 X24.8951 Y40.8712
G01 X24.9124 Y40.8690
G01 X24.9900 Y40.8575
G01 X25.0072 Y40.8545
G01 X25.0242 Y40.8507
G01 X25.1004 Y40.8316
G01 X25.1172 Y40.8270
G01 X25.1337 Y40.8215
G01 X25.2163 Y40.7918
G01 X25.2009 Y40.8034
G01 X25.1875 Y40.8144
G01 X25.1164 Y40.8789
G01 X25.0981 Y40.8976
G01 X25.0396 Y40.9623
G01 X25.0233 Y40.9827
G01 X24.9765 Y41.0457
G01 X24.9665 Y41.0600
G01 X24.9572 Y41.0747
G01 X24.9124 Y41.1496
G01 X24.9004 Y41.1728
G01 X24.8668 Y41.2437
G01 X24.8598 Y41.2597
G01 X24.8535 Y41.2759
G01 X24.8242 Y41.3581
G01 X24.8169 Y41.3832
G01 X24.7958 Y41.4678
G01 X24.7911 Y41.4935
G01 X24.7819 Y41.5554
G01 X24.7727 Y41.4935
G01 X24.7679 Y41.4678
G01 X24.7468 Y41.3832
G01 X24.7396 Y41.3581
G01 X24.7103 Y41.2759
G01 X24.7040 Y41.2597
G01 X24.6969 Y41.2437
G01 X24.6634 Y41.1728
G01 X24.6513 Y41.1496
G01 X24.6066 Y41.0747
G01 X24.5973 Y41.0600
G01 X24.5872 Y41.0457
G01 X24.5405 Y40.9827
G01 X24.5297 Y40.9689
G01 X24.5184 Y40.9557
G01 X24.4656 Y40.8976
G01 X24.4474 Y40.8789
G01 X24.3763 Y40.8144
G01 X24.3628 Y40.8034
G01 X24.3474 Y40.7918
G01 X24.3561 Y40.7951
G00 Z5.0000
G00 X24.0559 Y42.7834
G01 F60.00
G01 Z-0.1000
G01 F100.00
G01 X24.0359 Y42.8002
G01 X23.9778 Y42.8529
G01 X23.9651 Y42.8649
G01 X23.9531 Y42.8776
G01 X23.9004 Y42.9357
G01 X23.8890 Y42.9489
G01 X23.8783 Y42.9627
G01 X23.8315 Y43.0257
G01 X23.8215 Y43.0400
G01 X23.8122 Y43.0547
G01 X23.7674 Y43.1296
G01 X23.7554 Y43.1528
G01 X23.7218 Y43.2237
G01 X23.7148 Y43.2397
G01 X23.7085 Y43.2559
G01 X23.6792 Y43.3381
G01 X23.6719 Y43.3632
G01 X23.6508 Y43.4478
G01 X23.6461 Y43.4735
G01 X23.6369 Y43.5354
G01 X23.6277 Y43.4735
G01 X23.6229 Y43.4478
G01 X23.6018 Y43.3632
G01 X23.5946 Y43.3381
G01 X23.5653 Y43.2559
G01 X23.5590 Y43.2397
G01 X23.5519 Y43.2237
G01 X23.5184 Y43.1528
G01 X23.5063 Y43.1296
G01 X23.4616 Y43.0547
G01 X23.4523 Y43.0400
G01 X23.4422 Y43.0257
G01 X23.3955 Y42.9627
G01 X23.3791 Y42.9423
G01 X23.3206 Y42.8776
G01 X23.3024 Y42.8589
G01 X23.2313 Y42.7944
G01 X23.2178 Y42.7834
G01 X23.2024 Y42.7718
G01 X23.2850 Y42.8015
G01 X23.3016 Y42.8070
G01 X23.3184 Y42.8116
G01 X23.3945 Y42.8307
G01 X23.4115 Y42.8345
G01 X23.4287 Y42.8375
G01 X23.5064 Y42.8490
G01 X23.5237 Y42.8512
G01 X23.5410 Y42.8524
G01 X23.6282 Y42.8566
G01 X23.6543 Y42.8563
G01 X23.7327 Y42.8524
G01 X23.7501 Y42.8512
G01 X23.7674 Y42.8490
G01 X23.8450 Y42.8375
G01 X23.8622 Y42.8345
G01 X23.8792 Y42.8307
G01 X23.9554 Y42.8116
G01 X23.9722 Y42.8070
G01 X23.9887 Y42.8015
G01 X24.0713 Y42.7718
G01 X24.0559 Y42.7834
G00 Z5.0000
G00 X23.4185 Y43.6755
G01 F60.00
G01 Z-0.1000
G01 F100.00
G01 X23.4185 Y43.6879
G01 X23.4142 Y43.7725
G01 X23.4009 Y43.8625
G01 X23.3788 Y43.9507
G01 X23.3481 Y44.0364
G01 X23.3092 Y44.1186
G01 X23.2625 Y44.1966
G01 X23.2083 Y44.2696
G01 X23.1472 Y44.3370
G01 X23.0798 Y44.3981
G01 X23.0068 Y44.4523
G01 X22.9288 Y44.4990
G01 X22.8466 Y44.5379
G01 X22.7609 Y44.5686
G01 X22.6727 Y44.5907
G01 X22.5827 Y44.6040
G01 X22.4919 Y44.6085
G01 X22.4010 Y44.6040
G01 X22.3111 Y44.5907
G01 X22.2228 Y44.5686
G01 X22.1372 Y44.5379
G01 X22.0550 Y44.4990
G01 X21.9770 Y44.4523
G01 X21.9039 Y44.3981
G01 X21.8365 Y44.3370
G01 X21.7755 Y44.2696
G01 X21.7213 Y44.1966
G01 X21.6745 Y44.1186
G01 X21.6356 Y44.0364
G01 X21.6050 Y43.9507
G01 X21.5829 Y43.8625
G01 X21.5695 Y43.7725
G01 X21.5651 Y43.6817
G01 X21.5695 Y43.5908
G01 X21.5829 Y43.5009
G01 X21.6050 Y43.4126
G01 X21.6356 Y43.3270
G01 X21.6745 Y43.2448
G01 X21.7213 Y43.1668
G01 X21.7755 Y43.0937
G01 X21.8365 Y43.0263
G01 X21.9039 Y42.9653
G01 X21.9770 Y42.9111
G01 X22.0550 Y42.8643
G01 X22.1372 Y42.8254
G01 X22.2228 Y42.7948
G01 X22.3111 Y42.7727
G01 X22.4010 Y42.7593
G01 X22.4919 Y42.7549
G01 X22.5827 Y42.7593
G01 X22.6727 Y42.7727
G01 X22.7609 Y42.7948
G01 X22.8466 Y42.8254
G01 X22.9288 Y42.8643
G01 X23.0068 Y42.9111
G01 X23.0798 Y42.9653
G01 X23.1472 Y43.0263
G01 X23.2083 Y43.0937
G01 X23.2625 Y43.1668
G01 X23.3092 Y43.2448
G01 X23.3481 Y43.3270
G01 X23.3788 Y43.4126
G01 X23.4009 Y43.5009
G01 X23.4142 Y43.5908
G01 X23.4185 Y43.6755
G00 Z5.0000
G00 X23.6461 Y43.8898
G01 F60.00
G01 Z-0.1000
G01 F100.00
G01 X23.6508 Y43.9155
G01 X23.6579 Y43.9442
G01 X23.6103 Y43.9918
G01 X23.6036 Y43.9930
G01 X23.6209 Y43.9240
G01 X23.6247 Y43.9070
G01 X23.6277 Y43.8898
G01 X23.6369 Y43.8280
G01 X23.6461 Y43.8898
G00 Z5.0000
G00 X24.5128 Y44.5686
G01 F60.00
G01 Z-0.1000
G01 F100.00
G01 X24.5950 Y44.5893
G01 X24.6072 Y44.5917
G01 X24.6910 Y44.6040
G01 X24.7788 Y44.6084
G01 X24.7881 Y44.6083
G01 X24.8665 Y44.6045
G01 X24.8758 Y44.6037
G01 X24.9596 Y44.5912
G01 X24.9688 Y44.5893
G01 X25.0057 Y44.5801
G01 X25.2110 Y44.7853
G01 X25.1819 Y44.7991
G01 X24.9562 Y44.8557
G01 X24.7238 Y44.8671
G01 X24.4937 Y44.8330
G01 X24.2687 Y44.7526
G01 X24.2563 Y44.7459
G01 X24.4544 Y44.5478
G01 X24.5128 Y44.5686
G00 Z5.0000
G00 X22.6082 Y44.8628
G01 F60.00
G01 Z-0.1000
G01 F100.00
G01 X22.3755 Y44.8628
G01 X22.1474 Y44.8174
G01 X21.9324 Y44.7284
G01 X21.7389 Y44.5991
G01 X21.5744 Y44.4346
G01 X21.4452 Y44.2412
G01 X21.3561 Y44.0262
G01 X21.3107 Y43.7980
G01 X21.3107 Y43.5653
G01 X21.3561 Y43.3372
G01 X21.4021 Y43.2263
G01 X21.4085 Y43.2087
G01 X21.4113 Y43.1998
G01 X21.4159 Y43.1817
G01 X21.4198 Y43.1571
G01 X21.4206 Y43.1478
G01 X21.4214 Y43.1291
G01 X21.4204 Y43.1073
G01 X21.4194 Y43.0981
G01 X21.4165 Y43.0796
G01 X21.4113 Y43.0584
G01 X21.4043 Y43.0378
G01 X21.4008 Y43.0291
G01 X21.3914 Y43.0094
G01 X21.3786 Y42.9881
G01 X21.3638 Y42.9681
G01 X21.3470 Y42.9496
G01 X21.3286 Y42.9329
G01 X21.3086 Y42.9180
G01 X21.2872 Y42.9052
G01 X21.2675 Y42.8958
G01 X21.2589 Y42.8923
G01 X21.2412 Y42.8862
G01 X21.2201 Y42.8808
G01 X21.0024 Y42.8374
G01 X20.7874 Y42.7484
G01 X20.5939 Y42.6191
G01 X20.4294 Y42.4546
G01 X20.3002 Y42.2612
G01 X20.2111 Y42.0462
G01 X20.1657 Y41.8180
G01 X20.1657 Y41.5853
G01 X20.1982 Y41.4212
G01 X20.2008 Y41.4027
G01 X20.2019 Y41.3840
G01 X20.2020 Y41.3747
G01 X20.2008 Y41.3529
G01 X20.1972 Y41.3283
G01 X20.1920 Y41.3071
G01 X20.1850 Y41.2865
G01 X20.1802 Y41.2750
G01 X20.1721 Y41.2581
G01 X20.1593 Y41.2368
G01 X20.1444 Y41.2167
G01 X20.1320 Y41.2028
G01 X7.2084 Y28.2790
G01 X7.1923 Y28.2642
G01 X7.1803 Y28.2543
G01 X7.1170 Y28.1772
G01 X7.0700 Y28.0893
G01 X7.0411 Y27.9939
G01 X7.0313 Y27.8947
G01 X7.0328 Y27.8791
G01 X7.0337 Y27.8573
G01 X7.0337 Y19.2578
G01 X7.0411 Y19.1835
G01 X7.0700 Y19.0881
G01 X7.1170 Y19.0001
G01 X7.1803 Y18.9231
G01 X7.2573 Y18.8598
G01 X7.3453 Y18.8128
G01 X7.4407 Y18.7839
G01 X7.5399 Y18.7741
G01 X7.6391 Y18.7839
G01 X7.7345 Y18.8128
G01 X7.8224 Y18.8598
G01 X7.8995 Y18.9231
G01 X7.9628 Y19.0001
G01 X8.0098 Y19.0881
G01 X8.0387 Y19.1835
G01 X8.0460 Y19.2578
G01 X8.0460 Y27.5799
G01 X8.0470 Y27.6017
G01 X8.0480 Y27.6109
G01 X8.0509 Y27.6294
G01 X8.0569 Y27.6536
G01 X8.0642 Y27.6741
G01 X8.0679 Y27.6827
G01 X8.0760 Y27.6995
G01 X8.0871 Y27.7183
G01 X8.0924 Y27.7260
G01 X8.1036 Y27.7409
G01 X8.1204 Y27.7594
G01 X20.8457 Y40.4847
G01 X20.8619 Y40.4992
G01 X20.8769 Y40.5105
G01 X20.8846 Y40.5158
G01 X20.9033 Y40.5269
G01 X20.9230 Y40.5363
G01 X20.9317 Y40.5398
G01 X20.9493 Y40.5459
G01 X20.9735 Y40.5520
G01 X20.9950 Y40.5553
G01 X21.0043 Y40.5561
G01 X21.0230 Y40.5569
G01 X21.0448 Y40.5559
G01 X21.0541 Y40.5549
G01 X21.0725 Y40.5520
G01 X21.1064 Y40.5452
G01 X21.1215 Y40.5415
G01 X21.1305 Y40.5389
G01 X21.1510 Y40.5314
G01 X21.1679 Y40.5235
G01 X21.1762 Y40.5193
G01 X21.1948 Y40.5079
G01 X21.2099 Y40.4969
G01 X21.2172 Y40.4911
G01 X21.2333 Y40.4764
G01 X21.2480 Y40.4603
G01 X21.2539 Y40.4530
G01 X21.2649 Y40.4379
G01 X21.2746 Y40.4219
G01 X21.2791 Y40.4138
G01 X21.2883 Y40.3940
G01 X21.2948 Y40.3765
G01 X21.2976 Y40.3676
G01 X21.3028 Y40.3464
G01 X21.3057 Y40.3279
G01 X21.3067 Y40.3186
G01 X21.3077 Y40.2969
G01 X21.3077 Y38.9342
G01 X21.3163 Y38.8470
G01 X21.3381 Y38.7751
G01 X21.3734 Y38.7089
G01 X21.4211 Y38.6509
G01 X21.4791 Y38.6032
G01 X21.5453 Y38.5679
G01 X21.6172 Y38.5461
G01 X21.7044 Y38.5375
G01 X21.7350 Y38.5374
G01 X21.7506 Y38.5367
G01 X21.7599 Y38.5359
G01 X21.7753 Y38.5337
G01 X21.7875 Y38.5312
G01 X21.8085 Y38.5256
G01 X21.8290 Y38.5181
G01 X21.8488 Y38.5089
G01 X21.8570 Y38.5044
G01 X21.8729 Y38.4947
G01 X21.8929 Y38.4798
G01 X21.9114 Y38.4631
G01 X21.9281 Y38.4447
G01 X21.9430 Y38.4246
G01 X21.9527 Y38.4087
G01 X21.9572 Y38.4005
G01 X21.9676 Y38.3779
G01 X21.9739 Y38.3603
G01 X21.9765 Y38.3513
G01 X21.9809 Y38.3331
G01 X21.9838 Y38.3147
G01 X21.9848 Y38.3054
G01 X21.9857 Y38.2836
G01 X21.9857 Y36.1595
G01 X21.9848 Y36.1377
G01 X21.9814 Y36.1130
G01 X21.9765 Y36.0918
G01 X21.9729 Y36.0799
G01 X21.9676 Y36.0652
G01 X21.9639 Y36.0566
G01 X21.9558 Y36.0398
G01 X21.9430 Y36.0184
G01 X21.9281 Y35.9984
G01 X21.9136 Y35.9822
G01 X20.3744 Y34.4430
G01 X20.3270 Y34.3852
G01 X20.2800 Y34.2973
G01 X20.2511 Y34.2019
G01 X20.2413 Y34.1027
G01 X20.2511 Y34.0035
G01 X20.2800 Y33.9081
G01 X20.3270 Y33.8201
G01 X20.3903 Y33.7431
G01 X20.4673 Y33.6798
G01 X20.5553 Y33.6328
G01 X20.6507 Y33.6039
G01 X20.7499 Y33.5941
G01 X20.8491 Y33.6039
G01 X20.9445 Y33.6328
G01 X21.0324 Y33.6798
G01 X21.0902 Y33.7272
G01 X22.0104 Y34.6474
G01 X22.0264 Y34.6621
G01 X22.0337 Y34.6679
G01 X22.0488 Y34.6790
G01 X22.0675 Y34.6903
G01 X22.0899 Y34.7012
G01 X22.1103 Y34.7089
G01 X22.1192 Y34.7117
G01 X22.1343 Y34.7155
G01 X22.1465 Y34.7179
G01 X22.1681 Y34.7208
G01 X22.1930 Y34.7217
G01 X22.2148 Y34.7205
G01 X22.2333 Y34.7179
G01 X22.2425 Y34.7162
G01 X22.2636 Y34.7108
G01 X22.2841 Y34.7036
G01 X22.2927 Y34.6999
G01 X22.3096 Y34.6918
G01 X22.3309 Y34.6790
G01 X22.3509 Y34.6641
G01 X22.3649 Y34.6517
G01 X22.3716 Y34.6452
G01 X22.3861 Y34.6289
G01 X22.4010 Y34.6089
G01 X22.4107 Y34.5930
G01 X22.4152 Y34.5848
G01 X22.4244 Y34.5650
G01 X22.4328 Y34.5416
G01 X22.4389 Y34.5174
G01 X22.4425 Y34.4928
G01 X22.4436 Y34.4741
G01 X22.4437 Y34.0778
G01 X22.4511 Y34.0035
G01 X22.4800 Y33.9081
G01 X22.5270 Y33.8201
G01 X22.5903 Y33.7431
G01 X22.6673 Y33.6798
G01 X22.7553 Y33.6328
G01 X22.8507 Y33.6039
G01 X22.9499 Y33.5941
G01 X23.0491 Y33.6039
G01 X23.1445 Y33.6328
G01 X23.2324 Y33.6798
G01 X23.3095 Y33.7431
G01 X23.3728 Y33.8201
G01 X23.4198 Y33.9081
G01 X23.4487 Y34.0035
G01 X23.4560 Y34.0778
G01 X23.4560 Y37.5749
G01 X23.4568 Y37.5936
G01 X23.4576 Y37.6029
G01 X23.4603 Y37.6213
G01 X23.4623 Y37.6305
G01 X23.4669 Y37.6486
G01 X23.4731 Y37.6662
G01 X23.4766 Y37.6749
G01 X23.4860 Y37.6945
G01 X23.4971 Y37.7133
G01 X23.5024 Y37.7210
G01 X23.5136 Y37.7359
G01 X23.5282 Y37.7522
G01 X24.2807 Y38.5047
G01 X24.2969 Y38.5192
G01 X24.3170 Y38.5341
G01 X24.3383 Y38.5469
G01 X24.3552 Y38.5550
G01 X24.3637 Y38.5587
G01 X24.3843 Y38.5659
G01 X24.4024 Y38.5706
G01 X24.4115 Y38.5725
G01 X24.4362 Y38.5759
G01 X24.4549 Y38.5768
G01 X24.4642 Y38.5767
G01 X24.4829 Y38.5756
G01 X24.5045 Y38.5725
G01 X24.6263 Y38.5483
G01 X24.6475 Y38.5432
G01 X24.6711 Y38.5351
G01 X24.6909 Y38.5260
G01 X24.6992 Y38.5217
G01 X24.7126 Y38.5138
G01 X24.7229 Y38.5069
G01 X24.7354 Y38.4975
G01 X24.7426 Y38.4915
G01 X24.7563 Y38.4789
G01 X24.7690 Y38.4651
G01 X24.7750 Y38.4580
G01 X24.7861 Y38.4430
G01 X24.7912 Y38.4351
G01 X24.8007 Y38.4190
G01 X24.8088 Y38.4022
G01 X24.8125 Y38.3936
G01 X24.8188 Y38.3760
G01 X24.8214 Y38.3671
G01 X24.8251 Y38.3519
G01 X24.8268 Y38.3428
G01 X24.8294 Y38.3242
G01 X24.8305 Y38.3056
G01 X24.8306 Y38.2962
G01 X24.8294 Y38.2745
G01 X24.8268 Y38.2560
G01 X24.8251 Y38.2468
G01 X24.8206 Y38.2287
G01 X24.8178 Y38.2198
G01 X24.8113 Y38.2022
G01 X24.8035 Y38.1852
G01 X24.7992 Y38.1770
G01 X24.7896 Y38.1609
G01 X24.7769 Y38.1432
G01 X24.7270 Y38.0822
G01 X24.6800 Y37.9943
G01 X24.6511 Y37.8989
G01 X24.6413 Y37.7997
G01 X24.6428 Y37.7841
G01 X24.6437 Y37.7623
G01 X24.6437 Y34.0778
G01 X24.6511 Y34.0035
G01 X24.6800 Y33.9081
G01 X24.7270 Y33.8201
G01 X24.7903 Y33.7431
G01 X24.8673 Y33.6798
G01 X24.9553 Y33.6328
G01 X25.0507 Y33.6039
G01 X25.1499 Y33.5941
G01 X25.2491 Y33.6039
G01 X25.3445 Y33.6328
G01 X25.4324 Y33.6798
G01 X25.5095 Y33.7431
G01 X25.5728 Y33.8201
G01 X25.6198 Y33.9081
G01 X25.6487 Y34.0035
G01 X25.6560 Y34.0778
G01 X25.6560 Y37.4849
G01 X25.6570 Y37.5067
G01 X25.6580 Y37.5159
G01 X25.6609 Y37.5344
G01 X25.6661 Y37.5556
G01 X25.6689 Y37.5645
G01 X25.6753 Y37.5820
G01 X25.6846 Y37.6018
G01 X25.6891 Y37.6100
G01 X25.6988 Y37.6259
G01 X25.7098 Y37.6410
G01 X25.7156 Y37.6483
G01 X25.7282 Y37.6622
G01 X26.5685 Y38.5025
G01 X26.5869 Y38.5192
G01 X26.6019 Y38.5305
G01 X26.6096 Y38.5358
G01 X26.6283 Y38.5469
G01 X26.6480 Y38.5563
G01 X26.6567 Y38.5598
G01 X26.6743 Y38.5659
G01 X26.6954 Y38.5713
G01 X26.7169 Y38.5749
G01 X26.7262 Y38.5759
G01 X26.7449 Y38.5768
G01 X26.7542 Y38.5767
G01 X26.7729 Y38.5756
G01 X26.7914 Y38.5730
G01 X26.9555 Y38.5405
G01 X27.1882 Y38.5405
G01 X27.4164 Y38.5859
G01 X27.6314 Y38.6750
G01 X27.8248 Y38.8042
G01 X27.9893 Y38.9687
G01 X28.0076 Y38.9960
G01 X28.0226 Y39.0158
G01 X28.0374 Y39.0319
G01 X28.0511 Y39.0445
G01 X28.0583 Y39.0505
G01 X28.0758 Y39.0634
G01 X28.0918 Y39.0732
G01 X28.1000 Y39.0777
G01 X28.1197 Y39.0869
G01 X28.1432 Y39.0953
G01 X28.1613 Y39.1000
G01 X28.1735 Y39.1024
G01 X28.1951 Y39.1053
G01 X28.2169 Y39.1062
G01 X28.2418 Y39.1050
G01 X28.2664 Y39.1013
G01 X28.2846 Y39.0970
G01 X28.2935 Y39.0944
G01 X28.3082 Y39.0891
G01 X28.3197 Y39.0844
G01 X28.3393 Y39.0747
G01 X28.3605 Y39.0617
G01 X28.3779 Y39.0486
G01 X28.3919 Y39.0362
G01 X28.3986 Y39.0296
G01 X28.4111 Y39.0158
G01 X28.4169 Y39.0085
G01 X28.4262 Y38.9960
G01 X28.4444 Y38.9687
G01 X28.6089 Y38.8042
G01 X28.8024 Y38.6750
G01 X29.0174 Y38.5859
G01 X29.2455 Y38.5405
G01 X29.4782 Y38.5405
G01 X29.7064 Y38.5859
G01 X29.9214 Y38.6750
G01 X30.1148 Y38.8042
G01 X30.2793 Y38.9687
G01 X30.2976 Y38.9960
G01 X30.3126 Y39.0158
G01 X30.3274 Y39.0319
G01 X30.3411 Y39.0445
G01 X30.3483 Y39.0505
G01 X30.3658 Y39.0634
G01 X30.3818 Y39.0732
G01 X30.3900 Y39.0777
G01 X30.4097 Y39.0869
G01 X30.4302 Y39.0944
G01 X30.4392 Y39.0970
G01 X30.4574 Y39.1013
G01 X30.4789 Y39.1047
G01 X30.5038 Y39.1062
G01 X30.5256 Y39.1055
G01 X30.5349 Y39.1047
G01 X30.5503 Y39.1024
G01 X30.5625 Y39.1000
G01 X30.5835 Y39.0944
G01 X30.6069 Y39.0857
G01 X30.6266 Y39.0763
G01 X30.6427 Y39.0668
G01 X30.6505 Y39.0617
G01 X30.6679 Y39.0486
G01 X30.6819 Y39.0362
G01 X30.6886 Y39.0296
G01 X30.7011 Y39.0158
G01 X30.7069 Y39.0085
G01 X30.7162 Y38.9960
G01 X30.7344 Y38.9687
G01 X30.8989 Y38.8042
G01 X31.0924 Y38.6750
G01 X31.3074 Y38.5859
G01 X31.5355 Y38.5405
G01 X31.7682 Y38.5405
G01 X31.9964 Y38.5859
G01 X32.2114 Y38.6750
G01 X32.4048 Y38.8042
G01 X32.5693 Y38.9687
G01 X32.6986 Y39.1622
G01 X32.7876 Y39.3772
G01 X32.8330 Y39.6053
G01 X32.8330 Y39.8380
G01 X32.7876 Y40.0662
G01 X32.6986 Y40.2812
G01 X32.5693 Y40.4746
G01 X32.4048 Y40.6391
G01 X32.2114 Y40.7684
G01 X31.9964 Y40.8574
G01 X31.7756 Y40.9015
G01 X31.7575 Y40.9062
G01 X31.7370 Y40.9134
G01 X31.7171 Y40.9224
G01 X31.7088 Y40.9267
G01 X31.6876 Y40.9398
G01 X31.6726 Y40.9509
G01 X31.6655 Y40.9569
G01 X31.6540 Y40.9674
G01 X31.6474 Y40.9741
G01 X31.6350 Y40.9881
G01 X31.6237 Y41.0030
G01 X31.6185 Y41.0107
G01 X31.6088 Y41.0267
G01 X31.6045 Y41.0350
G01 X31.5967 Y41.0520
G01 X31.5883 Y41.0754
G01 X31.5836 Y41.0935
G01 X31.5817 Y41.1027
G01 X31.5786 Y41.1242
G01 X31.5774 Y41.1491
G01 X31.5786 Y41.1740
G01 X31.5812 Y41.1925
G01 X31.5829 Y41.2017
G01 X31.5883 Y41.2228
G01 X31.5955 Y41.2434
G01 X31.6426 Y41.3572
G01 X31.6880 Y41.5853
G01 X31.6880 Y41.8180
G01 X31.6426 Y42.0462
G01 X31.5955 Y42.1600
G01 X31.5883 Y42.1805
G01 X31.5822 Y42.2047
G01 X31.5794 Y42.2232
G01 X31.5783 Y42.2325
G01 X31.5774 Y42.2511
G01 X31.5775 Y42.2605
G01 X31.5786 Y42.2791
G01 X31.5812 Y42.2976
G01 X31.5829 Y42.3068
G01 X31.5874 Y42.3249
G01 X31.5903 Y42.3338
G01 X31.5967 Y42.3514
G01 X31.6073 Y42.3739
G01 X31.6202 Y42.3953
G01 X31.6350 Y42.4153
G01 X31.6517 Y42.4338
G01 X31.6702 Y42.4505
G01 X31.6902 Y42.4653
G01 X31.7116 Y42.4781
G01 X31.7312 Y42.4876
G01 X31.7399 Y42.4910
G01 X31.7575 Y42.4972
G01 X31.7787 Y42.5026
G01 X31.9293 Y42.5325
G01 X31.9509 Y42.5356
G01 X31.9758 Y42.5369
G01 X32.0006 Y42.5356
G01 X32.0253 Y42.5320
G01 X32.0495 Y42.5259
G01 X32.0729 Y42.5175
G01 X32.0954 Y42.5069
G01 X32.1168 Y42.4941
G01 X32.1368 Y42.4792
G01 X32.1553 Y42.4625
G01 X42.1794 Y32.4384
G01 X42.1961 Y32.4199
G01 X42.2110 Y32.3999
G01 X42.2238 Y32.3785
G01 X42.2319 Y32.3617
G01 X42.2356 Y32.3531
G01 X42.2419 Y32.3355
G01 X42.2482 Y32.3114
G01 X42.2499 Y32.3023
G01 X42.2525 Y32.2838
G01 X42.2537 Y32.2589
G01 X42.2537 Y19.2578
G01 X42.2611 Y19.1835
G01 X42.2900 Y19.0881
G01 X42.3370 Y19.0001
G01 X42.4003 Y18.9231
G01 X42.4773 Y18.8598
G01 X42.5653 Y18.8128
G01 X42.6607 Y18.7839
G01 X42.7599 Y18.7741
G01 X42.8591 Y18.7839
G01 X42.9545 Y18.8128
G01 X43.0424 Y18.8598
G01 X43.1195 Y18.9231
G01 X43.1828 Y19.0001
G01 X43.2298 Y19.0881
G01 X43.2587 Y19.1835
G01 X43.2660 Y19.2578
G01 X43.2660 Y32.5364
G01 X43.2670 Y32.5581
G01 X43.2685 Y32.5737
G01 X43.2587 Y32.6729
G01 X43.2298 Y32.7683
G01 X43.1828 Y32.8562
G01 X43.1195 Y32.9333
G01 X43.1075 Y32.9432
G01 X43.0914 Y32.9580
G01 X32.8689 Y43.1805
G01 X32.8543 Y43.1967
G01 X32.8395 Y43.2168
G01 X32.8267 Y43.2381
G01 X32.8173 Y43.2578
G01 X32.8086 Y43.2811
G01 X32.8029 Y43.3022
G01 X32.8010 Y43.3113
G01 X32.7987 Y43.3267
G01 X32.7975 Y43.3391
G01 X32.7967 Y43.3578
G01 X32.7975 Y43.3765
G01 X32.7983 Y43.3858
G01 X32.8005 Y43.4012
G01 X32.8330 Y43.5653
G01 X32.8330 Y43.7698
G01 X32.4472 Y44.1556
G01 X32.4662 Y44.1240
G01 X32.4707 Y44.1158
G01 X32.5069 Y44.0392
G01 X32.5104 Y44.0305
G01 X32.5368 Y43.9566
G01 X32.5396 Y43.9477
G01 X32.5595 Y43.8686
G01 X32.5619 Y43.8564
G01 X32.5742 Y43.7725
G01 X32.5786 Y43.6848
G01 X32.5785 Y43.6755
G01 X32.5747 Y43.5970
G01 X32.5735 Y43.5847
G01 X32.5609 Y43.5009
G01 X32.5404 Y43.4186
G01 X32.5368 Y43.4067
G01 X32.5081 Y43.3270
G01 X32.4707 Y43.2476
G01 X32.4603 Y43.2295
G01 X42.9380 Y32.7518
G01 X42.9546 Y32.7335
G01 X42.9693 Y32.7136
G01 X42.9820 Y32.6924
G01 X42.9926 Y32.6701
G01 X43.0009 Y32.6468
G01 X43.0069 Y32.6228
G01 X43.0105 Y32.5984
G01 X43.0117 Y32.5737
G01 X43.0117 Y19.2796
G01 X43.0102 Y19.2549
G01 X43.0063 Y19.2305
G01 X43.0000 Y19.2066
G01 X42.9913 Y19.1834
G01 X42.9805 Y19.1612
G01 X42.9675 Y19.1402
G01 X42.9526 Y19.1205
G01 X42.9357 Y19.1024
G01 X42.9172 Y19.0860
G01 X42.8972 Y19.0716
G01 X42.8758 Y19.0591
G01 X42.8534 Y19.0488
G01 X42.8300 Y19.0408
G01 X42.8060 Y19.0351
G01 X42.7815 Y19.0318
G01 X42.7568 Y19.0309
G01 X42.7352 Y19.0320
G01 X42.7107 Y19.0357
G01 X42.6868 Y19.0417
G01 X42.6635 Y19.0500
G01 X42.6412 Y19.0606
G01 X42.6200 Y19.0733
G01 X42.6001 Y19.0880
G01 X42.5818 Y19.1046
G01 X42.5652 Y19.1229
G01 X42.5505 Y19.1428
G01 X42.5378 Y19.1640
G01 X42.5272 Y19.1863
G01 X42.5189 Y19.2096
G01 X42.5129 Y19.2335
G01 X42.5092 Y19.2580
G01 X42.5081 Y19.2796
G01 X42.5080 Y32.4694
G01 X32.1041 Y42.8733
G01 X32.0915 Y42.8658
G01 X32.0832 Y42.8615
G01 X32.0122 Y42.8280
G01 X32.0007 Y42.8232
G01 X31.9209 Y42.7948
G01 X31.8327 Y42.7727
G01 X31.7427 Y42.7593
G01 X31.6581 Y42.7550
G01 X31.6457 Y42.7550
G01 X31.5672 Y42.7589
G01 X31.5549 Y42.7601
G01 X31.4711 Y42.7727
G01 X31.3828 Y42.7948
G01 X31.2972 Y42.8254
G01 X31.2205 Y42.8615
G01 X31.2096 Y42.8674
G01 X31.1422 Y42.9077
G01 X31.1319 Y42.9147
G01 X31.0639 Y42.9653
G01 X31.0010 Y43.0220
G01 X30.9922 Y43.0308
G01 X30.9395 Y43.0890
G01 X30.9316 Y43.0986
G01 X30.8813 Y43.1668
G01 X30.8376 Y43.2394
G01 X30.8317 Y43.2503
G01 X30.7956 Y43.3270
G01 X30.7650 Y43.4126
G01 X30.7443 Y43.4948
G01 X30.7418 Y43.5070
G01 X30.7295 Y43.5908
G01 X30.7252 Y43.6755
G01 X30.7252 Y43.6879
G01 X30.7295 Y43.7725
G01 X30.7418 Y43.8564
G01 X30.7435 Y43.8655
G01 X30.7633 Y43.9447
G01 X30.7669 Y43.9566
G01 X30.7956 Y44.0364
G01 X30.8317 Y44.1130
G01 X30.8376 Y44.1240
G01 X30.8813 Y44.1966
G01 X30.9316 Y44.2647
G01 X30.9375 Y44.2720
G01 X30.9965 Y44.3370
G01 X31.0592 Y44.3940
G01 X31.0688 Y44.4019
G01 X31.1344 Y44.4505
G01 X31.1422 Y44.4556
G01 X31.2096 Y44.4960
G01 X31.2178 Y44.5005
G01 X31.2943 Y44.5367
G01 X31.3030 Y44.5402
G01 X31.3448 Y44.5551
G01 X30.8549 Y44.5551
G01 X30.7344 Y44.4346
G01 X30.7162 Y44.4074
G01 X30.7069 Y44.3949
G01 X30.7011 Y44.3876
G01 X30.6886 Y44.3737
G01 X30.6703 Y44.3568
G01 X30.6530 Y44.3435
G01 X30.6427 Y44.3366
G01 X30.6238 Y44.3257
G01 X30.6040 Y44.3165
G01 X30.5835 Y44.3090
G01 X30.5625 Y44.3034
G01 X30.5503 Y44.3009
G01 X30.5318 Y44.2984
G01 X30.5069 Y44.2971
G01 X30.4820 Y44.2984
G01 X30.4635 Y44.3009
G01 X30.4513 Y44.3034
G01 X30.4302 Y44.3090
G01 X30.4097 Y44.3165
G01 X30.3900 Y44.3257
G01 X30.3711 Y44.3366
G01 X30.3608 Y44.3435
G01 X30.3434 Y44.3568
G01 X30.3252 Y44.3737
G01 X30.3126 Y44.3876
G01 X30.3068 Y44.3949
G01 X30.2976 Y44.4074
G01 X30.2793 Y44.4346
G01 X30.1588 Y44.5551
G01 X29.6690 Y44.5551
G01 X29.7107 Y44.5402
G01 X29.7194 Y44.5367
G01 X29.7932 Y44.5018
G01 X29.8015 Y44.4975
G01 X29.8768 Y44.4523
G01 X29.9449 Y44.4019
G01 X29.9522 Y44.3961
G01 X30.0172 Y44.3370
G01 X30.0783 Y44.2696
G01 X30.1325 Y44.1966
G01 X30.1777 Y44.1213
G01 X30.1820 Y44.1130
G01 X30.2181 Y44.0364
G01 X30.2468 Y43.9566
G01 X30.2504 Y43.9447
G01 X30.2695 Y43.8686
G01 X30.2719 Y43.8564
G01 X30.2842 Y43.7725
G01 X30.2887 Y43.6817
G01 X30.2842 Y43.5908
G01 X30.2714 Y43.5039
G01 X30.2695 Y43.4948
G01 X30.2488 Y43.4126
G01 X30.2204 Y43.3328
G01 X30.2156 Y43.3213
G01 X30.1820 Y43.2503
G01 X30.1762 Y43.2394
G01 X30.1325 Y43.1668
G01 X30.0783 Y43.0937
G01 X30.0172 Y43.0263
G01 X29.9498 Y42.9653
G01 X29.8768 Y42.9111
G01 X29.8042 Y42.8674
G01 X29.7932 Y42.8615
G01 X29.7222 Y42.8280
G01 X29.7107 Y42.8232
G01 X29.6309 Y42.7948
G01 X29.5427 Y42.7727
G01 X29.4527 Y42.7593
G01 X29.3619 Y42.7549
G01 X29.2710 Y42.7593
G01 X29.1811 Y42.7727
G01 X29.0928 Y42.7948
G01 X29.0130 Y42.8232
G01 X29.0015 Y42.8280
G01 X28.9305 Y42.8615
G01 X28.9196 Y42.8674
G01 X28.8470 Y42.9111
G01 X28.7739 Y42.9653
G01 X28.7065 Y43.0263
G01 X28.6455 Y43.0937
G01 X28.5913 Y43.1668
G01 X28.5476 Y43.2394
G01 X28.5417 Y43.2503
G01 X28.5082 Y43.3213
G01 X28.5034 Y43.3328
G01 X28.4750 Y43.4126
G01 X28.4543 Y43.4948
G01 X28.4523 Y43.5039
G01 X28.4395 Y43.5908
G01 X28.4351 Y43.6817
G01 X28.4395 Y43.7725
G01 X28.4518 Y43.8564
G01 X28.4543 Y43.8686
G01 X28.4733 Y43.9447
G01 X28.4769 Y43.9566
G01 X28.5056 Y44.0364
G01 X28.5417 Y44.1130
G01 X28.5460 Y44.1213
G01 X28.5913 Y44.1966
G01 X28.6455 Y44.2696
G01 X28.7065 Y44.3370
G01 X28.7715 Y44.3961
G01 X28.7788 Y44.4019
G01 X28.8470 Y44.4523
G01 X28.9223 Y44.4975
G01 X28.9305 Y44.5018
G01 X29.0043 Y44.5367
G01 X29.0130 Y44.5402
G01 X29.0548 Y44.5551
G01 X28.5649 Y44.5551
G01 X28.4444 Y44.4346
G01 X28.4262 Y44.4074
G01 X28.4169 Y44.3949
G01 X28.4111 Y44.3876
G01 X28.3986 Y44.3737
G01 X28.3803 Y44.3568
G01 X28.3630 Y44.3435
G01 X28.3527 Y44.3366
G01 X28.3338 Y44.3257
G01 X28.3140 Y44.3165
G01 X28.2935 Y44.3090
G01 X28.2725 Y44.3034
G01 X28.2603 Y44.3009
G01 X28.2418 Y44.2984
G01 X28.2169 Y44.2971
G01 X28.1920 Y44.2984
G01 X28.1735 Y44.3009
G01 X28.1613 Y44.3034
G01 X28.1402 Y44.3090
G01 X28.1197 Y44.3165
G01 X28.1000 Y44.3257
G01 X28.0811 Y44.3366
G01 X28.0708 Y44.3435
G01 X28.0534 Y44.3568
G01 X28.0352 Y44.3737
G01 X28.0226 Y44.3876
G01 X28.0168 Y44.3949
G01 X28.0076 Y44.4074
G01 X27.9893 Y44.4346
G01 X27.8688 Y44.5551
G01 X27.3790 Y44.5551
G01 X27.4207 Y44.5402
G01 X27.4294 Y44.5367
G01 X27.5032 Y44.5018
G01 X27.5115 Y44.4975
G01 X27.5868 Y44.4523
G01 X27.6549 Y44.4019
G01 X27.6622 Y44.3961
G01 X27.7272 Y44.3370
G01 X27.7883 Y44.2696
G01 X27.8425 Y44.1966
G01 X27.8877 Y44.1213
G01 X27.8920 Y44.1130
G01 X27.9281 Y44.0364
G01 X27.9568 Y43.9566
G01 X27.9604 Y43.9447
G01 X27.9795 Y43.8686
G01 X27.9819 Y43.8564
G01 X27.9942 Y43.7725
G01 X27.9987 Y43.6817
G01 X27.9942 Y43.5908
G01 X27.9814 Y43.5039
G01 X27.9795 Y43.4948
G01 X27.9588 Y43.4126
G01 X27.9304 Y43.3328
G01 X27.9256 Y43.3213
G01 X27.8920 Y43.2503
G01 X27.8862 Y43.2394
G01 X27.8425 Y43.1668
G01 X27.7883 Y43.0937
G01 X27.7272 Y43.0263
G01 X27.6598 Y42.9653
G01 X27.5868 Y42.9111
G01 X27.5142 Y42.8674
G01 X27.5032 Y42.8615
G01 X27.4322 Y42.8280
G01 X27.4207 Y42.8232
G01 X27.3409 Y42.7948
G01 X27.2527 Y42.7727
G01 X27.1627 Y42.7593
G01 X27.0719 Y42.7549
G01 X26.9872 Y42.7589
G01 X26.9749 Y42.7601
G01 X26.8911 Y42.7727
G01 X26.8028 Y42.7948
G01 X26.7172 Y42.8254
G01 X26.6405 Y42.8615
G01 X26.6296 Y42.8674
G01 X26.5570 Y42.9111
G01 X26.4839 Y42.9653
G01 X26.4210 Y43.0220
G01 X26.4122 Y43.0308
G01 X26.3555 Y43.0937
G01 X26.3013 Y43.1668
G01 X26.2576 Y43.2394
G01 X26.2517 Y43.2503
G01 X26.2156 Y43.3270
G01 X26.1850 Y43.4126
G01 X26.1629 Y43.5009
G01 X26.1495 Y43.5908
G01 X26.1451 Y43.6817
G01 X26.1495 Y43.7725
G01 X26.1629 Y43.8625
G01 X26.1850 Y43.9507
G01 X26.2134 Y44.0305
G01 X26.2169 Y44.0392
G01 X26.2545 Y44.1186
G01 X26.3013 Y44.1966
G01 X26.3555 Y44.2696
G01 X26.4122 Y44.3325
G01 X26.4188 Y44.3392
G01 X26.4839 Y44.3981
G01 X26.5519 Y44.4487
G01 X26.5596 Y44.4540
G01 X26.6296 Y44.4960
G01 X26.6378 Y44.5005
G01 X26.7143 Y44.5367
G01 X26.7230 Y44.5402
G01 X26.7648 Y44.5551
G01 X26.3298 Y44.5551
G01 X25.6803 Y43.9055
G01 X25.6895 Y43.8686
G01 X25.6914 Y43.8594
G01 X25.7039 Y43.7756
G01 X25.7047 Y43.7663
G01 X25.7086 Y43.6848
G01 X25.7085 Y43.6755
G01 X25.7042 Y43.5908
G01 X25.6919 Y43.5070
G01 X25.6902 Y43.4978
G01 X25.6704 Y43.4186
G01 X25.6668 Y43.4067
G01 X25.6381 Y43.3270
G01 X25.6020 Y43.2503
G01 X25.5962 Y43.2394
G01 X25.5525 Y43.1668
G01 X25.5021 Y43.0986
G01 X25.4963 Y43.0913
G01 X25.4372 Y43.0263
G01 X25.3745 Y42.9693
G01 X25.3649 Y42.9614
G01 X25.3019 Y42.9147
G01 X25.2915 Y42.9077
G01 X25.2188 Y42.8643
G01 X25.1422 Y42.8280
G01 X25.1307 Y42.8232
G01 X25.0509 Y42.7948
G01 X24.9627 Y42.7727
G01 X24.8727 Y42.7593
G01 X24.7881 Y42.7550
G01 X24.7788 Y42.7549
G01 X24.6972 Y42.7589
G01 X24.6849 Y42.7601
G01 X24.6011 Y42.7727
G01 X24.5188 Y42.7931
G01 X24.5069 Y42.7967
G01 X24.4272 Y42.8254
G01 X24.3450 Y42.8643
G01 X24.2670 Y42.9111
G01 X24.1988 Y42.9614
G01 X24.1892 Y42.9693
G01 X24.1265 Y43.0263
G01 X24.0695 Y43.0890
G01 X24.0616 Y43.0986
G01 X24.0149 Y43.1617
G01 X24.0079 Y43.1720
G01 X23.9645 Y43.2448
G01 X23.9282 Y43.3213
G01 X23.9234 Y43.3328
G01 X23.8950 Y43.4126
G01 X23.8743 Y43.4948
G01 X23.8718 Y43.5070
G01 X23.8599 Y43.5877
G01 X23.8591 Y43.5970
G01 X23.8551 Y43.6817
G01 X23.8591 Y43.7663
G01 X23.8599 Y43.7756
G01 X23.8718 Y43.8564
G01 X23.8743 Y43.8686
G01 X23.8950 Y43.9507
G01 X23.9157 Y44.0092
G01 X23.7115 Y44.2135
G01 X23.6915 Y44.2128
G01 X23.6668 Y44.2142
G01 X23.6423 Y44.2179
G01 X23.6184 Y44.2241
G01 X23.5951 Y44.2325
G01 X23.5728 Y44.2432
G01 X23.5516 Y44.2559
G01 X23.5342 Y44.2688
G01 X23.5271 Y44.2748
G01 X23.5135 Y44.2874
G01 X23.4989 Y44.3034
G01 X23.4931 Y44.3106
G01 X23.4822 Y44.3256
G01 X23.4093 Y44.4346
G01 X23.2448 Y44.5991
G01 X23.0514 Y44.7284
G01 X22.8364 Y44.8174
G01 X22.6082 Y44.8628
G00 Z5.0000
G00 X27.8650 Y42.8015
G01 F60.00
G01 Z-0.1000
G01 F100.00
G01 X27.8900 Y42.8094
G01 X27.9745 Y42.8307
G01 X27.9915 Y42.8345
G01 X28.0087 Y42.8375
G01 X28.0864 Y42.8490
G01 X28.1123 Y42.8519
G01 X28.2082 Y42.8566
G01 X28.2343 Y42.8563
G01 X28.3127 Y42.8524
G01 X28.3301 Y42.8512
G01 X28.3474 Y42.8490
G01 X28.4250 Y42.8375
G01 X28.4422 Y42.8345
G01 X28.4592 Y42.8307
G01 X28.5354 Y42.8116
G01 X28.5522 Y42.8070
G01 X28.5687 Y42.8015
G01 X28.6513 Y42.7718
G01 X28.6359 Y42.7834
G01 X28.6225 Y42.7944
G01 X28.5514 Y42.8589
G01 X28.5331 Y42.8776
G01 X28.4746 Y42.9423
G01 X28.4583 Y42.9627
G01 X28.4115 Y43.0257
G01 X28.4015 Y43.0400
G01 X28.3922 Y43.0547
G01 X28.3474 Y43.1296
G01 X28.3354 Y43.1528
G01 X28.3018 Y43.2237
G01 X28.2948 Y43.2397
G01 X28.2885 Y43.2559
G01 X28.2592 Y43.3381
G01 X28.2519 Y43.3632
G01 X28.2308 Y43.4478
G01 X28.2261 Y43.4735
G01 X28.2169 Y43.5354
G01 X28.2077 Y43.4735
G01 X28.2029 Y43.4478
G01 X28.1818 Y43.3632
G01 X28.1746 Y43.3381
G01 X28.1453 Y43.2559
G01 X28.1390 Y43.2397
G01 X28.1319 Y43.2237
G01 X28.0984 Y43.1528
G01 X28.0863 Y43.1296
G01 X28.0416 Y43.0547
G01 X28.0323 Y43.0400
G01 X28.0222 Y43.0257
G01 X27.9755 Y42.9627
G01 X27.9591 Y42.9423
G01 X27.9006 Y42.8776
G01 X27.8824 Y42.8589
G01 X27.8113 Y42.7944
G01 X27.7978 Y42.7834
G01 X27.7824 Y42.7718
G01 X27.8650 Y42.8015
G00 Z5.0000
G00 X28.9496 Y42.5945
G01 F60.00
G01 Z-0.1000
G01 F100.00
G01 X28.9628 Y42.5832
G01 X29.0210 Y42.5304
G01 X29.0336 Y42.5184
G01 X29.0456 Y42.5058
G01 X29.0984 Y42.4476
G01 X29.1097 Y42.4344
G01 X29.1205 Y42.4207
G01 X29.1672 Y42.3576
G01 X29.1773 Y42.3434
G01 X29.1866 Y42.3287
G01 X29.2313 Y42.2538
G01 X29.2434 Y42.2306
G01 X29.2769 Y42.1596
G01 X29.2840 Y42.1437
G01 X29.2903 Y42.1274
G01 X29.3196 Y42.0453
G01 X29.3268 Y42.0202
G01 X29.3479 Y41.9355
G01 X29.3527 Y41.9098
G01 X29.3619 Y41.8480
G01 X29.3711 Y41.9098
G01 X29.3758 Y41.9355
G01 X29.3969 Y42.0202
G01 X29.4042 Y42.0453
G01 X29.4335 Y42.1274
G01 X29.4398 Y42.1437
G01 X29.4468 Y42.1596
G01 X29.4804 Y42.2306
G01 X29.4924 Y42.2538
G01 X29.5372 Y42.3287
G01 X29.5465 Y42.3434
G01 X29.5565 Y42.3576
G01 X29.6033 Y42.4207
G01 X29.6196 Y42.4411
G01 X29.6781 Y42.5058
G01 X29.6964 Y42.5245
G01 X29.7675 Y42.5889
G01 X29.7809 Y42.6000
G01 X29.7963 Y42.6115
G01 X29.7137 Y42.5818
G01 X29.6972 Y42.5764
G01 X29.6804 Y42.5717
G01 X29.6042 Y42.5527
G01 X29.5872 Y42.5488
G01 X29.5700 Y42.5459
G01 X29.4924 Y42.5343
G01 X29.4751 Y42.5322
G01 X29.4577 Y42.5309
G01 X29.3706 Y42.5267
G01 X29.3445 Y42.5271
G01 X29.2660 Y42.5309
G01 X29.2487 Y42.5322
G01 X29.2314 Y42.5343
G01 X29.1537 Y42.5459
G01 X29.1365 Y42.5488
G01 X29.1195 Y42.5527
G01 X29.0434 Y42.5717
G01 X29.0266 Y42.5764
G01 X29.0100 Y42.5818
G01 X28.9274 Y42.6115
G01 X28.9496 Y42.5945
G00 Z5.0000
G00 X29.1435 Y41.6955
G01 F60.00
G01 Z-0.1000
G01 F100.00
G01 X29.1435 Y41.7079
G01 X29.1392 Y41.7925
G01 X29.1259 Y41.8825
G01 X29.1038 Y41.9707
G01 X29.0731 Y42.0564
G01 X29.0342 Y42.1386
G01 X28.9875 Y42.2166
G01 X28.9333 Y42.2896
G01 X28.8722 Y42.3570
G01 X28.8048 Y42.4181
G01 X28.7318 Y42.4723
G01 X28.6538 Y42.5190
G01 X28.5716 Y42.5579
G01 X28.4859 Y42.5886
G01 X28.3977 Y42.6107
G01 X28.3077 Y42.6240
G01 X28.2169 Y42.6285
G01 X28.1260 Y42.6240
G01 X28.0361 Y42.6107
G01 X27.9478 Y42.5886
G01 X27.8622 Y42.5579
G01 X27.7800 Y42.5190
G01 X27.7020 Y42.4723
G01 X27.6289 Y42.4181
G01 X27.5615 Y42.3570
G01 X27.5005 Y42.2896
G01 X27.4463 Y42.2166
G01 X27.3995 Y42.1386
G01 X27.3606 Y42.0564
G01 X27.3300 Y41.9707
G01 X27.3079 Y41.8825
G01 X27.2945 Y41.7925
G01 X27.2901 Y41.7017
G01 X27.2945 Y41.6108
G01 X27.3079 Y41.5209
G01 X27.3300 Y41.4326
G01 X27.3606 Y41.3470
G01 X27.3995 Y41.2648
G01 X27.4463 Y41.1868
G01 X27.5005 Y41.1137
G01 X27.5615 Y41.0463
G01 X27.6289 Y40.9853
G01 X27.7020 Y40.9311
G01 X27.7800 Y40.8843
G01 X27.8622 Y40.8454
G01 X27.9478 Y40.8148
G01 X28.0361 Y40.7927
G01 X28.1260 Y40.7793
G01 X28.2169 Y40.7749
G01 X28.3077 Y40.7793
G01 X28.3977 Y40.7927
G01 X28.4859 Y40.8148
G01 X28.5716 Y40.8454
G01 X28.6538 Y40.8843
G01 X28.7318 Y40.9311
G01 X28.8048 Y40.9853
G01 X28.8722 Y41.0463
G01 X28.9333 Y41.1137
G01 X28.9875 Y41.1868
G01 X29.0342 Y41.2648
G01 X29.0731 Y41.3470
G01 X29.1038 Y41.4326
G01 X29.1259 Y41.5209
G01 X29.1392 Y41.6108
G01 X29.1435 Y41.6955
G00 Z5.0000
G00 X28.9361 Y40.7951
G01 F60.00
G01 Z-0.1000
G01 F100.00
G01 X29.0100 Y40.8215
G01 X29.0266 Y40.8270
G01 X29.0434 Y40.8316
G01 X29.1195 Y40.8507
G01 X29.1365 Y40.8545
G01 X29.1537 Y40.8575
G01 X29.2314 Y40.8690
G01 X29.2487 Y40.8712
G01 X29.2660 Y40.8724
G01 X29.3445 Y40.8763
G01 X29.3619 Y40.8767
G01 X29.3793 Y40.8763
G01 X29.4577 Y40.8724
G01 X29.4751 Y40.8712
G01 X29.4924 Y40.8690
G01 X29.5700 Y40.8575
G01 X29.5872 Y40.8545
G01 X29.6042 Y40.8507
G01 X29.6804 Y40.8316
G01 X29.6972 Y40.8270
G01 X29.7137 Y40.8215
G01 X29.7963 Y40.7918
G01 X29.7809 Y40.8034
G01 X29.7675 Y40.8144
G01 X29.6964 Y40.8789
G01 X29.6781 Y40.8976
G01 X29.6196 Y40.9623
G01 X29.6033 Y40.9827
G01 X29.5565 Y41.0457
G01 X29.5465 Y41.0600
G01 X29.5372 Y41.0747
G01 X29.4924 Y41.1496
G01 X29.4804 Y41.1728
G01 X29.4468 Y41.2437
G01 X29.4398 Y41.2597
G01 X29.4335 Y41.2759
G01 X29.4042 Y41.3581
G01 X29.3969 Y41.3832
G01 X29.3758 Y41.4678
G01 X29.3711 Y41.4935
G01 X29.3619 Y41.5554
G01 X29.3527 Y41.4935
G01 X29.3479 Y41.4678
G01 X29.3268 Y41.3832
G01 X29.3196 Y41.3581
G01 X29.2903 Y41.2759
G01 X29.2840 Y41.2597
G01 X29.2769 Y41.2437
G01 X29.2434 Y41.1728
G01 X29.2313 Y41.1496
G01 X29.1866 Y41.0747
G01 X29.1773 Y41.0600
G01 X29.1672 Y41.0457
G01 X29.1205 Y40.9827
G01 X29.1097 Y40.9689
G01 X29.0984 Y40.9557
G01 X29.0456 Y40.8976
G01 X29.0274 Y40.8789
G01 X28.9563 Y40.8144
G01 X28.9428 Y40.8034
G01 X28.9274 Y40.7918
G01 X28.9361 Y40.7951
G00 Z5.0000
G00 X27.7909 Y40.6253
G01 F60.00
G01 Z-0.1000
G01 F100.00
G01 X27.8046 Y40.6145
G01 X27.8178 Y40.6032
G01 X27.8760 Y40.5504
G01 X27.8886 Y40.5384
G01 X27.9006 Y40.5258
G01 X27.9534 Y40.4676
G01 X27.9647 Y40.4544
G01 X27.9755 Y40.4407
G01 X28.0222 Y40.3776
G01 X28.0323 Y40.3634
G01 X28.0416 Y40.3487
G01 X28.0863 Y40.2738
G01 X28.0984 Y40.2506
G01 X28.1319 Y40.1796
G01 X28.1390 Y40.1637
G01 X28.1453 Y40.1474
G01 X28.1746 Y40.0653
G01 X28.1818 Y40.0402
G01 X28.2029 Y39.9555
G01 X28.2077 Y39.9298
G01 X28.2169 Y39.8680
G01 X28.2261 Y39.9298
G01 X28.2308 Y39.9555
G01 X28.2519 Y40.0402
G01 X28.2592 Y40.0653
G01 X28.2885 Y40.1474
G01 X28.2948 Y40.1637
G01 X28.3018 Y40.1796
G01 X28.3354 Y40.2506
G01 X28.3474 Y40.2738
G01 X28.3922 Y40.3487
G01 X28.4015 Y40.3634
G01 X28.4115 Y40.3776
G01 X28.4583 Y40.4407
G01 X28.4746 Y40.4611
G01 X28.5331 Y40.5258
G01 X28.5514 Y40.5445
G01 X28.6225 Y40.6089
G01 X28.6359 Y40.6200
G01 X28.6513 Y40.6315
G01 X28.5687 Y40.6018
G01 X28.5522 Y40.5964
G01 X28.5354 Y40.5917
G01 X28.4592 Y40.5727
G01 X28.4422 Y40.5688
G01 X28.4250 Y40.5659
G01 X28.3474 Y40.5543
G01 X28.3301 Y40.5522
G01 X28.3127 Y40.5509
G01 X28.2343 Y40.5471
G01 X28.2169 Y40.5466
G01 X28.1995 Y40.5471
G01 X28.1210 Y40.5509
G01 X28.1037 Y40.5522
G01 X28.0864 Y40.5543
G01 X28.0001 Y40.5672
G01 X27.9745 Y40.5727
G01 X27.8984 Y40.5917
G01 X27.8816 Y40.5964
G01 X27.8650 Y40.6018
G01 X27.7824 Y40.6315
G01 X27.7909 Y40.6253
G00 Z5.0000
G00 X28.2077 Y39.5135
G01 F60.00
G01 Z-0.1000
G01 F100.00
G01 X28.2029 Y39.4878
G01 X28.1796 Y39.3948
G01 X28.1746 Y39.3781
G01 X28.1577 Y39.3307
G01 X28.1783 Y39.3329
G01 X28.1995 Y39.3340
G01 X28.2169 Y39.3345
G01 X28.2343 Y39.3340
G01 X28.2555 Y39.3329
G01 X28.2760 Y39.3307
G01 X28.2620 Y39.3698
G01 X28.2566 Y39.3864
G01 X28.2519 Y39.4032
G01 X28.2329 Y39.4793
G01 X28.2274 Y39.5049
G01 X28.2169 Y39.5754
G01 X28.2077 Y39.5135
G00 Z5.0000
G00 X30.2885 Y39.7155
G01 F60.00
G01 Z-0.1000
G01 F100.00
G01 X30.2885 Y39.7279
G01 X30.2842 Y39.8125
G01 X30.2709 Y39.9025
G01 X30.2488 Y39.9907
G01 X30.2181 Y40.0764
G01 X30.1792 Y40.1586
G01 X30.1325 Y40.2366
G01 X30.0783 Y40.3096
G01 X30.0172 Y40.3770
G01 X29.9498 Y40.4381
G01 X29.8768 Y40.4923
G01 X29.7988 Y40.5390
G01 X29.7166 Y40.5779
G01 X29.6309 Y40.6086
G01 X29.5427 Y40.6307
G01 X29.4527 Y40.6440
G01 X29.3619 Y40.6485
G01 X29.2710 Y40.6440
G01 X29.1811 Y40.6307
G01 X29.0928 Y40.6086
G01 X29.0072 Y40.5779
G01 X28.9250 Y40.5390
G01 X28.8470 Y40.4923
G01 X28.7739 Y40.4381
G01 X28.7065 Y40.3770
G01 X28.6455 Y40.3096
G01 X28.5913 Y40.2366
G01 X28.5445 Y40.1586
G01 X28.5056 Y40.0764
G01 X28.4750 Y39.9907
G01 X28.4529 Y39.9025
G01 X28.4395 Y39.8125
G01 X28.4351 Y39.7217
G01 X28.4395 Y39.6308
G01 X28.4529 Y39.5409
G01 X28.4750 Y39.4526
G01 X28.5056 Y39.3670
G01 X28.5445 Y39.2848
G01 X28.5913 Y39.2068
G01 X28.6455 Y39.1337
G01 X28.7065 Y39.0663
G01 X28.7739 Y39.0053
G01 X28.8470 Y38.9511
G01 X28.9250 Y38.9043
G01 X29.0072 Y38.8654
G01 X29.0928 Y38.8348
G01 X29.1811 Y38.8127
G01 X29.2710 Y38.7993
G01 X29.3619 Y38.7949
G01 X29.4527 Y38.7993
G01 X29.5427 Y38.8127
G01 X29.6309 Y38.8348
G01 X29.7166 Y38.8654
G01 X29.7988 Y38.9043
G01 X29.8768 Y38.9511
G01 X29.9498 Y39.0053
G01 X30.0172 Y39.0663
G01 X30.0783 Y39.1337
G01 X30.1325 Y39.2068
G01 X30.1792 Y39.2848
G01 X30.2181 Y39.3670
G01 X30.2488 Y39.4526
G01 X30.2709 Y39.5409
G01 X30.2842 Y39.6308
G01 X30.2885 Y39.7155
G00 Z5.0000
G00 X30.4510 Y39.3312
G01 F60.00
G01 Z-0.1000
G01 F100.00
G01 X30.4770 Y39.3334
G01 X30.5069 Y39.3345
G01 X30.5243 Y39.3340
G01 X30.5455 Y39.3329
G01 X30.5660 Y39.3307
G01 X30.5520 Y39.3698
G01 X30.5466 Y39.3864
G01 X30.5419 Y39.4032
G01 X30.5229 Y39.4793
G01 X30.5174 Y39.5049
G01 X30.5069 Y39.5754
G01 X30.4977 Y39.5135
G01 X30.4929 Y39.4878
G01 X30.4696 Y39.3948
G01 X30.4646 Y39.3781
G01 X30.4477 Y39.3307
G01 X30.4510 Y39.3312
G00 Z5.0000
G00 X30.0878 Y40.6200
G01 F60.00
G01 Z-0.1000
G01 F100.00
G01 X30.1078 Y40.6032
G01 X30.1660 Y40.5504
G01 X30.1786 Y40.5384
G01 X30.1906 Y40.5258
G01 X30.2434 Y40.4676
G01 X30.2547 Y40.4544
G01 X30.2655 Y40.4407
G01 X30.3122 Y40.3776
G01 X30.3223 Y40.3634
G01 X30.3316 Y40.3487
G01 X30.3763 Y40.2738
G01 X30.3884 Y40.2506
G01 X30.4219 Y40.1796
G01 X30.4290 Y40.1637
G01 X30.4353 Y40.1474
G01 X30.4646 Y40.0653
G01 X30.4718 Y40.0402
G01 X30.4929 Y39.9555
G01 X30.4977 Y39.9298
G01 X30.5069 Y39.8680
G01 X30.5161 Y39.9298
G01 X30.5208 Y39.9555
G01 X30.5419 Y40.0402
G01 X30.5492 Y40.0653
G01 X30.5785 Y40.1474
G01 X30.5848 Y40.1637
G01 X30.5918 Y40.1796
G01 X30.6254 Y40.2506
G01 X30.6374 Y40.2738
G01 X30.6822 Y40.3487
G01 X30.6915 Y40.3634
G01 X30.7015 Y40.3776
G01 X30.7483 Y40.4407
G01 X30.7646 Y40.4611
G01 X30.8231 Y40.5258
G01 X30.8414 Y40.5445
G01 X30.9125 Y40.6089
G01 X30.9259 Y40.6200
G01 X30.9413 Y40.6315
G01 X30.8587 Y40.6018
G01 X30.8422 Y40.5964
G01 X30.8254 Y40.5917
G01 X30.7492 Y40.5727
G01 X30.7322 Y40.5688
G01 X30.7150 Y40.5659
G01 X30.6374 Y40.5543
G01 X30.6201 Y40.5522
G01 X30.6027 Y40.5509
G01 X30.5156 Y40.5467
G01 X30.4895 Y40.5471
G01 X30.4110 Y40.5509
G01 X30.3937 Y40.5522
G01 X30.3764 Y40.5543
G01 X30.2987 Y40.5659
G01 X30.2815 Y40.5688
G01 X30.2645 Y40.5727
G01 X30.1884 Y40.5917
G01 X30.1716 Y40.5964
G01 X30.1550 Y40.6018
G01 X30.0724 Y40.6315
G01 X30.0878 Y40.6200
G00 Z5.0000
G00 X31.4404 Y40.8670
G01 F60.00
G01 Z-0.1000
G01 F100.00
G01 X31.4256 Y40.8886
G01 X31.4103 Y40.9142
G01 X31.4020 Y40.9296
G01 X31.3892 Y40.9567
G01 X31.3356 Y40.8976
G01 X31.3174 Y40.8789
G01 X31.2463 Y40.8144
G01 X31.2328 Y40.8034
G01 X31.2174 Y40.7918
G01 X31.3000 Y40.8215
G01 X31.3250 Y40.8294
G01 X31.4180 Y40.8527
G01 X31.4351 Y40.8561
G01 X31.4471 Y40.8580
G01 X31.4404 Y40.8670
G00 Z5.0000
G00 X31.4335 Y41.6955
G01 F60.00
G01 Z-0.1000
G01 F100.00
G01 X31.4335 Y41.7079
G01 X31.4292 Y41.7925
G01 X31.4159 Y41.8825
G01 X31.3938 Y41.9707
G01 X31.3631 Y42.0564
G01 X31.3242 Y42.1386
G01 X31.2775 Y42.2166
G01 X31.2233 Y42.2896
G01 X31.1622 Y42.3570
G01 X31.0948 Y42.4181
G01 X31.0218 Y42.4723
G01 X30.9438 Y42.5190
G01 X30.8616 Y42.5579
G01 X30.7759 Y42.5886
G01 X30.6877 Y42.6107
G01 X30.5977 Y42.6240
G01 X30.5069 Y42.6285
G01 X30.4160 Y42.6240
G01 X30.3261 Y42.6107
G01 X30.2378 Y42.5886
G01 X30.1522 Y42.5579
G01 X30.0700 Y42.5190
G01 X29.9920 Y42.4723
G01 X29.9189 Y42.4181
G01 X29.8515 Y42.3570
G01 X29.7905 Y42.2896
G01 X29.7363 Y42.2166
G01 X29.6895 Y42.1386
G01 X29.6506 Y42.0564
G01 X29.6200 Y41.9707
G01 X29.5979 Y41.8825
G01 X29.5845 Y41.7925
G01 X29.5801 Y41.7017
G01 X29.5845 Y41.6108
G01 X29.5979 Y41.5209
G01 X29.6200 Y41.4326
G01 X29.6506 Y41.3470
G01 X29.6895 Y41.2648
G01 X29.7363 Y41.1868
G01 X29.7905 Y41.1137
G01 X29.8515 Y41.0463
G01 X29.9189 Y40.9853
G01 X29.9920 Y40.9311
G01 X30.0700 Y40.8843
G01 X30.1522 Y40.8454
G01 X30.2378 Y40.8148
G01 X30.3261 Y40.7927
G01 X30.4160 Y40.7793
G01 X30.5069 Y40.7749
G01 X30.5977 Y40.7793
G01 X30.6877 Y40.7927
G01 X30.7759 Y40.8148
G01 X30.8616 Y40.8454
G01 X30.9438 Y40.8843
G01 X31.0218 Y40.9311
G01 X31.0948 Y40.9853
G01 X31.1622 Y41.0463
G01 X31.2233 Y41.1137
G01 X31.2775 Y41.1868
G01 X31.3242 Y41.2648
G01 X31.3631 Y41.3470
G01 X31.3938 Y41.4326
G01 X31.4159 Y41.5209
G01 X31.4292 Y41.6108
G01 X31.4335 Y41.6955
G00 Z5.0000
G00 X31.3893 Y42.4467
G01 F60.00
G01 Z-0.1000
G01 F100.00
G01 X31.4020 Y42.4738
G01 X31.4146 Y42.4967
G01 X31.4304 Y42.5221
G01 X31.4471 Y42.5454
G01 X31.4351 Y42.5472
G01 X31.4180 Y42.5506
G01 X31.3250 Y42.5739
G01 X31.3000 Y42.5818
G01 X31.2174 Y42.6115
G01 X31.2328 Y42.6000
G01 X31.2463 Y42.5889
G01 X31.3174 Y42.5245
G01 X31.3356 Y42.5058
G01 X31.3893 Y42.4467
G00 Z5.0000
G00 X30.9259 Y42.7834
G01 F60.00
G01 Z-0.1000
G01 F100.00
G01 X30.9059 Y42.8002
G01 X30.8478 Y42.8529
G01 X30.8351 Y42.8649
G01 X30.8231 Y42.8776
G01 X30.7704 Y42.9357
G01 X30.7590 Y42.9489
G01 X30.7483 Y42.9627
G01 X30.7015 Y43.0257
G01 X30.6915 Y43.0400
G01 X30.6822 Y43.0547
G01 X30.6374 Y43.1296
G01 X30.6254 Y43.1528
G01 X30.5918 Y43.2237
G01 X30.5848 Y43.2397
G01 X30.5785 Y43.2559
G01 X30.5492 Y43.3381
G01 X30.5419 Y43.3632
G01 X30.5208 Y43.4478
G01 X30.5161 Y43.4735
G01 X30.5069 Y43.5354
G01 X30.4977 Y43.4735
G01 X30.4929 Y43.4478
G01 X30.4718 Y43.3632
G01 X30.4646 Y43.3381
G01 X30.4353 Y43.2559
G01 X30.4290 Y43.2397
G01 X30.4219 Y43.2237
G01 X30.3884 Y43.1528
G01 X30.3763 Y43.1296
G01 X30.3316 Y43.0547
G01 X30.3223 Y43.0400
G01 X30.3122 Y43.0257
G01 X30.2655 Y42.9627
G01 X30.2491 Y42.9423
G01 X30.1906 Y42.8776
G01 X30.1724 Y42.8589
G01 X30.1013 Y42.7944
G01 X30.0878 Y42.7834
G01 X30.0724 Y42.7718
G01 X30.1550 Y42.8015
G01 X30.1716 Y42.8070
G01 X30.1884 Y42.8116
G01 X30.2645 Y42.8307
G01 X30.2815 Y42.8345
G01 X30.2987 Y42.8375
G01 X30.3764 Y42.8490
G01 X30.3937 Y42.8512
G01 X30.4110 Y42.8524
G01 X30.4982 Y42.8566
G01 X30.5243 Y42.8563
G01 X30.6027 Y42.8524
G01 X30.6201 Y42.8512
G01 X30.6374 Y42.8490
G01 X30.7150 Y42.8375
G01 X30.7322 Y42.8345
G01 X30.7492 Y42.8307
G01 X30.8254 Y42.8116
G01 X30.8422 Y42.8070
G01 X30.8587 Y42.8015
G01 X30.9413 Y42.7718
G01 X30.9259 Y42.7834
G00 Z5.0000
G00 X30.5628 Y44.0722
G01 F60.00
G01 Z-0.1000
G01 F100.00
G01 X30.5368 Y44.0699
G01 X30.5069 Y44.0689
G01 X30.4895 Y44.0693
G01 X30.4683 Y44.0705
G01 X30.4477 Y44.0726
G01 X30.4617 Y44.0335
G01 X30.4672 Y44.0170
G01 X30.4718 Y44.0002
G01 X30.4909 Y43.9240
G01 X30.4963 Y43.8985
G01 X30.5069 Y43.8280
G01 X30.5161 Y43.8898
G01 X30.5208 Y43.9155
G01 X30.5441 Y44.0086
G01 X30.5492 Y44.0253
G01 X30.5660 Y44.0726
G01 X30.5628 Y44.0722
G00 Z5.0000
G00 X32.0477 Y44.5551
G01 F60.00
G01 Z-0.1000
G01 F100.00
G01 X31.9590 Y44.5551
G01 X32.0007 Y44.5402
G01 X32.0122 Y44.5354
G01 X32.0860 Y44.5005
G01 X32.0942 Y44.4960
G01 X32.1258 Y44.4770
G01 X32.0477 Y44.5551
G00 Z5.0000
G00 X28.2728 Y44.0722
G01 F60.00
G01 Z-0.1000
G01 F100.00
G01 X28.2468 Y44.0699
G01 X28.2169 Y44.0689
G01 X28.1995 Y44.0693
G01 X28.1783 Y44.0705
G01 X28.1577 Y44.0726
G01 X28.1717 Y44.0335
G01 X28.1772 Y44.0170
G01 X28.1818 Y44.0002
G01 X28.2009 Y43.9240
G01 X28.2063 Y43.8985
G01 X28.2169 Y43.8280
G01 X28.2261 Y43.8898
G01 X28.2308 Y43.9155
G01 X28.2541 Y44.0086
G01 X28.2592 Y44.0253
G01 X28.2760 Y44.0726
G01 X28.2728 Y44.0722
G00 Z5.0000
G00 X32.5785 Y39.7155
G01 F60.00
G01 Z-0.1000
G01 F100.00
G01 X32.5785 Y39.7279
G01 X32.5742 Y39.8125
G01 X32.5609 Y39.9025
G01 X32.5388 Y39.9907
G01 X32.5081 Y40.0764
G01 X32.4692 Y40.1586
G01 X32.4225 Y40.2366
G01 X32.3683 Y40.3096
G01 X32.3072 Y40.3770
G01 X32.2398 Y40.4381
G01 X32.1668 Y40.4923
G01 X32.0888 Y40.5390
G01 X32.0066 Y40.5779
G01 X31.9209 Y40.6086
G01 X31.8327 Y40.6307
G01 X31.7427 Y40.6440
G01 X31.6519 Y40.6485
G01 X31.5610 Y40.6440
G01 X31.4711 Y40.6307
G01 X31.3828 Y40.6086
G01 X31.2972 Y40.5779
G01 X31.2150 Y40.5390
G01 X31.1370 Y40.4923
G01 X31.0639 Y40.4381
G01 X30.9965 Y40.3770
G01 X30.9355 Y40.3096
G01 X30.8813 Y40.2366
G01 X30.8345 Y40.1586
G01 X30.7956 Y40.0764
G01 X30.7650 Y39.9907
G01 X30.7429 Y39.9025
G01 X30.7295 Y39.8125
G01 X30.7251 Y39.7217
G01 X30.7295 Y39.6308
G01 X30.7429 Y39.5409
G01 X30.7650 Y39.4526
G01 X30.7956 Y39.3670
G01 X30.8345 Y39.2848
G01 X30.8813 Y39.2068
G01 X30.9355 Y39.1337
G01 X30.9965 Y39.0663
G01 X31.0639 Y39.0053
G01 X31.1370 Y38.9511
G01 X31.2150 Y38.9043
G01 X31.2972 Y38.8654
G01 X31.3828 Y38.8348
G01 X31.4711 Y38.8127
G01 X31.5610 Y38.7993
G01 X31.6519 Y38.7949
G01 X31.7427 Y38.7993
G01 X31.8327 Y38.8127
G01 X31.9209 Y38.8348
G01 X32.0066 Y38.8654
G01 X32.0888 Y38.9043
G01 X32.1668 Y38.9511
G01 X32.2398 Y39.0053
G01 X32.3072 Y39.0663
G01 X32.3683 Y39.1337
G01 X32.4225 Y39.2068
G01 X32.4692 Y39.2848
G01 X32.5081 Y39.3670
G01 X32.5388 Y39.4526
G01 X32.5609 Y39.5409
G01 X32.5742 Y39.6308
G01 X32.5785 Y39.7155
G00 Z5.0000
G00 X39.5414 Y39.3905
G01 F60.00
G01 Z-0.1000
G01 F100.00
G01 X40.0014 Y39.4820
G01 X40.4348 Y39.6615
G01 X40.8248 Y39.9221
G01 X41.1564 Y40.2538
G01 X41.4170 Y40.6438
G01 X41.5965 Y41.0771
G01 X41.6880 Y41.5372
G01 X41.6880 Y42.0062
G01 X41.5965 Y42.4662
G01 X41.4170 Y42.8996
G01 X41.1564 Y43.2896
G01 X40.8248 Y43.6212
G01 X40.4348 Y43.8818
G01 X40.0014 Y44.0613
G01 X39.5414 Y44.1528
G01 X39.0724 Y44.1528
G01 X38.6123 Y44.0613
G01 X38.1790 Y43.8818
G01 X37.7890 Y43.6212
G01 X37.4573 Y43.2896
G01 X37.1967 Y42.8996
G01 X37.0172 Y42.4662
G01 X36.9257 Y42.0062
G01 X36.9257 Y41.5372
G01 X37.0172 Y41.0771
G01 X37.1180 Y40.8339
G01 X38.3691 Y39.5828
G01 X38.6123 Y39.4820
G01 X39.0724 Y39.3905
G01 X39.5414 Y39.3905
G00 Z5.0000
G00 X41.4335 Y41.7655
G01 F60.00
G01 Z-0.1000
G01 F100.00
G01 X41.4335 Y41.7779
G01 X41.4234 Y41.9801
G01 X41.3928 Y42.1866
G01 X41.3421 Y42.3891
G01 X41.2718 Y42.5856
G01 X41.1826 Y42.7742
G01 X41.0752 Y42.9533
G01 X40.9509 Y43.1209
G01 X40.8108 Y43.2756
G01 X40.6561 Y43.4157
G01 X40.4885 Y43.5400
G01 X40.3094 Y43.6474
G01 X40.1208 Y43.7366
G01 X39.9243 Y43.8069
G01 X39.7218 Y43.8576
G01 X39.5153 Y43.8882
G01 X39.3069 Y43.8985
G01 X39.0984 Y43.8882
G01 X38.8920 Y43.8576
G01 X38.6895 Y43.8069
G01 X38.4930 Y43.7366
G01 X38.3043 Y43.6474
G01 X38.1253 Y43.5400
G01 X37.9577 Y43.4157
G01 X37.8030 Y43.2756
G01 X37.6628 Y43.1209
G01 X37.5385 Y42.9533
G01 X37.4312 Y42.7742
G01 X37.3420 Y42.5856
G01 X37.2717 Y42.3891
G01 X37.2209 Y42.1866
G01 X37.1903 Y41.9801
G01 X37.1801 Y41.7717
G01 X37.1903 Y41.5632
G01 X37.2209 Y41.3568
G01 X37.2717 Y41.1543
G01 X37.3420 Y40.9578
G01 X37.4312 Y40.7691
G01 X37.5385 Y40.5901
G01 X37.6628 Y40.4225
G01 X37.8030 Y40.2678
G01 X37.9577 Y40.1276
G01 X38.1253 Y40.0033
G01 X38.3043 Y39.8960
G01 X38.4930 Y39.8068
G01 X38.6895 Y39.7365
G01 X38.8920 Y39.6857
G01 X39.0984 Y39.6551
G01 X39.3069 Y39.6449
G01 X39.5153 Y39.6551
G01 X39.7218 Y39.6857
G01 X39.9243 Y39.7365
G01 X40.1208 Y39.8068
G01 X40.3094 Y39.8960
G01 X40.4885 Y40.0033
G01 X40.6561 Y40.1276
G01 X40.8108 Y40.2678
G01 X40.9509 Y40.4225
G01 X41.0752 Y40.5901
G01 X41.1826 Y40.7691
G01 X41.2718 Y40.9578
G01 X41.3421 Y41.1543
G01 X41.3928 Y41.3568
G01 X41.4234 Y41.5632
G01 X41.4335 Y41.7655
G00 Z5.0000
G00 X22.7514 Y38.0446
G01 F60.00
G01 Z-0.1000
G01 F100.00
G01 X22.7437 Y38.0343
G01 X22.7437 Y38.7949
G01 X23.2919 Y38.7949
G01 X23.3012 Y38.7952
G01 X23.3105 Y38.7963
G01 X23.3197 Y38.7980
G01 X23.3287 Y38.8003
G01 X23.3375 Y38.8034
G01 X23.3461 Y38.8071
G01 X23.3544 Y38.8114
G01 X23.3623 Y38.8162
G01 X23.3699 Y38.8217
G01 X23.3770 Y38.8277
G01 X23.3837 Y38.8342
G01 X23.3899 Y38.8412
G01 X23.3955 Y38.8487
G01 X23.4006 Y38.8565
G01 X23.4051 Y38.8647
G01 X23.4090 Y38.8732
G01 X23.4123 Y38.8819
G01 X23.4149 Y38.8909
G01 X23.4177 Y38.9062
G01 X23.4187 Y38.9217
G01 X23.4187 Y40.5217
G01 X23.4181 Y40.5341
G01 X23.4162 Y40.5464
G01 X23.4132 Y40.5585
G01 X23.4090 Y40.5702
G01 X23.4051 Y40.5787
G01 X23.4006 Y40.5869
G01 X23.3955 Y40.5947
G01 X23.3899 Y40.6021
G01 X23.3837 Y40.6091
G01 X23.3770 Y40.6156
G01 X23.3649 Y40.6253
G01 X23.3517 Y40.6335
G01 X23.3433 Y40.6376
G01 X23.3346 Y40.6411
G01 X23.3257 Y40.6439
G01 X23.3166 Y40.6460
G01 X23.3074 Y40.6475
G01 X23.2981 Y40.6483
G01 X21.6919 Y40.6485
G01 X21.6795 Y40.6479
G01 X21.6671 Y40.6460
G01 X21.6551 Y40.6430
G01 X21.6434 Y40.6388
G01 X21.6349 Y40.6349
G01 X21.6267 Y40.6304
G01 X21.6189 Y40.6253
G01 X21.6114 Y40.6197
G01 X21.6044 Y40.6135
G01 X21.5979 Y40.6068
G01 X21.5882 Y40.5947
G01 X21.5831 Y40.5869
G01 X21.5786 Y40.5787
G01 X21.5747 Y40.5702
G01 X21.5715 Y40.5615
G01 X21.5689 Y40.5525
G01 X21.5669 Y40.5434
G01 X21.5652 Y40.5279
G01 X21.5651 Y38.9217
G01 X21.5654 Y38.9124
G01 X21.5665 Y38.9031
G01 X21.5689 Y38.8909
G01 X21.5715 Y38.8819
G01 X21.5773 Y38.8675
G01 X21.5816 Y38.8592
G01 X21.5864 Y38.8512
G01 X21.5919 Y38.8437
G01 X21.5979 Y38.8365
G01 X21.6044 Y38.8298
G01 X21.6114 Y38.8237
G01 X21.6189 Y38.8180
G01 X21.6267 Y38.8129
G01 X21.6349 Y38.8084
G01 X21.6434 Y38.8045
G01 X21.6521 Y38.8013
G01 X21.6611 Y38.7987
G01 X21.6764 Y38.7958
G01 X21.6919 Y38.7949
G01 X22.2400 Y38.7949
G01 X22.2400 Y35.9490
G01 X20.5718 Y34.2808
G01 X20.5593 Y34.2672
G01 X20.5532 Y34.2600
G01 X20.5388 Y34.2400
G01 X20.5293 Y34.2241
G01 X20.5250 Y34.2158
G01 X20.5172 Y34.1991
G01 X20.5108 Y34.1817
G01 X20.5080 Y34.1728
G01 X20.5035 Y34.1549
G01 X20.5018 Y34.1457
G01 X20.4992 Y34.1274
G01 X20.4980 Y34.1027
G01 X20.4992 Y34.0780
G01 X20.5018 Y34.0597
G01 X20.5035 Y34.0505
G01 X20.5098 Y34.0266
G01 X20.5160 Y34.0092
G01 X20.5197 Y34.0006
G01 X20.5278 Y33.9840
G01 X20.5371 Y33.9680
G01 X20.5422 Y33.9602
G01 X20.5532 Y33.9453
G01 X20.5593 Y33.9382
G01 X20.5718 Y33.9246
G01 X20.5901 Y33.9080
G01 X20.6100 Y33.8933
G01 X20.6257 Y33.8836
G01 X20.6339 Y33.8791
G01 X20.6535 Y33.8700
G01 X20.6738 Y33.8626
G01 X20.6947 Y33.8570
G01 X20.7038 Y33.8551
G01 X20.7252 Y33.8520
G01 X20.7468 Y33.8509
G01 X20.7561 Y33.8510
G01 X20.7777 Y33.8524
G01 X20.7990 Y33.8557
G01 X20.8200 Y33.8608
G01 X20.8405 Y33.8677
G01 X20.8491 Y33.8712
G01 X20.8686 Y33.8806
G01 X20.8872 Y33.8916
G01 X20.8949 Y33.8968
G01 X20.9120 Y33.9100
G01 X20.9280 Y33.9246
G01 X22.6700 Y35.6666
G01 X22.6866 Y35.6849
G01 X22.6980 Y35.7001
G01 X22.6980 Y34.1027
G01 X22.6990 Y34.0811
G01 X22.7000 Y34.0718
G01 X22.7029 Y34.0535
G01 X22.7072 Y34.0356
G01 X22.7098 Y34.0266
G01 X22.7172 Y34.0063
G01 X22.7263 Y33.9867
G01 X22.7308 Y33.9785
G01 X22.7405 Y33.9628
G01 X22.7532 Y33.9453
G01 X22.7593 Y33.9382
G01 X22.7740 Y33.9224
G01 X22.7901 Y33.9080
G01 X22.8049 Y33.8968
G01 X22.8126 Y33.8916
G01 X22.8312 Y33.8806
G01 X22.8506 Y33.8712
G01 X22.8593 Y33.8677
G01 X22.8768 Y33.8617
G01 X22.9007 Y33.8557
G01 X22.9221 Y33.8524
G01 X22.9314 Y33.8516
G01 X22.9499 Y33.8508
G01 X22.9746 Y33.8520
G01 X22.9960 Y33.8551
G01 X23.0051 Y33.8570
G01 X23.0230 Y33.8617
G01 X23.0434 Y33.8688
G01 X23.0630 Y33.8778
G01 X23.0713 Y33.8821
G01 X23.0898 Y33.8933
G01 X23.1048 Y33.9042
G01 X23.1120 Y33.9100
G01 X23.1280 Y33.9246
G01 X23.1426 Y33.9405
G01 X23.1484 Y33.9478
G01 X23.1593 Y33.9628
G01 X23.1720 Y33.9840
G01 X23.1826 Y34.0063
G01 X23.1889 Y34.0237
G01 X23.1926 Y34.0356
G01 X23.1975 Y34.0566
G01 X23.2005 Y34.0780
G01 X23.2017 Y34.0996
G01 X23.2017 Y37.7854
G01 X24.3297 Y38.9133
G01 X24.3423 Y38.9058
G01 X24.3505 Y38.9015
G01 X24.4215 Y38.8680
G01 X24.4330 Y38.8632
G01 X24.5128 Y38.8348
G01 X24.6011 Y38.8127
G01 X24.6910 Y38.7993
G01 X24.7757 Y38.7950
G01 X24.7881 Y38.7950
G01 X24.8665 Y38.7989
G01 X24.8789 Y38.8001
G01 X24.9627 Y38.8127
G01 X25.0509 Y38.8348
G01 X25.1366 Y38.8654
G01 X25.2132 Y38.9015
G01 X25.2242 Y38.9074
G01 X25.2915 Y38.9477
G01 X25.3019 Y38.9547
G01 X25.3698 Y39.0053
G01 X25.4327 Y39.0620
G01 X25.4415 Y39.0708
G01 X25.4983 Y39.1337
G01 X25.5525 Y39.2068
G01 X25.5992 Y39.2848
G01 X25.6381 Y39.3670
G01 X25.6688 Y39.4526
G01 X25.6909 Y39.5409
G01 X25.7042 Y39.6308
G01 X25.7085 Y39.7155
G01 X25.7085 Y39.7279
G01 X25.7047 Y39.8063
G01 X25.7035 Y39.8187
G01 X25.6909 Y39.9025
G01 X25.6704 Y39.9847
G01 X25.6668 Y39.9966
G01 X25.6381 Y40.0764
G01 X25.5992 Y40.1586
G01 X25.5525 Y40.2366
G01 X25.4983 Y40.3096
G01 X25.4372 Y40.3770
G01 X25.3698 Y40.4381
G01 X25.2968 Y40.4923
G01 X25.2188 Y40.5390
G01 X25.1366 Y40.5779
G01 X25.0509 Y40.6086
G01 X24.9627 Y40.6307
G01 X24.8727 Y40.6440
G01 X24.7819 Y40.6485
G01 X24.6910 Y40.6440
G01 X24.6011 Y40.6307
G01 X24.5128 Y40.6086
G01 X24.4272 Y40.5779
G01 X24.3450 Y40.5390
G01 X24.2670 Y40.4923
G01 X24.1939 Y40.4381
G01 X24.1265 Y40.3770
G01 X24.0695 Y40.3143
G01 X24.0616 Y40.3047
G01 X24.0149 Y40.2417
G01 X24.0079 Y40.2313
G01 X23.9645 Y40.1586
G01 X23.9256 Y40.0764
G01 X23.8950 Y39.9907
G01 X23.8729 Y39.9025
G01 X23.8595 Y39.8125
G01 X23.8551 Y39.7217
G01 X23.8595 Y39.6308
G01 X23.8718 Y39.5470
G01 X23.8743 Y39.5348
G01 X23.8950 Y39.4526
G01 X23.9234 Y39.3728
G01 X23.9282 Y39.3613
G01 X23.9617 Y39.2903
G01 X23.9660 Y39.2821
G01 X23.9735 Y39.2695
G01 X22.7718 Y38.0678
G01 X22.7572 Y38.0518
G01 X22.7514 Y38.0446
G00 Z5.0000
G00 X22.2839 Y34.9407
G01 F60.00
G01 Z-0.1000
G01 F100.00
G01 X22.3009 Y34.9369
G01 X22.3298 Y34.9292
G01 X22.3581 Y34.9196
G01 X22.3824 Y34.9099
G01 X22.4094 Y34.8971
G01 X22.4248 Y34.8889
G01 X22.4504 Y34.8735
G01 X22.4698 Y34.8603
G01 X22.4698 Y35.1436
G01 X22.2694 Y34.9433
G01 X22.2839 Y34.9407
G00 Z5.0000
G00 X30.7825 Y20.6194
G01 F60.00
G01 Z-0.1000
G01 F100.00
G01 X31.2010 Y20.2009
G01 X31.6932 Y19.8720
G01 X32.2400 Y19.6455
G01 X32.8206 Y19.5300
G01 X33.4125 Y19.5300
G01 X33.9930 Y19.6455
G01 X34.5399 Y19.8720
G01 X35.0320 Y20.2009
G01 X35.4505 Y20.6194
G01 X35.7794 Y21.1115
G01 X36.0059 Y21.6584
G01 X36.1214 Y22.2389
G01 X36.1214 Y22.8308
G01 X36.0059 Y23.4114
G01 X35.7794 Y23.9582
G01 X35.4505 Y24.4504
G01 X35.0320 Y24.8689
G01 X34.5399 Y25.1977
G01 X33.9930 Y25.4243
G01 X33.4125 Y25.5397
G01 X32.8206 Y25.5397
G01 X32.2400 Y25.4243
G01 X31.6932 Y25.1977
G01 X31.2010 Y24.8689
G01 X30.7825 Y24.4504
G01 X30.4537 Y23.9582
G01 X30.2271 Y23.4114
G01 X30.1117 Y22.8308
G01 X30.1117 Y22.2389
G01 X30.2271 Y21.6584
G01 X30.4537 Y21.1115
G01 X30.7825 Y20.6194
G00 Z5.0000
G00 X30.6052 Y20.4739
G01 F60.00
G01 Z-0.1000
G01 F100.00
G01 X31.0555 Y20.0236
G01 X31.5851 Y19.6697
G01 X32.1735 Y19.4260
G01 X32.7981 Y19.3018
G01 X33.4350 Y19.3018
G01 X34.0596 Y19.4260
G01 X34.6480 Y19.6697
G01 X35.1775 Y20.0236
G01 X35.6278 Y20.4739
G01 X35.9817 Y21.0034
G01 X36.2254 Y21.5918
G01 X36.3496 Y22.2164
G01 X36.3496 Y22.8533
G01 X36.2254 Y23.4779
G01 X35.9817 Y24.0663
G01 X35.6278 Y24.5959
G01 X35.1775 Y25.0462
G01 X34.6480 Y25.4000
G01 X34.0596 Y25.6437
G01 X33.4350 Y25.7680
G01 X32.7981 Y25.7680
G01 X32.1735 Y25.6437
G01 X31.5851 Y25.4000
G01 X31.0555 Y25.0462
G01 X30.6052 Y24.5959
G01 X30.2514 Y24.0663
G01 X30.0077 Y23.4779
G01 X29.8834 Y22.8533
G01 X29.8834 Y22.2164
G01 X30.0077 Y21.5918
G01 X30.2514 Y21.0034
G01 X30.6052 Y20.4739
G00 Z5.0000
G00 X30.4279 Y20.3284
G01 F60.00
G01 Z-0.1000
G01 F100.00
G01 X30.9100 Y19.8463
G01 X31.4770 Y19.4675
G01 X32.1069 Y19.2066
G01 X32.7756 Y19.0735
G01 X33.4574 Y19.0735
G01 X34.1262 Y19.2066
G01 X34.7561 Y19.4675
G01 X35.3230 Y19.8463
G01 X35.8051 Y20.3284
G01 X36.1839 Y20.8953
G01 X36.4448 Y21.5252
G01 X36.5779 Y22.1940
G01 X36.5779 Y22.8758
G01 X36.4448 Y23.5445
G01 X36.1839 Y24.1744
G01 X35.8051 Y24.7414
G01 X35.3230 Y25.2235
G01 X34.7561 Y25.6023
G01 X34.1262 Y25.8632
G01 X33.4574 Y25.9962
G01 X32.7756 Y25.9962
G01 X32.1069 Y25.8632
G01 X31.4770 Y25.6023
G01 X30.9100 Y25.2235
G01 X30.4279 Y24.7414
G01 X30.0491 Y24.1744
G01 X29.7882 Y23.5445
G01 X29.6552 Y22.8758
G01 X29.6552 Y22.1940
G01 X29.7882 Y21.5252
G01 X30.0491 Y20.8953
G01 X30.4279 Y20.3284
G00 Z5.0000
G00 X0.4518 Y46.4330
G01 F60.00
G01 Z-0.1000
G01 F100.00
G01 X0.4368 Y0.6496
G01 X0.4380 Y0.6248
G01 X0.4417 Y0.6001
G01 X0.4477 Y0.5760
G01 X0.4561 Y0.5525
G01 X0.4668 Y0.5300
G01 X0.4796 Y0.5086
G01 X0.4944 Y0.4886
G01 X0.5068 Y0.4746
G01 X0.5133 Y0.4679
G01 X0.5296 Y0.4534
G01 X0.5496 Y0.4385
G01 X0.5709 Y0.4257
G01 X0.5935 Y0.4151
G01 X0.6169 Y0.4067
G01 X0.6411 Y0.4006
G01 X0.6657 Y0.3969
G01 X0.6906 Y0.3957
G01 X11.3842 Y0.3912
G01 X11.4029 Y0.3919
G01 X11.4122 Y0.3927
G01 X11.4307 Y0.3955
G01 X11.4398 Y0.3974
G01 X11.4579 Y0.4021
G01 X11.4756 Y0.4082
G01 X11.4843 Y0.4117
G01 X11.5040 Y0.4211
G01 X11.5227 Y0.4323
G01 X11.5304 Y0.4375
G01 X11.5454 Y0.4488
G01 X11.5593 Y0.4612
G01 X11.5660 Y0.4678
G01 X11.5806 Y0.4840
G01 X11.5918 Y0.4989
G01 X11.5971 Y0.5067
G01 X11.6082 Y0.5254
G01 X11.6164 Y0.5423
G01 X11.6200 Y0.5509
G01 X11.6273 Y0.5714
G01 X11.6333 Y0.5956
G01 X11.6362 Y0.6141
G01 X11.6372 Y0.6234
G01 X11.6382 Y0.6452
G01 X11.6284 Y17.9915
G01 X11.6276 Y18.0100
G01 X11.6264 Y18.0240
G01 X11.6343 Y18.1036
G01 X11.6650 Y18.2055
G01 X11.6705 Y18.2124
G01 X11.6813 Y18.2273
G01 X11.6952 Y18.2506
G01 X11.7461 Y18.3125
G01 X11.8079 Y18.3633
G01 X11.8785 Y18.4009
G01 X11.9551 Y18.4241
G01 X12.0343 Y18.4319
G01 X12.0483 Y18.4307
G01 X12.0668 Y18.4300
G01 X38.2251 Y18.4198
G01 X38.2438 Y18.4206
G01 X38.2575 Y18.4218
G01 X38.3373 Y18.4139
G01 X38.4138 Y18.3907
G01 X38.4843 Y18.3529
G01 X38.5462 Y18.3021
G01 X38.5969 Y18.2403
G01 X38.6346 Y18.1697
G01 X38.6578 Y18.0931
G01 X38.6656 Y18.0135
G01 X38.6644 Y17.9999
G01 X38.6636 Y17.9811
G01 X38.6636 Y9.7973
G01 X38.8366 Y0.6400
G01 X38.8380 Y0.6185
G01 X38.8391 Y0.6093
G01 X38.8423 Y0.5911
G01 X38.8487 Y0.5673
G01 X38.8561 Y0.5471
G01 X38.8599 Y0.5387
G01 X38.8681 Y0.5222
G01 X38.8793 Y0.5038
G01 X38.8846 Y0.4963
G01 X38.8959 Y0.4816
G01 X38.9105 Y0.4657
G01 X38.9171 Y0.4594
G01 X38.9310 Y0.4472
G01 X38.9458 Y0.4362
G01 X38.9535 Y0.4310
G01 X38.9721 Y0.4202
G01 X38.9916 Y0.4110
G01 X39.0001 Y0.4076
G01 X39.0176 Y0.4016
G01 X39.0355 Y0.3970
G01 X39.0445 Y0.3951
G01 X39.0628 Y0.3924
G01 X39.0720 Y0.3916
G01 X39.0904 Y0.3909
G01 X49.5962 Y0.3909
G01 X49.6211 Y0.3921
G01 X49.6458 Y0.3958
G01 X49.6699 Y0.4018
G01 X49.6934 Y0.4102
G01 X49.7159 Y0.4209
G01 X49.7373 Y0.4337
G01 X49.7573 Y0.4485
G01 X49.7713 Y0.4610
G01 X49.7779 Y0.4675
G01 X49.7925 Y0.4837
G01 X49.8073 Y0.5038
G01 X49.8201 Y0.5251
G01 X49.8308 Y0.5477
G01 X49.8392 Y0.5711
G01 X49.8452 Y0.5953
G01 X49.8489 Y0.6200
G01 X49.8501 Y0.6448
G01 X49.8353 Y46.4416
G01 X49.8340 Y46.4665
G01 X49.8304 Y46.4912
G01 X49.8243 Y46.5153
G01 X49.8159 Y46.5388
G01 X49.8053 Y46.5613
G01 X49.7924 Y46.5827
G01 X49.7776 Y46.6027
G01 X49.7652 Y46.6166
G01 X49.7586 Y46.6233
G01 X49.7424 Y46.6378
G01 X49.7224 Y46.6527
G01 X49.7010 Y46.6655
G01 X49.6785 Y46.6761
G01 X49.6550 Y46.6845
G01 X49.6309 Y46.6906
G01 X49.6062 Y46.6942
G01 X49.5813 Y46.6954
G01 X0.7054 Y46.6806
G01 X0.6806 Y46.6794
G01 X0.6559 Y46.6757
G01 X0.6318 Y46.6696
G01 X0.6083 Y46.6612
G01 X0.5858 Y46.6506
G01 X0.5645 Y46.6378
G01 X0.5445 Y46.6230
G01 X0.5260 Y46.6062
G01 X0.5093 Y46.5878
G01 X0.4944 Y46.5678
G01 X0.4816 Y46.5464
G01 X0.4710 Y46.5239
G01 X0.4626 Y46.5005
G01 X0.4565 Y46.4763
G01 X0.4529 Y46.4517
G01 X0.4518 Y46.4330
G00 Z5.0000
G00 X0.2238 Y46.4443
G01 F60.00
G01 Z-0.1000
G01 F100.00
G01 X0.2234 Y46.4269
G01 X0.2086 Y0.6497
G01 X0.2090 Y0.6323
G01 X0.2109 Y0.6025
G01 X0.2130 Y0.5852
G01 X0.2178 Y0.5557
G01 X0.2247 Y0.5266
G01 X0.2293 Y0.5098
G01 X0.2390 Y0.4815
G01 X0.2487 Y0.4572
G01 X0.2614 Y0.4302
G01 X0.2696 Y0.4148
G01 X0.2850 Y0.3892
G01 X0.2947 Y0.3747
G01 X0.3125 Y0.3507
G01 X0.3235 Y0.3372
G01 X0.3436 Y0.3150
G01 X0.3623 Y0.2968
G01 X0.3780 Y0.2826
G01 X0.3915 Y0.2716
G01 X0.4155 Y0.2537
G01 X0.4300 Y0.2441
G01 X0.4556 Y0.2287
G01 X0.4710 Y0.2205
G01 X0.4980 Y0.2077
G01 X0.5141 Y0.2010
G01 X0.5340 Y0.1937
G01 X0.5506 Y0.1883
G01 X0.5674 Y0.1836
G01 X0.5964 Y0.1768
G01 X0.6136 Y0.1738
G01 X0.6432 Y0.1698
G01 X0.6731 Y0.1679
G01 X0.6905 Y0.1675
G01 X11.3841 Y0.1629
G01 X11.4140 Y0.1640
G01 X11.4401 Y0.1662
G01 X11.4696 Y0.1706
G01 X11.4952 Y0.1760
G01 X11.5241 Y0.1837
G01 X11.5407 Y0.1891
G01 X11.5606 Y0.1964
G01 X11.5847 Y0.2067
G01 X11.6115 Y0.2198
G01 X11.6374 Y0.2348
G01 X11.6593 Y0.2491
G01 X11.6833 Y0.2669
G01 X11.7034 Y0.2838
G01 X11.7252 Y0.3042
G01 X11.7373 Y0.3168
G01 X11.7514 Y0.3326
G01 X11.7677 Y0.3530
G01 X11.7852 Y0.3773
G01 X11.7945 Y0.3920
G01 X11.8053 Y0.4102
G01 X11.8136 Y0.4256
G01 X11.8227 Y0.4447
G01 X11.8330 Y0.4688
G01 X11.8402 Y0.4887
G01 X11.8457 Y0.5053
G01 X11.8504 Y0.5221
G01 X11.8554 Y0.5427
G01 X11.8588 Y0.5598
G01 X11.8620 Y0.5807
G01 X11.8649 Y0.6067
G01 X11.8660 Y0.6279
G01 X11.8664 Y0.6453
G01 X11.8566 Y17.9916
G01 X11.8556 Y18.0219
G01 X11.8592 Y18.0588
G01 X11.8725 Y18.1026
G01 X11.8834 Y18.1201
G01 X11.9082 Y18.1503
G01 X11.9353 Y18.1725
G01 X11.9662 Y18.1890
G01 X11.9997 Y18.1992
G01 X12.0364 Y18.2028
G01 X12.0667 Y18.2017
G01 X38.2250 Y18.1916
G01 X38.2554 Y18.1926
G01 X38.2924 Y18.1890
G01 X38.3260 Y18.1788
G01 X38.3568 Y18.1623
G01 X38.3839 Y18.1400
G01 X38.4061 Y18.1129
G01 X38.4227 Y18.0820
G01 X38.4328 Y18.0485
G01 X38.4364 Y18.0115
G01 X38.4354 Y17.9811
G01 X38.4355 Y9.7918
G01 X38.6084 Y0.6357
G01 X38.6092 Y0.6185
G01 X38.6107 Y0.5976
G01 X38.6140 Y0.5720
G01 X38.6175 Y0.5513
G01 X38.6211 Y0.5345
G01 X38.6264 Y0.5143
G01 X38.6313 Y0.4977
G01 X38.6369 Y0.4815
G01 X38.6444 Y0.4619
G01 X38.6549 Y0.4383
G01 X38.6682 Y0.4120
G01 X38.6769 Y0.3971
G01 X38.6880 Y0.3794
G01 X38.7028 Y0.3582
G01 X38.7210 Y0.3350
G01 X38.7324 Y0.3221
G01 X38.7467 Y0.3068
G01 X38.7653 Y0.2889
G01 X38.7877 Y0.2696
G01 X38.8013 Y0.2591
G01 X38.8183 Y0.2468
G01 X38.8400 Y0.2329
G01 X38.8657 Y0.2182
G01 X38.8923 Y0.2054
G01 X38.9161 Y0.1953
G01 X38.9358 Y0.1883
G01 X38.9521 Y0.1829
G01 X38.9807 Y0.1754
G01 X39.0060 Y0.1701
G01 X39.0352 Y0.1659
G01 X39.0609 Y0.1637
G01 X39.0904 Y0.1627
G01 X49.6049 Y0.1628
G01 X49.6348 Y0.1642
G01 X49.6522 Y0.1659
G01 X49.6817 Y0.1703
G01 X49.6988 Y0.1737
G01 X49.7278 Y0.1810
G01 X49.7445 Y0.1861
G01 X49.7727 Y0.1961
G01 X49.7888 Y0.2028
G01 X49.8158 Y0.2156
G01 X49.8312 Y0.2238
G01 X49.8568 Y0.2392
G01 X49.8713 Y0.2489
G01 X49.8953 Y0.2667
G01 X49.9088 Y0.2777
G01 X49.9309 Y0.2978
G01 X49.9492 Y0.3165
G01 X49.9633 Y0.3323
G01 X49.9744 Y0.3458
G01 X49.9922 Y0.3698
G01 X50.0019 Y0.3843
G01 X50.0173 Y0.4100
G01 X50.0255 Y0.4253
G01 X50.0382 Y0.4524
G01 X50.0449 Y0.4685
G01 X50.0521 Y0.4884
G01 X50.0576 Y0.5049
G01 X50.0623 Y0.5217
G01 X50.0691 Y0.5508
G01 X50.0721 Y0.5680
G01 X50.0760 Y0.5977
G01 X50.0779 Y0.6275
G01 X50.0783 Y0.6449
G01 X50.0635 Y46.4417
G01 X50.0631 Y46.4591
G01 X50.0612 Y46.4890
G01 X50.0572 Y46.5186
G01 X50.0542 Y46.5358
G01 X50.0474 Y46.5649
G01 X50.0427 Y46.5817
G01 X50.0330 Y46.6099
G01 X50.0233 Y46.6342
G01 X50.0105 Y46.6612
G01 X50.0023 Y46.6766
G01 X49.9869 Y46.7022
G01 X49.9773 Y46.7167
G01 X49.9594 Y46.7407
G01 X49.9484 Y46.7542
G01 X49.9283 Y46.7763
G01 X49.9096 Y46.7946
G01 X49.8938 Y46.8087
G01 X49.8803 Y46.8198
G01 X49.8563 Y46.8376
G01 X49.8418 Y46.8472
G01 X49.8162 Y46.8626
G01 X49.8008 Y46.8708
G01 X49.7738 Y46.8836
G01 X49.7577 Y46.8903
G01 X49.7378 Y46.8975
G01 X49.7212 Y46.9029
G01 X49.7044 Y46.9076
G01 X49.6753 Y46.9144
G01 X49.6582 Y46.9174
G01 X49.6285 Y46.9214
G01 X49.5987 Y46.9232
G01 X49.5813 Y46.9237
G01 X0.7054 Y46.9088
G01 X0.6879 Y46.9084
G01 X0.6581 Y46.9065
G01 X0.6408 Y46.9044
G01 X0.6113 Y46.8995
G01 X0.5823 Y46.8927
G01 X0.5655 Y46.8880
G01 X0.5489 Y46.8826
G01 X0.5209 Y46.8721
G01 X0.5050 Y46.8650
G01 X0.4782 Y46.8519
G01 X0.4524 Y46.8369
G01 X0.4376 Y46.8276
G01 X0.4234 Y46.8175
G01 X0.3997 Y46.7994
G01 X0.3865 Y46.7880
G01 X0.3708 Y46.7737
G01 X0.3585 Y46.7614
G01 X0.3385 Y46.7392
G01 X0.3274 Y46.7258
G01 X0.3096 Y46.7018
G01 X0.2999 Y46.6873
G01 X0.2846 Y46.6617
G01 X0.2763 Y46.6463
G01 X0.2636 Y46.6193
G01 X0.2569 Y46.6032
G01 X0.2468 Y46.5751
G01 X0.2418 Y46.5584
G01 X0.2345 Y46.5294
G01 X0.2311 Y46.5123
G01 X0.2267 Y46.4828
G01 X0.2250 Y46.4654
G01 X0.2238 Y46.4443
G00 Z5.0000
G00 X-0.0041 Y46.4556
G01 F60.00
G01 Z-0.1000
G01 F100.00
G01 X-0.0048 Y46.4270
G01 X-0.0197 Y0.6498
G01 X-0.0190 Y0.6212
G01 X-0.0175 Y0.5944
G01 X-0.0163 Y0.5802
G01 X-0.0147 Y0.5659
G01 X-0.0109 Y0.5394
G01 X-0.0060 Y0.5112
G01 X-0.0031 Y0.4972
G01 X0.0032 Y0.4712
G01 X0.0109 Y0.4436
G01 X0.0152 Y0.4299
G01 X0.0240 Y0.4047
G01 X0.0290 Y0.3912
G01 X0.0400 Y0.3648
G01 X0.0575 Y0.3276
G01 X0.0710 Y0.3024
G01 X0.0921 Y0.2671
G01 X0.1080 Y0.2433
G01 X0.1325 Y0.2103
G01 X0.1506 Y0.1882
G01 X0.1782 Y0.1577
G01 X0.1882 Y0.1475
G01 X0.2089 Y0.1277
G01 X0.2289 Y0.1098
G01 X0.2510 Y0.0917
G01 X0.2840 Y0.0672
G01 X0.3078 Y0.0513
G01 X0.3307 Y0.0373
G01 X0.3556 Y0.0232
G01 X0.3812 Y0.0103
G01 X0.4054 Y-0.0010
G01 X0.4186 Y-0.0066
G01 X0.4319 Y-0.0119
G01 X0.4570 Y-0.0211
G01 X0.4842 Y-0.0301
G01 X0.5118 Y-0.0378
G01 X0.5378 Y-0.0441
G01 X0.5518 Y-0.0471
G01 X0.5800 Y-0.0520
G01 X0.6065 Y-0.0558
G01 X0.6208 Y-0.0573
G01 X0.6493 Y-0.0595
G01 X0.6761 Y-0.0606
G01 X11.3840 Y-0.0653
G01 X11.3983 Y-0.0651
G01 X11.4251 Y-0.0640
G01 X11.4394 Y-0.0631
G01 X11.4679 Y-0.0603
G01 X11.5086 Y-0.0543
G01 X11.5227 Y-0.0517
G01 X11.5506 Y-0.0454
G01 X11.5766 Y-0.0388
G01 X11.5903 Y-0.0348
G01 X11.6176 Y-0.0258
G01 X11.6427 Y-0.0166
G01 X11.6560 Y-0.0113
G01 X11.6822 Y0.0003
G01 X11.7064 Y0.0119
G01 X11.7191 Y0.0185
G01 X11.7316 Y0.0254
G01 X11.7547 Y0.0391
G01 X11.7669 Y0.0466
G01 X11.7907 Y0.0625
G01 X11.8238 Y0.0870
G01 X11.8459 Y0.1052
G01 X11.8566 Y0.1147
G01 X11.8764 Y0.1328
G01 X11.8866 Y0.1428
G01 X11.9064 Y0.1635
G01 X11.9243 Y0.1835
G01 X11.9424 Y0.2057
G01 X11.9511 Y0.2171
G01 X11.9669 Y0.2387
G01 X11.9750 Y0.2505
G01 X11.9903 Y0.2747
G01 X12.0040 Y0.2978
G01 X12.0175 Y0.3231
G01 X12.0291 Y0.3472
G01 X12.0407 Y0.3734
G01 X12.0460 Y0.3867
G01 X12.0552 Y0.4119
G01 X12.0641 Y0.4391
G01 X12.0718 Y0.4667
G01 X12.0781 Y0.4927
G01 X12.0837 Y0.5208
G01 X12.0878 Y0.5473
G01 X12.0897 Y0.5615
G01 X12.0925 Y0.5900
G01 X12.0940 Y0.6168
G01 X12.0947 Y0.6454
G01 X12.0849 Y17.9735
G01 X38.2071 Y17.9634
G01 X38.2073 Y9.7875
G01 X38.3807 Y0.6172
G01 X38.3823 Y0.5908
G01 X38.3849 Y0.5626
G01 X38.3867 Y0.5486
G01 X38.3908 Y0.5225
G01 X38.3933 Y0.5085
G01 X38.3993 Y0.4809
G01 X38.4060 Y0.4553
G01 X38.4139 Y0.4282
G01 X38.4232 Y0.4014
G01 X38.4326 Y0.3767
G01 X38.4438 Y0.3507
G01 X38.4553 Y0.3269
G01 X38.4684 Y0.3018
G01 X38.4753 Y0.2895
G01 X38.4891 Y0.2669
G01 X38.5045 Y0.2432
G01 X38.5126 Y0.2316
G01 X38.5285 Y0.2104
G01 X38.5461 Y0.1883
G01 X38.5554 Y0.1776
G01 X38.5732 Y0.1580
G01 X38.5929 Y0.1378
G01 X38.6031 Y0.1280
G01 X38.6228 Y0.1102
G01 X38.6334 Y0.1010
G01 X38.6555 Y0.0832
G01 X38.6883 Y0.0593
G01 X38.7119 Y0.0437
G01 X38.7240 Y0.0364
G01 X38.7469 Y0.0231
G01 X38.7593 Y0.0163
G01 X38.7719 Y0.0099
G01 X38.7958 Y-0.0015
G01 X38.8217 Y-0.0128
G01 X38.8349 Y-0.0180
G01 X38.8597 Y-0.0270
G01 X38.8866 Y-0.0357
G01 X38.9002 Y-0.0396
G01 X38.9259 Y-0.0461
G01 X38.9397 Y-0.0494
G01 X38.9674 Y-0.0548
G01 X39.0076 Y-0.0607
G01 X39.0216 Y-0.0622
G01 X39.0499 Y-0.0643
G01 X39.0763 Y-0.0654
G01 X39.0904 Y-0.0656
G01 X49.6105 Y-0.0654
G01 X49.6516 Y-0.0634
G01 X49.6801 Y-0.0606
G01 X49.7208 Y-0.0546
G01 X49.7488 Y-0.0490
G01 X49.7887 Y-0.0390
G01 X49.8161 Y-0.0307
G01 X49.8548 Y-0.0168
G01 X49.8813 Y-0.0058
G01 X49.9184 Y0.0117
G01 X49.9437 Y0.0252
G01 X49.9789 Y0.0464
G01 X50.0028 Y0.0623
G01 X50.0358 Y0.0868
G01 X50.0579 Y0.1049
G01 X50.0884 Y0.1326
G01 X50.0986 Y0.1426
G01 X50.1183 Y0.1633
G01 X50.1362 Y0.1833
G01 X50.1544 Y0.2054
G01 X50.1788 Y0.2384
G01 X50.1947 Y0.2622
G01 X50.2159 Y0.2975
G01 X50.2294 Y0.3228
G01 X50.2469 Y0.3599
G01 X50.2579 Y0.3864
G01 X50.2671 Y0.4115
G01 X50.2760 Y0.4387
G01 X50.2837 Y0.4663
G01 X50.2900 Y0.4924
G01 X50.2930 Y0.5064
G01 X50.2978 Y0.5346
G01 X50.3016 Y0.5611
G01 X50.3032 Y0.5753
G01 X50.3044 Y0.5896
G01 X50.3059 Y0.6164
G01 X50.3066 Y0.6450
G01 X50.2918 Y46.4418
G01 X50.2910 Y46.4704
G01 X50.2895 Y46.4972
G01 X50.2883 Y46.5114
G01 X50.2867 Y46.5256
G01 X50.2830 Y46.5522
G01 X50.2781 Y46.5804
G01 X50.2751 Y46.5944
G01 X50.2687 Y46.6204
G01 X50.2611 Y46.6480
G01 X50.2568 Y46.6616
G01 X50.2479 Y46.6869
G01 X50.2376 Y46.7136
G01 X50.2320 Y46.7268
G01 X50.2144 Y46.7639
G01 X50.2009 Y46.7892
G01 X50.1797 Y46.8244
G01 X50.1638 Y46.8482
G01 X50.1393 Y46.8812
G01 X50.1212 Y46.9033
G01 X50.0935 Y46.9338
G01 X50.0835 Y46.9440
G01 X50.0628 Y46.9637
G01 X50.0428 Y46.9816
G01 X50.0207 Y46.9997
G01 X49.9877 Y47.0242
G01 X49.9639 Y47.0401
G01 X49.9286 Y47.0612
G01 X49.9034 Y47.0747
G01 X49.8662 Y47.0923
G01 X49.8398 Y47.1032
G01 X49.8146 Y47.1124
G01 X49.7874 Y47.1214
G01 X49.7598 Y47.1290
G01 X49.7338 Y47.1353
G01 X49.7198 Y47.1383
G01 X49.6916 Y47.1432
G01 X49.6651 Y47.1469
G01 X49.6508 Y47.1485
G01 X49.6366 Y47.1497
G01 X49.6098 Y47.1512
G01 X49.5812 Y47.1519
G01 X0.7053 Y47.1371
G01 X0.6767 Y47.1364
G01 X0.6499 Y47.1349
G01 X0.6357 Y47.1336
G01 X0.6215 Y47.1320
G01 X0.5950 Y47.1283
G01 X0.5668 Y47.1234
G01 X0.5528 Y47.1204
G01 X0.5268 Y47.1141
G01 X0.4992 Y47.1064
G01 X0.4720 Y47.0975
G01 X0.4469 Y47.0883
G01 X0.4336 Y47.0830
G01 X0.4074 Y47.0714
G01 X0.3833 Y47.0597
G01 X0.3706 Y47.0532
G01 X0.3580 Y47.0463
G01 X0.3350 Y47.0326
G01 X0.3108 Y47.0173
G01 X0.2874 Y47.0008
G01 X0.2660 Y46.9848
G01 X0.2549 Y46.9758
G01 X0.2332 Y46.9571
G01 X0.2135 Y46.9390
G01 X0.1932 Y46.9188
G01 X0.1656 Y46.8883
G01 X0.1475 Y46.8662
G01 X0.1230 Y46.8332
G01 X0.1071 Y46.8094
G01 X0.0860 Y46.7742
G01 X0.0725 Y46.7490
G01 X0.0549 Y46.7118
G01 X0.0440 Y46.6854
G01 X0.0301 Y46.6467
G01 X0.0218 Y46.6193
G01 X0.0118 Y46.5795
G01 X0.0062 Y46.5514
G01 X0.0002 Y46.5108
G01 X-0.0026 Y46.4823
G01 X-0.0041 Y46.4556
G00 Z5.0000
M05
G00 Z5.0000
G00 Z5.00


