(G-CODE GENERATED BY FLATCAM v8.994 - www.flatcam.org - Version Date: 2020/11/7)

(Name: fixed_head_pcb-Edge_Cuts.gbr_cutout_cnc)
(Type: G-code from Geometry)
(Units: MM)

(Created on dimanche, 20 février 2022 at 13:49)

(This preprocessor is the default preprocessor used by FlatCAM.)
(It is made to work with MACH3 compatible motion controllers.)

(TOOL DIAMETER: 1.0 mm)
(Feedrate_XY: 120.0 mm/min)
(Feedrate_Z: 60.0 mm/min)
(Feedrate rapids 1500.0 mm/min)

(Z_Cut: -1.8 mm)
(DepthPerCut: 0.6 mm <=>3 passes)
(Z_Move: 2.0 mm)
(Z Start: None mm)
(Z End: 1.0 mm)
(X,Y End: None mm)
(Steps per circle: 64)
(Preprocessor Geometry: default)

(X range:   -0.5945 ...   50.8815  mm)
(Y range:   -0.6403 ...   47.7268  mm)

(Spindle Speed: 0.0 RPM)
G21
G90
G94

G01 F120.00

M5
G00 Z15.0000
G00 X0.0000 Y0.0000
T1
M6    
(MSG, Change to Tool Dia = 1.0000)
M0
G00 Z15.0000

M03
G01 F120.00
G00 X-0.5945 Y21.6433
G01 F60.00
G01 Z-0.6000
G01 F120.00
G01 X-0.5945 Y-0.0403
G01 X-0.5916 Y-0.0991
G01 X-0.5830 Y-0.1573
G01 X-0.5687 Y-0.2144
G01 X-0.5489 Y-0.2699
G01 X-0.5237 Y-0.3231
G01 X-0.4934 Y-0.3736
G01 X-0.4583 Y-0.4209
G01 X-0.4188 Y-0.4645
G01 X-0.3752 Y-0.5041
G01 X-0.3279 Y-0.5391
G01 X-0.2774 Y-0.5694
G01 X-0.2241 Y-0.5946
G01 X-0.1687 Y-0.6144
G01 X-0.1116 Y-0.6287
G01 X-0.0533 Y-0.6374
G01 X0.0055 Y-0.6403
G01 X23.2435 Y-0.6403
G00 X23.2435 Y-0.6403
G01 F60.00
G01 Z-1.2000
G01 F120.00
G01 X0.0055 Y-0.6403
G01 X-0.0533 Y-0.6374
G01 X-0.1116 Y-0.6287
G01 X-0.1687 Y-0.6144
G01 X-0.2241 Y-0.5946
G01 X-0.2774 Y-0.5694
G01 X-0.3279 Y-0.5391
G01 X-0.3752 Y-0.5041
G01 X-0.4188 Y-0.4645
G01 X-0.4583 Y-0.4209
G01 X-0.4934 Y-0.3736
G01 X-0.5237 Y-0.3231
G01 X-0.5489 Y-0.2699
G01 X-0.5687 Y-0.2144
G01 X-0.5830 Y-0.1573
G01 X-0.5916 Y-0.0991
G01 X-0.5945 Y-0.0403
G01 X-0.5945 Y21.6433
G00 X-0.5945 Y21.6433
G01 F60.00
G01 Z-1.8000
G01 F120.00
G01 X-0.5945 Y-0.0403
G01 X-0.5916 Y-0.0991
G01 X-0.5830 Y-0.1573
G01 X-0.5687 Y-0.2144
G01 X-0.5489 Y-0.2699
G01 X-0.5237 Y-0.3231
G01 X-0.4934 Y-0.3736
G01 X-0.4583 Y-0.4209
G01 X-0.4188 Y-0.4645
G01 X-0.3752 Y-0.5041
G01 X-0.3279 Y-0.5391
G01 X-0.2774 Y-0.5694
G01 X-0.2241 Y-0.5946
G01 X-0.1687 Y-0.6144
G01 X-0.1116 Y-0.6287
G01 X-0.0533 Y-0.6374
G01 X0.0055 Y-0.6403
G01 X23.2435 Y-0.6403
G00 Z2.0000
G00 X-0.5945 Y25.6433
G01 F60.00
G01 Z-0.6000
G01 F120.00
G01 X-0.5945 Y47.1268
G01 X-0.5916 Y47.1856
G01 X-0.5830 Y47.2438
G01 X-0.5687 Y47.3009
G01 X-0.5489 Y47.3564
G01 X-0.5237 Y47.4096
G01 X-0.4934 Y47.4601
G01 X-0.4583 Y47.5074
G01 X-0.4188 Y47.5510
G01 X-0.3752 Y47.5906
G01 X-0.3279 Y47.6257
G01 X-0.2774 Y47.6559
G01 X-0.2241 Y47.6811
G01 X-0.1687 Y47.7009
G01 X-0.1116 Y47.7152
G01 X-0.0533 Y47.7239
G01 X0.0055 Y47.7268
G01 X23.2435 Y47.7268
G00 X23.2435 Y47.7268
G01 F60.00
G01 Z-1.2000
G01 F120.00
G01 X0.0055 Y47.7268
G01 X-0.0533 Y47.7239
G01 X-0.1116 Y47.7152
G01 X-0.1687 Y47.7009
G01 X-0.2241 Y47.6811
G01 X-0.2774 Y47.6559
G01 X-0.3279 Y47.6257
G01 X-0.3752 Y47.5906
G01 X-0.4188 Y47.5510
G01 X-0.4583 Y47.5074
G01 X-0.4934 Y47.4601
G01 X-0.5237 Y47.4096
G01 X-0.5489 Y47.3564
G01 X-0.5687 Y47.3009
G01 X-0.5830 Y47.2438
G01 X-0.5916 Y47.1856
G01 X-0.5945 Y47.1268
G01 X-0.5945 Y25.6433
G00 X-0.5945 Y25.6433
G01 F60.00
G01 Z-1.8000
G01 F120.00
G01 X-0.5945 Y47.1268
G01 X-0.5916 Y47.1856
G01 X-0.5830 Y47.2438
G01 X-0.5687 Y47.3009
G01 X-0.5489 Y47.3564
G01 X-0.5237 Y47.4096
G01 X-0.4934 Y47.4601
G01 X-0.4583 Y47.5074
G01 X-0.4188 Y47.5510
G01 X-0.3752 Y47.5906
G01 X-0.3279 Y47.6257
G01 X-0.2774 Y47.6559
G01 X-0.2241 Y47.6811
G01 X-0.1687 Y47.7009
G01 X-0.1116 Y47.7152
G01 X-0.0533 Y47.7239
G01 X0.0055 Y47.7268
G01 X23.2435 Y47.7268
G00 Z2.0000
G00 X27.2435 Y47.7268
G01 F60.00
G01 Z-0.6000
G01 F120.00
G01 X50.2815 Y47.7268
G01 X50.3403 Y47.7239
G01 X50.3985 Y47.7152
G01 X50.4556 Y47.7009
G01 X50.5111 Y47.6811
G01 X50.5643 Y47.6559
G01 X50.6148 Y47.6257
G01 X50.6621 Y47.5906
G01 X50.7057 Y47.5510
G01 X50.7453 Y47.5074
G01 X50.7803 Y47.4601
G01 X50.8106 Y47.4096
G01 X50.8358 Y47.3564
G01 X50.8556 Y47.3009
G01 X50.8699 Y47.2438
G01 X50.8786 Y47.1856
G01 X50.8815 Y47.1268
G01 X50.8815 Y25.6433
G00 X50.8815 Y25.6433
G01 F60.00
G01 Z-1.2000
G01 F120.00
G01 X50.8815 Y47.1268
G01 X50.8786 Y47.1856
G01 X50.8699 Y47.2438
G01 X50.8556 Y47.3009
G01 X50.8358 Y47.3564
G01 X50.8106 Y47.4096
G01 X50.7803 Y47.4601
G01 X50.7453 Y47.5074
G01 X50.7057 Y47.5510
G01 X50.6621 Y47.5906
G01 X50.6148 Y47.6257
G01 X50.5643 Y47.6559
G01 X50.5111 Y47.6811
G01 X50.4556 Y47.7009
G01 X50.3985 Y47.7152
G01 X50.3403 Y47.7239
G01 X50.2815 Y47.7268
G01 X27.2435 Y47.7268
G00 X27.2435 Y47.7268
G01 F60.00
G01 Z-1.8000
G01 F120.00
G01 X50.2815 Y47.7268
G01 X50.3403 Y47.7239
G01 X50.3985 Y47.7152
G01 X50.4556 Y47.7009
G01 X50.5111 Y47.6811
G01 X50.5643 Y47.6559
G01 X50.6148 Y47.6257
G01 X50.6621 Y47.5906
G01 X50.7057 Y47.5510
G01 X50.7453 Y47.5074
G01 X50.7803 Y47.4601
G01 X50.8106 Y47.4096
G01 X50.8358 Y47.3564
G01 X50.8556 Y47.3009
G01 X50.8699 Y47.2438
G01 X50.8786 Y47.1856
G01 X50.8815 Y47.1268
G01 X50.8815 Y25.6433
G00 Z2.0000
G00 X50.8815 Y21.6433
G01 F60.00
G01 Z-0.6000
G01 F120.00
G01 X50.8815 Y-0.0403
G01 X50.8786 Y-0.0991
G01 X50.8699 Y-0.1573
G01 X50.8556 Y-0.2144
G01 X50.8358 Y-0.2699
G01 X50.8106 Y-0.3231
G01 X50.7803 Y-0.3736
G01 X50.7453 Y-0.4209
G01 X50.7057 Y-0.4645
G01 X50.6621 Y-0.5041
G01 X50.6148 Y-0.5391
G01 X50.5643 Y-0.5694
G01 X50.5111 Y-0.5946
G01 X50.4556 Y-0.6144
G01 X50.3985 Y-0.6287
G01 X50.3403 Y-0.6374
G01 X50.2815 Y-0.6403
G01 X27.2435 Y-0.6403
G00 X27.2435 Y-0.6403
G01 F60.00
G01 Z-1.2000
G01 F120.00
G01 X50.2815 Y-0.6403
G01 X50.3403 Y-0.6374
G01 X50.3985 Y-0.6287
G01 X50.4556 Y-0.6144
G01 X50.5111 Y-0.5946
G01 X50.5643 Y-0.5694
G01 X50.6148 Y-0.5391
G01 X50.6621 Y-0.5041
G01 X50.7057 Y-0.4645
G01 X50.7453 Y-0.4209
G01 X50.7803 Y-0.3736
G01 X50.8106 Y-0.3231
G01 X50.8358 Y-0.2699
G01 X50.8556 Y-0.2144
G01 X50.8699 Y-0.1573
G01 X50.8786 Y-0.0991
G01 X50.8815 Y-0.0403
G01 X50.8815 Y21.6433
G00 X50.8815 Y21.6433
G01 F60.00
G01 Z-1.8000
G01 F120.00
G01 X50.8815 Y-0.0403
G01 X50.8786 Y-0.0991
G01 X50.8699 Y-0.1573
G01 X50.8556 Y-0.2144
G01 X50.8358 Y-0.2699
G01 X50.8106 Y-0.3231
G01 X50.7803 Y-0.3736
G01 X50.7453 Y-0.4209
G01 X50.7057 Y-0.4645
G01 X50.6621 Y-0.5041
G01 X50.6148 Y-0.5391
G01 X50.5643 Y-0.5694
G01 X50.5111 Y-0.5946
G01 X50.4556 Y-0.6144
G01 X50.3985 Y-0.6287
G01 X50.3403 Y-0.6374
G01 X50.2815 Y-0.6403
G01 X27.2435 Y-0.6403
G00 Z2.0000
M05
G00 Z2.0000
G00 Z1.00


