(G-CODE GENERATED BY FLATCAM v8.994 - www.flatcam.org - Version Date: 2020/11/7)

(Name: fixed_head_pcb-PTH.drl_cnc)
(Type: G-code from Geometry)
(Units: MM)

(Created on mercredi, 09 mars 2022 at 20:25)

(This preprocessor is the default preprocessor used by FlatCAM.)
(It is made to work with MACH3 compatible motion controllers.)


(TOOLS DIAMETER: )
(Tool: 1 -> Dia: 0.95)
(Tool: 2 -> Dia: 1.0)
(Tool: 3 -> Dia: 3.0)

(FEEDRATE Z: )
(Tool: 1 -> Feedrate: 300)
(Tool: 2 -> Feedrate: 300.0)
(Tool: 3 -> Feedrate: 300)

(FEEDRATE RAPIDS: )
(Tool: 1 -> Feedrate Rapids: 1500)
(Tool: 2 -> Feedrate Rapids: 1500)
(Tool: 3 -> Feedrate Rapids: 1500)

(Z_CUT: )
(Tool: 1 -> Z_Cut: -1.7)
(Tool: 2 -> Z_Cut: -2.0)
(Tool: 3 -> Z_Cut: -1.7)

(Tools Offset: )
(Tool: 2 -> Offset Z: 0.0)

(Z_MOVE: )
(Tool: 1 -> Z_Move: 2)
(Tool: 2 -> Z_Move: 2)
(Tool: 3 -> Z_Move: 2)

(Z Toolchange: 15 mm)
(X,Y Toolchange: 0.0000, 0.0000 mm)
(Z Start: None mm)
(Z End: 8.0 mm)
(X,Y End: None mm)
(Steps per circle: 64)
(Preprocessor Excellon: default)

(X range:    2.9950 ...   57.4350  mm)
(Y range:    9.8430 ...   34.4630  mm)

(Spindle Speed: 1000 RPM)
G21
G90
G94

G01 F300.00

M5
G00 Z15.0000
T2
G00 X0.0000 Y0.0000                
M6
(MSG, Change to Tool Dia = 1.0000 ||| Total drills for tool T2 = 15)
M0
G00 Z15.0000

G01 F300.00
M03 S1000
G00 X12.5300 Y19.1430
G01 Z-2.0000
G01 Z0
G00 Z2.0000
G00 X12.5300 Y16.9430
G01 Z-2.0000
G01 Z0
G00 Z2.0000
G00 X12.5300 Y14.7430
G01 Z-2.0000
G01 Z0
G00 Z2.0000
G00 X12.5300 Y12.5430
G01 Z-2.0000
G01 Z0
G00 Z2.0000
G00 X12.5300 Y10.3430
G01 Z-2.0000
G01 Z0
G00 Z2.0000
G00 X47.7500 Y10.3430
G01 Z-2.0000
G01 Z0
G00 Z2.0000
G00 X47.7500 Y12.5430
G01 Z-2.0000
G01 Z0
G00 Z2.0000
G00 X47.7500 Y14.7430
G01 Z-2.0000
G01 Z0
G00 Z2.0000
G00 X47.7500 Y16.9430
G01 Z-2.0000
G01 Z0
G00 Z2.0000
G00 X47.7500 Y19.1430
G01 Z-2.0000
G01 Z0
G00 Z2.0000
G00 X34.5400 Y33.9630
G01 Z-2.0000
G01 Z0
G00 Z2.0000
G00 X32.3400 Y33.9630
G01 Z-2.0000
G01 Z0
G00 Z2.0000
G00 X30.1400 Y33.9630
G01 Z-2.0000
G01 Z0
G00 Z2.0000
G00 X27.9400 Y33.9630
G01 Z-2.0000
G01 Z0
G00 Z2.0000
G00 X25.7400 Y33.9630
G01 Z-2.0000
G01 Z0
G00 Z2.0000
M05
G00 Z8.00


