(G-CODE GENERATED BY FLATCAM v8.994 - www.flatcam.org - Version Date: 2020/11/7)

(Name: fixed_head_pcb-F_Cu.gbr_iso_combined_cnc)
(Type: G-code from Geometry)
(Units: MM)

(Created on dimanche, 13 mars 2022 at 09:42)

(This preprocessor is the default preprocessor used by FlatCAM.)
(It is made to work with MACH3 compatible motion controllers.)

(TOOL DIAMETER: 0.4 mm)
(Feedrate_XY: 120.0 mm/min)
(Feedrate_Z: 120.0 mm/min)
(Feedrate rapids 1500.0 mm/min)

(Z_Cut: -0.08 mm)
(Z_Move: 2.0 mm)
(Z Start: None mm)
(Z End: 15.0 mm)
(X,Y End: None mm)
(Steps per circle: 64)
(Preprocessor Geometry: default)

(X range:    0.3472 ...   59.9520  mm)
(Y range:    0.0525 ...   35.7205  mm)

(Spindle Speed: 1000.0 RPM)
G21
G90
G94

G01 F120.00

M5
G00 Z15.0000
G00 X0.0000 Y0.0000
T1
M6    
(MSG, Change to Tool Dia = 0.4000)
M0
G00 Z15.0000

M03 S1000.0
G01 F120.00
G00 X5.4837 Y32.6706
G01 F120.00
G01 Z-0.0800
G01 F120.00
G01 X5.5591 Y32.6350
G01 X5.5698 Y32.6303
G01 X5.5698 Y19.1027
G01 X5.5717 Y19.0635
G01 X5.5766 Y19.0295
G01 X5.5785 Y19.0198
G01 X5.5844 Y18.9960
G01 X5.5901 Y18.9772
G01 X5.6003 Y18.9496
G01 X5.6126 Y18.9228
G01 X5.6194 Y18.9098
G01 X5.6320 Y18.8887
G01 X5.6400 Y18.8763
G01 X5.6576 Y18.8527
G01 X5.6671 Y18.8414
G01 X5.6870 Y18.8198
G01 X11.5994 Y12.9074
G01 X11.5730 Y12.8330
G01 X11.5513 Y12.7473
G01 X11.5475 Y12.7281
G01 X11.5347 Y12.6407
G01 X11.5302 Y12.5525
G01 X11.5302 Y12.5329
G01 X11.5347 Y12.4447
G01 X11.5491 Y12.3476
G01 X11.5730 Y12.2524
G01 X11.6025 Y12.1692
G01 X11.6100 Y12.1510
G01 X11.6480 Y12.0713
G01 X11.6932 Y11.9954
G01 X11.7041 Y11.9791
G01 X11.7569 Y11.9083
G01 X11.8228 Y11.8356
G01 X11.8881 Y11.7761
G01 X11.9033 Y11.7636
G01 X11.9743 Y11.7112
G01 X12.0585 Y11.6608
G01 X12.1383 Y11.6228
G01 X12.1564 Y11.6153
G01 X12.2396 Y11.5857
G01 X12.3253 Y11.5640
G01 X12.3445 Y11.5602
G01 X12.4319 Y11.5475
G01 X12.5201 Y11.5429
G01 X12.5397 Y11.5429
G01 X12.6279 Y11.5475
G01 X12.7153 Y11.5602
G01 X12.7346 Y11.5640
G01 X12.8107 Y11.5831
G01 X12.8295 Y11.5888
G01 X12.9034 Y11.6153
G01 X12.9216 Y11.6228
G01 X13.0013 Y11.6608
G01 X13.0772 Y11.7060
G01 X13.0935 Y11.7169
G01 X13.1643 Y11.7697
G01 X13.2370 Y11.8356
G01 X13.3029 Y11.9083
G01 X13.3557 Y11.9791
G01 X13.3666 Y11.9954
G01 X13.4118 Y12.0713
G01 X13.4498 Y12.1510
G01 X13.4573 Y12.1692
G01 X13.4869 Y12.2524
G01 X13.5086 Y12.3380
G01 X13.5124 Y12.3573
G01 X13.5251 Y12.4447
G01 X13.5297 Y12.5329
G01 X13.5297 Y12.5525
G01 X13.5251 Y12.6407
G01 X13.5107 Y12.7378
G01 X13.4869 Y12.8330
G01 X13.4573 Y12.9162
G01 X13.4498 Y12.9343
G01 X13.4118 Y13.0141
G01 X13.3666 Y13.0900
G01 X13.3557 Y13.1063
G01 X13.3029 Y13.1771
G01 X13.2438 Y13.2427
G01 X13.2299 Y13.2566
G01 X13.1643 Y13.3157
G01 X13.0855 Y13.3741
G01 X13.0013 Y13.4246
G01 X12.9216 Y13.4626
G01 X12.9034 Y13.4701
G01 X12.8295 Y13.4965
G01 X12.8107 Y13.5022
G01 X12.7250 Y13.5235
G01 X12.6377 Y13.5367
G01 X12.6181 Y13.5386
G01 X12.5397 Y13.5424
G01 X12.5201 Y13.5424
G01 X12.4319 Y13.5379
G01 X12.3348 Y13.5235
G01 X12.2396 Y13.4996
G01 X12.1652 Y13.4732
G01 X6.3700 Y19.2684
G01 X6.3700 Y32.6303
G01 X6.3807 Y32.6350
G01 X6.4561 Y32.6706
G01 X6.4734 Y32.6799
G01 X6.5533 Y32.7280
G01 X6.6360 Y32.7894
G01 X6.7124 Y32.8586
G01 X6.7752 Y32.9275
G01 X6.7876 Y32.9427
G01 X6.8430 Y33.0177
G01 X6.8911 Y33.0976
G01 X6.9004 Y33.1149
G01 X6.9400 Y33.1993
G01 X6.9747 Y33.2963
G01 X6.9997 Y33.3962
G01 X7.0137 Y33.4884
G01 X7.0156 Y33.5080
G01 X7.0199 Y33.6011
G01 X7.0197 Y33.8609
G01 X7.0149 Y33.9540
G01 X7.0006 Y34.0511
G01 X6.9976 Y34.0655
G01 X6.9773 Y34.1464
G01 X6.9716 Y34.1652
G01 X6.9400 Y34.2529
G01 X6.8959 Y34.3460
G01 X6.8430 Y34.4344
G01 X6.7816 Y34.5172
G01 X6.7124 Y34.5935
G01 X6.6435 Y34.6563
G01 X6.6283 Y34.6688
G01 X6.5613 Y34.7185
G01 X6.5450 Y34.7294
G01 X6.4649 Y34.7771
G01 X6.3717 Y34.8212
G01 X6.2747 Y34.8559
G01 X6.1748 Y34.8809
G01 X6.0728 Y34.8960
G01 X5.9699 Y34.9011
G01 X5.8670 Y34.8960
G01 X5.7651 Y34.8809
G01 X5.6651 Y34.8559
G01 X5.5681 Y34.8212
G01 X5.4750 Y34.7771
G01 X5.3866 Y34.7241
G01 X5.3038 Y34.6627
G01 X5.2275 Y34.5935
G01 X5.1583 Y34.5172
G01 X5.0969 Y34.4344
G01 X5.0439 Y34.3460
G01 X4.9998 Y34.2529
G01 X4.9651 Y34.1559
G01 X4.9401 Y34.0559
G01 X4.9250 Y33.9540
G01 X4.9200 Y33.8560
G01 X4.9200 Y33.5962
G01 X4.9246 Y33.5031
G01 X4.9262 Y33.4884
G01 X4.9401 Y33.3962
G01 X4.9651 Y33.2963
G01 X4.9998 Y33.1993
G01 X5.0439 Y33.1061
G01 X5.0969 Y33.0177
G01 X5.1583 Y32.9350
G01 X5.2275 Y32.8586
G01 X5.3038 Y32.7894
G01 X5.3866 Y32.7280
G01 X5.4664 Y32.6799
G01 X5.4837 Y32.6706
G00 Z2.0000
G00 X4.7394 Y32.9805
G01 F120.00
G01 Z-0.0800
G01 F120.00
G01 X4.7376 Y32.9457
G01 X4.7356 Y32.9252
G01 X4.7306 Y32.8907
G01 X4.7270 Y32.8704
G01 X4.7225 Y32.8503
G01 X4.7139 Y32.8165
G01 X4.7080 Y32.7968
G01 X4.6963 Y32.7639
G01 X4.6889 Y32.7447
G01 X4.6806 Y32.7258
G01 X4.6656 Y32.6944
G01 X4.6558 Y32.6762
G01 X4.6380 Y32.6463
G01 X4.6270 Y32.6288
G01 X4.6151 Y32.6120
G01 X4.5943 Y32.5841
G01 X4.5812 Y32.5681
G01 X4.5579 Y32.5422
G01 X4.5437 Y32.5273
G01 X4.5288 Y32.5131
G01 X4.5029 Y32.4898
G01 X4.4869 Y32.4767
G01 X4.4590 Y32.4559
G01 X4.4422 Y32.4440
G01 X4.4247 Y32.4330
G01 X4.4037 Y32.4204
G01 X4.3858 Y32.4102
G01 X4.3673 Y32.4009
G01 X4.3358 Y32.3861
G01 X4.3167 Y32.3783
G01 X4.2742 Y32.3630
G01 X4.2545 Y32.3571
G01 X4.2401 Y32.3533
G01 X4.2401 Y19.7217
G01 X11.3146 Y12.6472
G01 X11.3158 Y12.6623
G01 X11.3183 Y12.6827
G01 X11.3315 Y12.7706
G01 X11.3355 Y12.7908
G01 X11.3493 Y12.8464
G01 X5.5314 Y18.6642
G01 X5.5040 Y18.6937
G01 X5.4972 Y18.7014
G01 X5.4841 Y18.7173
G01 X5.4602 Y18.7497
G01 X5.4487 Y18.7668
G01 X5.4433 Y18.7756
G01 X5.4230 Y18.8104
G01 X5.4054 Y18.8465
G01 X5.4011 Y18.8559
G01 X5.3932 Y18.8749
G01 X5.3796 Y18.9128
G01 X5.3737 Y18.9326
G01 X5.3663 Y18.9616
G01 X5.3617 Y18.9817
G01 X5.3582 Y19.0020
G01 X5.3539 Y19.0317
G01 X5.3519 Y19.0522
G01 X5.3503 Y19.0821
G01 X5.3498 Y19.1027
G01 X5.3498 Y32.4933
G01 X5.2818 Y32.5341
G01 X5.2643 Y32.5451
G01 X5.2475 Y32.5570
G01 X5.1805 Y32.6067
G01 X5.1642 Y32.6194
G01 X5.1564 Y32.6260
G01 X5.0868 Y32.6888
G01 X5.0719 Y32.7031
G01 X5.0577 Y32.7180
G01 X5.0017 Y32.7798
G01 X4.9882 Y32.7954
G01 X4.9818 Y32.8034
G01 X4.9258 Y32.8787
G01 X4.9140 Y32.8955
G01 X4.9029 Y32.9129
G01 X4.8600 Y32.9845
G01 X4.8499 Y33.0024
G01 X4.8451 Y33.0116
G01 X4.8049 Y33.0962
G01 X4.7966 Y33.1151
G01 X4.7928 Y33.1246
G01 X4.7577 Y33.2226
G01 X4.7517 Y33.2423
G01 X4.7399 Y33.2890
G01 X4.7399 Y33.0011
G01 X4.7394 Y32.9805
G00 Z2.0000
G00 X7.2174 Y33.3634
G01 F120.00
G01 Z-0.0800
G01 F120.00
G01 X7.2134 Y33.3432
G01 X7.2110 Y33.3332
G01 X7.1907 Y33.2523
G01 X7.1852 Y33.2324
G01 X7.1788 Y33.2128
G01 X7.1507 Y33.1343
G01 X7.1432 Y33.1151
G01 X7.1349 Y33.0962
G01 X7.0992 Y33.0208
G01 X7.0900 Y33.0024
G01 X7.0798 Y32.9845
G01 X7.0369 Y32.9129
G01 X7.0315 Y32.9041
G01 X7.0201 Y32.8870
G01 X6.9643 Y32.8117
G01 X6.9581 Y32.8034
G01 X6.9450 Y32.7875
G01 X6.8751 Y32.7104
G01 X6.8606 Y32.6959
G01 X6.8530 Y32.6888
G01 X6.7835 Y32.6260
G01 X6.7676 Y32.6129
G01 X6.7593 Y32.6067
G01 X6.6923 Y32.5570
G01 X6.6755 Y32.5451
G01 X6.6581 Y32.5341
G01 X6.5900 Y32.4933
G01 X6.5900 Y19.3595
G01 X11.3148 Y14.6347
G01 X11.3104 Y14.7221
G01 X11.3099 Y14.7427
G01 X11.3104 Y14.7633
G01 X11.3149 Y14.8520
G01 X11.3169 Y14.8725
G01 X11.3183 Y14.8827
G01 X11.3315 Y14.9706
G01 X11.3355 Y14.9908
G01 X11.3493 Y15.0464
G01 X8.0242 Y18.3716
G01 X8.0040 Y18.3937
G01 X7.9906 Y18.4093
G01 X7.9662 Y18.4413
G01 X7.9543 Y18.4582
G01 X7.9487 Y18.4668
G01 X7.9332 Y18.4924
G01 X7.9230 Y18.5104
G01 X7.9138 Y18.5288
G01 X7.9011 Y18.5559
G01 X7.8932 Y18.5749
G01 X7.8896 Y18.5846
G01 X7.8765 Y18.6227
G01 X7.8710 Y18.6425
G01 X7.8639 Y18.6716
G01 X7.8617 Y18.6817
G01 X7.8582 Y18.7020
G01 X7.8528 Y18.7419
G01 X7.8503 Y18.7821
G01 X7.8498 Y18.8027
G01 X7.8498 Y32.4933
G01 X7.7818 Y32.5341
G01 X7.7643 Y32.5451
G01 X7.7475 Y32.5570
G01 X7.6805 Y32.6067
G01 X7.6642 Y32.6194
G01 X7.6564 Y32.6260
G01 X7.5868 Y32.6888
G01 X7.5793 Y32.6959
G01 X7.5647 Y32.7104
G01 X7.4948 Y32.7875
G01 X7.4818 Y32.8034
G01 X7.4755 Y32.8117
G01 X7.4258 Y32.8787
G01 X7.4140 Y32.8955
G01 X7.4083 Y32.9041
G01 X7.3549 Y32.9934
G01 X7.3499 Y33.0024
G01 X7.3406 Y33.0208
G01 X7.3007 Y33.1056
G01 X7.2966 Y33.1151
G01 X7.2892 Y33.1343
G01 X7.2611 Y33.2128
G01 X7.2546 Y33.2324
G01 X7.2491 Y33.2523
G01 X7.2265 Y33.3432
G01 X7.2224 Y33.3634
G01 X7.2199 Y33.3795
G01 X7.2174 Y33.3634
G00 Z2.0000
G00 X7.9837 Y32.6706
G01 F120.00
G01 Z-0.0800
G01 F120.00
G01 X8.0591 Y32.6350
G01 X8.0698 Y32.6303
G01 X8.0698 Y18.8027
G01 X8.0713 Y18.7684
G01 X8.0729 Y18.7537
G01 X8.0775 Y18.7246
G01 X8.0844 Y18.6960
G01 X8.0885 Y18.6819
G01 X8.1003 Y18.6496
G01 X8.1126 Y18.6228
G01 X8.1194 Y18.6098
G01 X8.1372 Y18.5804
G01 X8.1546 Y18.5566
G01 X8.1638 Y18.5451
G01 X8.1870 Y18.5198
G01 X11.5994 Y15.1074
G01 X11.5730 Y15.0330
G01 X11.5513 Y14.9473
G01 X11.5475 Y14.9281
G01 X11.5347 Y14.8407
G01 X11.5302 Y14.7525
G01 X11.5302 Y14.7329
G01 X11.5347 Y14.6447
G01 X11.5491 Y14.5476
G01 X11.5730 Y14.4524
G01 X11.6025 Y14.3692
G01 X11.6100 Y14.3510
G01 X11.6480 Y14.2713
G01 X11.6932 Y14.1954
G01 X11.7041 Y14.1791
G01 X11.7569 Y14.1083
G01 X11.8194 Y14.0391
G01 X11.8299 Y14.0288
G01 X11.8881 Y13.9761
G01 X11.9033 Y13.9636
G01 X11.9743 Y13.9112
G01 X12.0500 Y13.8656
G01 X12.0673 Y13.8563
G01 X12.1472 Y13.8188
G01 X12.2303 Y13.7888
G01 X12.2491 Y13.7831
G01 X12.3348 Y13.7619
G01 X12.4222 Y13.7487
G01 X12.4417 Y13.7468
G01 X12.5299 Y13.7427
G01 X12.6181 Y13.7468
G01 X12.6377 Y13.7487
G01 X12.7250 Y13.7619
G01 X12.8107 Y13.7831
G01 X12.8295 Y13.7888
G01 X12.9126 Y13.8188
G01 X12.9925 Y13.8563
G01 X13.0099 Y13.8656
G01 X13.0855 Y13.9112
G01 X13.1566 Y13.9636
G01 X13.1717 Y13.9761
G01 X13.2370 Y14.0356
G01 X13.3029 Y14.1083
G01 X13.3557 Y14.1791
G01 X13.3666 Y14.1954
G01 X13.4118 Y14.2713
G01 X13.4498 Y14.3510
G01 X13.4573 Y14.3692
G01 X13.4869 Y14.4524
G01 X13.5086 Y14.5380
G01 X13.5124 Y14.5573
G01 X13.5251 Y14.6447
G01 X13.5297 Y14.7329
G01 X13.5297 Y14.7525
G01 X13.5251 Y14.8407
G01 X13.5107 Y14.9378
G01 X13.4869 Y15.0330
G01 X13.4573 Y15.1162
G01 X13.4498 Y15.1343
G01 X13.4163 Y15.2053
G01 X13.4070 Y15.2226
G01 X13.3614 Y15.2983
G01 X13.3090 Y15.3693
G01 X13.2965 Y15.3845
G01 X13.2438 Y15.4427
G01 X13.2299 Y15.4566
G01 X13.1643 Y15.5157
G01 X13.0855 Y15.5741
G01 X13.0013 Y15.6246
G01 X12.9216 Y15.6626
G01 X12.9034 Y15.6701
G01 X12.8295 Y15.6965
G01 X12.8155 Y15.7010
G01 X12.7250 Y15.7235
G01 X12.6377 Y15.7367
G01 X12.6181 Y15.7386
G01 X12.5397 Y15.7424
G01 X12.5201 Y15.7424
G01 X12.4319 Y15.7379
G01 X12.3348 Y15.7235
G01 X12.2396 Y15.6996
G01 X12.1652 Y15.6732
G01 X8.8700 Y18.9684
G01 X8.8700 Y32.6303
G01 X8.8807 Y32.6350
G01 X8.9561 Y32.6706
G01 X8.9734 Y32.6799
G01 X9.0533 Y32.7280
G01 X9.1360 Y32.7894
G01 X9.2053 Y32.8518
G01 X9.2192 Y32.8657
G01 X9.2816 Y32.9350
G01 X9.3430 Y33.0177
G01 X9.3911 Y33.0976
G01 X9.4004 Y33.1149
G01 X9.4400 Y33.1993
G01 X9.4747 Y33.2963
G01 X9.4997 Y33.3962
G01 X9.5137 Y33.4884
G01 X9.5156 Y33.5080
G01 X9.5199 Y33.6011
G01 X9.5197 Y33.8609
G01 X9.5149 Y33.9540
G01 X9.5006 Y34.0511
G01 X9.4976 Y34.0655
G01 X9.4773 Y34.1464
G01 X9.4716 Y34.1652
G01 X9.4400 Y34.2529
G01 X9.3959 Y34.3460
G01 X9.3430 Y34.4344
G01 X9.2876 Y34.5095
G01 X9.2752 Y34.5246
G01 X9.2192 Y34.5864
G01 X9.2053 Y34.6003
G01 X9.1360 Y34.6627
G01 X9.0533 Y34.7241
G01 X8.9649 Y34.7771
G01 X8.8717 Y34.8212
G01 X8.7747 Y34.8559
G01 X8.6748 Y34.8809
G01 X8.5728 Y34.8960
G01 X8.4699 Y34.9011
G01 X8.3670 Y34.8960
G01 X8.2651 Y34.8809
G01 X8.1651 Y34.8559
G01 X8.0681 Y34.8212
G01 X7.9750 Y34.7771
G01 X7.8866 Y34.7241
G01 X7.8038 Y34.6627
G01 X7.7275 Y34.5935
G01 X7.6583 Y34.5172
G01 X7.5969 Y34.4344
G01 X7.5439 Y34.3460
G01 X7.4998 Y34.2529
G01 X7.4651 Y34.1559
G01 X7.4401 Y34.0559
G01 X7.4250 Y33.9540
G01 X7.4200 Y33.8560
G01 X7.4200 Y33.5962
G01 X7.4246 Y33.5031
G01 X7.4262 Y33.4884
G01 X7.4401 Y33.3962
G01 X7.4651 Y33.2963
G01 X7.4998 Y33.1993
G01 X7.5439 Y33.1061
G01 X7.5969 Y33.0177
G01 X7.6583 Y32.9350
G01 X7.7275 Y32.8586
G01 X7.8038 Y32.7894
G01 X7.8866 Y32.7280
G01 X7.9664 Y32.6799
G01 X7.9837 Y32.6706
G00 Z2.0000
G00 X9.7134 Y33.3432
G01 F120.00
G01 Z-0.0800
G01 F120.00
G01 X9.6907 Y33.2523
G01 X9.6852 Y33.2324
G01 X9.6788 Y33.2128
G01 X9.6507 Y33.1343
G01 X9.6432 Y33.1151
G01 X9.6392 Y33.1056
G01 X9.5992 Y33.0208
G01 X9.5947 Y33.0116
G01 X9.5850 Y32.9934
G01 X9.5315 Y32.9041
G01 X9.5259 Y32.8955
G01 X9.5140 Y32.8787
G01 X9.4643 Y32.8117
G01 X9.4516 Y32.7954
G01 X9.4450 Y32.7875
G01 X9.3751 Y32.7104
G01 X9.3679 Y32.7031
G01 X9.3530 Y32.6888
G01 X9.2835 Y32.6260
G01 X9.2676 Y32.6129
G01 X9.2593 Y32.6067
G01 X9.1923 Y32.5570
G01 X9.1755 Y32.5451
G01 X9.1581 Y32.5341
G01 X9.0900 Y32.4933
G01 X9.0900 Y19.0595
G01 X11.3148 Y16.8347
G01 X11.3104 Y16.9221
G01 X11.3099 Y16.9427
G01 X11.3104 Y16.9633
G01 X11.3149 Y17.0520
G01 X11.3169 Y17.0725
G01 X11.3183 Y17.0827
G01 X11.3315 Y17.1706
G01 X11.3355 Y17.1908
G01 X11.3493 Y17.2464
G01 X10.5314 Y18.0642
G01 X10.5040 Y18.0937
G01 X10.4906 Y18.1093
G01 X10.4779 Y18.1255
G01 X10.4602 Y18.1497
G01 X10.4487 Y18.1668
G01 X10.4332 Y18.1924
G01 X10.4280 Y18.2013
G01 X10.4183 Y18.2195
G01 X10.4054 Y18.2465
G01 X10.3970 Y18.2654
G01 X10.3896 Y18.2846
G01 X10.3796 Y18.3128
G01 X10.3737 Y18.3326
G01 X10.3663 Y18.3616
G01 X10.3639 Y18.3716
G01 X10.3598 Y18.3918
G01 X10.3553 Y18.4214
G01 X10.3528 Y18.4419
G01 X10.3503 Y18.4821
G01 X10.3498 Y18.5027
G01 X10.3498 Y32.4933
G01 X10.2818 Y32.5341
G01 X10.2643 Y32.5451
G01 X10.2475 Y32.5570
G01 X10.1805 Y32.6067
G01 X10.1642 Y32.6194
G01 X10.1564 Y32.6260
G01 X10.0868 Y32.6888
G01 X10.0719 Y32.7031
G01 X10.0647 Y32.7104
G01 X9.9948 Y32.7875
G01 X9.9882 Y32.7954
G01 X9.9755 Y32.8117
G01 X9.9258 Y32.8787
G01 X9.9140 Y32.8955
G01 X9.9029 Y32.9129
G01 X9.8600 Y32.9845
G01 X9.8549 Y32.9934
G01 X9.8451 Y33.0116
G01 X9.8007 Y33.1056
G01 X9.7966 Y33.1151
G01 X9.7892 Y33.1343
G01 X9.7611 Y33.2128
G01 X9.7546 Y33.2324
G01 X9.7491 Y33.2523
G01 X9.7265 Y33.3432
G01 X9.7224 Y33.3634
G01 X9.7199 Y33.3795
G01 X9.7174 Y33.3634
G01 X9.7134 Y33.3432
G00 Z2.0000
G00 X10.4837 Y32.6706
G01 F120.00
G01 Z-0.0800
G01 F120.00
G01 X10.5591 Y32.6350
G01 X10.5698 Y32.6303
G01 X10.5698 Y18.5027
G01 X10.5710 Y18.4733
G01 X10.5723 Y18.4586
G01 X10.5775 Y18.4246
G01 X10.5844 Y18.3960
G01 X10.5901 Y18.3772
G01 X10.5985 Y18.3541
G01 X10.6022 Y18.3451
G01 X10.6171 Y18.3141
G01 X10.6346 Y18.2845
G01 X10.6400 Y18.2763
G01 X10.6546 Y18.2566
G01 X10.6671 Y18.2414
G01 X10.6870 Y18.2198
G01 X11.5994 Y17.3074
G01 X11.5730 Y17.2330
G01 X11.5513 Y17.1473
G01 X11.5475 Y17.1281
G01 X11.5347 Y17.0407
G01 X11.5302 Y16.9525
G01 X11.5302 Y16.9329
G01 X11.5347 Y16.8447
G01 X11.5475 Y16.7573
G01 X11.5513 Y16.7380
G01 X11.5730 Y16.6524
G01 X11.6025 Y16.5692
G01 X11.6100 Y16.5510
G01 X11.6480 Y16.4713
G01 X11.6932 Y16.3954
G01 X11.7041 Y16.3791
G01 X11.7569 Y16.3083
G01 X11.8160 Y16.2427
G01 X11.8299 Y16.2288
G01 X11.8955 Y16.1697
G01 X11.9663 Y16.1169
G01 X11.9826 Y16.1060
G01 X12.0585 Y16.0608
G01 X12.1472 Y16.0188
G01 X12.2303 Y15.9888
G01 X12.2491 Y15.9831
G01 X12.3348 Y15.9619
G01 X12.4222 Y15.9487
G01 X12.4417 Y15.9468
G01 X12.5299 Y15.9427
G01 X12.6181 Y15.9468
G01 X12.6328 Y15.9480
G01 X12.7153 Y15.9602
G01 X12.7346 Y15.9640
G01 X12.8202 Y15.9857
G01 X12.9034 Y16.0153
G01 X12.9216 Y16.0228
G01 X13.0013 Y16.0608
G01 X13.0855 Y16.1112
G01 X13.1643 Y16.1697
G01 X13.2299 Y16.2288
G01 X13.2438 Y16.2427
G01 X13.2965 Y16.3009
G01 X13.3090 Y16.3160
G01 X13.3614 Y16.3871
G01 X13.4070 Y16.4627
G01 X13.4163 Y16.4801
G01 X13.4538 Y16.5600
G01 X13.4838 Y16.6431
G01 X13.4895 Y16.6619
G01 X13.5086 Y16.7380
G01 X13.5124 Y16.7573
G01 X13.5251 Y16.8447
G01 X13.5297 Y16.9329
G01 X13.5297 Y16.9525
G01 X13.5251 Y17.0407
G01 X13.5107 Y17.1378
G01 X13.4869 Y17.2330
G01 X13.4573 Y17.3162
G01 X13.4498 Y17.3343
G01 X13.4118 Y17.4141
G01 X13.3614 Y17.4983
G01 X13.3029 Y17.5771
G01 X13.2370 Y17.6498
G01 X13.1643 Y17.7157
G01 X13.0855 Y17.7741
G01 X13.0013 Y17.8246
G01 X12.9126 Y17.8666
G01 X12.8202 Y17.8996
G01 X12.7250 Y17.9235
G01 X12.6279 Y17.9379
G01 X12.5299 Y17.9427
G01 X12.4319 Y17.9379
G01 X12.3348 Y17.9235
G01 X12.2396 Y17.8996
G01 X12.1652 Y17.8732
G01 X11.3700 Y18.6684
G01 X11.3700 Y32.6303
G01 X11.3807 Y32.6350
G01 X11.4561 Y32.6706
G01 X11.4734 Y32.6799
G01 X11.5533 Y32.7280
G01 X11.6360 Y32.7894
G01 X11.7053 Y32.8518
G01 X11.7192 Y32.8657
G01 X11.7816 Y32.9350
G01 X11.8430 Y33.0177
G01 X11.8911 Y33.0976
G01 X11.9004 Y33.1149
G01 X11.9400 Y33.1993
G01 X11.9747 Y33.2963
G01 X11.9997 Y33.3962
G01 X12.0137 Y33.4884
G01 X12.0156 Y33.5080
G01 X12.0199 Y33.6011
G01 X12.0197 Y33.8609
G01 X12.0149 Y33.9540
G01 X12.0006 Y34.0511
G01 X11.9976 Y34.0655
G01 X11.9773 Y34.1464
G01 X11.9716 Y34.1652
G01 X11.9400 Y34.2529
G01 X11.8959 Y34.3460
G01 X11.8430 Y34.4344
G01 X11.7876 Y34.5095
G01 X11.7752 Y34.5246
G01 X11.7192 Y34.5864
G01 X11.7053 Y34.6003
G01 X11.6360 Y34.6627
G01 X11.5533 Y34.7241
G01 X11.4649 Y34.7771
G01 X11.3717 Y34.8212
G01 X11.2747 Y34.8559
G01 X11.1748 Y34.8809
G01 X11.0728 Y34.8960
G01 X10.9699 Y34.9011
G01 X10.8670 Y34.8960
G01 X10.7651 Y34.8809
G01 X10.6651 Y34.8559
G01 X10.5681 Y34.8212
G01 X10.4750 Y34.7771
G01 X10.3866 Y34.7241
G01 X10.3038 Y34.6627
G01 X10.2275 Y34.5935
G01 X10.1583 Y34.5172
G01 X10.0969 Y34.4344
G01 X10.0439 Y34.3460
G01 X9.9998 Y34.2529
G01 X9.9651 Y34.1559
G01 X9.9401 Y34.0559
G01 X9.9250 Y33.9540
G01 X9.9200 Y33.8560
G01 X9.9200 Y33.5962
G01 X9.9246 Y33.5031
G01 X9.9262 Y33.4884
G01 X9.9401 Y33.3962
G01 X9.9651 Y33.2963
G01 X9.9998 Y33.1993
G01 X10.0439 Y33.1061
G01 X10.0969 Y33.0177
G01 X10.1583 Y32.9350
G01 X10.2275 Y32.8586
G01 X10.3038 Y32.7894
G01 X10.3866 Y32.7280
G01 X10.4664 Y32.6799
G01 X10.4837 Y32.6706
G00 Z2.0000
G00 X12.2155 Y33.3533
G01 F120.00
G01 Z-0.0800
G01 F120.00
G01 X12.2110 Y33.3332
G01 X12.1907 Y33.2523
G01 X12.1852 Y33.2324
G01 X12.1788 Y33.2128
G01 X12.1507 Y33.1343
G01 X12.1432 Y33.1151
G01 X12.1349 Y33.0962
G01 X12.0992 Y33.0208
G01 X12.0900 Y33.0024
G01 X12.0798 Y32.9845
G01 X12.0369 Y32.9129
G01 X12.0259 Y32.8955
G01 X12.0140 Y32.8787
G01 X11.9643 Y32.8117
G01 X11.9516 Y32.7954
G01 X11.9450 Y32.7875
G01 X11.8751 Y32.7104
G01 X11.8679 Y32.7031
G01 X11.8530 Y32.6888
G01 X11.7835 Y32.6260
G01 X11.7676 Y32.6129
G01 X11.7593 Y32.6067
G01 X11.6923 Y32.5570
G01 X11.6755 Y32.5451
G01 X11.6581 Y32.5341
G01 X11.5900 Y32.4933
G01 X11.5900 Y19.9204
G01 X11.6003 Y19.9322
G01 X11.6530 Y19.9904
G01 X11.6672 Y20.0054
G01 X11.6822 Y20.0196
G01 X11.7481 Y20.0791
G01 X11.7560 Y20.0858
G01 X11.7722 Y20.0984
G01 X11.8436 Y20.1512
G01 X11.8608 Y20.1627
G01 X11.9098 Y20.1922
G01 X11.9098 Y31.2108
G01 X11.9113 Y31.2510
G01 X11.9128 Y31.2716
G01 X11.9153 Y31.2920
G01 X11.9198 Y31.3216
G01 X11.9239 Y31.3418
G01 X11.9310 Y31.3709
G01 X11.9365 Y31.3908
G01 X11.9396 Y31.4006
G01 X11.9496 Y31.4288
G01 X11.9570 Y31.4481
G01 X11.9654 Y31.4669
G01 X11.9783 Y31.4939
G01 X11.9830 Y31.5031
G01 X11.9932 Y31.5210
G01 X12.0087 Y31.5466
G01 X12.0202 Y31.5638
G01 X12.0379 Y31.5879
G01 X12.0506 Y31.6042
G01 X12.0772 Y31.6343
G01 X12.0914 Y31.6493
G01 X12.8498 Y32.4076
G01 X12.8498 Y32.4933
G01 X12.7818 Y32.5341
G01 X12.7643 Y32.5451
G01 X12.7475 Y32.5570
G01 X12.6805 Y32.6067
G01 X12.6642 Y32.6194
G01 X12.6564 Y32.6260
G01 X12.5868 Y32.6888
G01 X12.5719 Y32.7031
G01 X12.5577 Y32.7180
G01 X12.5017 Y32.7798
G01 X12.4882 Y32.7954
G01 X12.4755 Y32.8117
G01 X12.4258 Y32.8787
G01 X12.4140 Y32.8955
G01 X12.4029 Y32.9129
G01 X12.3600 Y32.9845
G01 X12.3499 Y33.0024
G01 X12.3406 Y33.0208
G01 X12.3049 Y33.0962
G01 X12.2966 Y33.1151
G01 X12.2892 Y33.1343
G01 X12.2611 Y33.2128
G01 X12.2577 Y33.2226
G01 X12.2517 Y33.2423
G01 X12.2265 Y33.3432
G01 X12.2224 Y33.3634
G01 X12.2199 Y33.3795
G01 X12.2155 Y33.3533
G00 Z2.0000
G00 X12.1310 Y31.2402
G01 F120.00
G01 Z-0.0800
G01 F120.00
G01 X12.1298 Y31.2108
G01 X12.1298 Y20.0586
G01 X12.0585 Y20.0246
G01 X11.9826 Y19.9794
G01 X11.9663 Y19.9685
G01 X11.8955 Y19.9157
G01 X11.8299 Y19.8566
G01 X11.8160 Y19.8427
G01 X11.7569 Y19.7771
G01 X11.6985 Y19.6983
G01 X11.6528 Y19.6226
G01 X11.6436 Y19.6053
G01 X11.6060 Y19.5254
G01 X11.5730 Y19.4330
G01 X11.5491 Y19.3378
G01 X11.5359 Y19.2504
G01 X11.5340 Y19.2309
G01 X11.5302 Y19.1525
G01 X11.5300 Y19.1378
G01 X11.5347 Y19.0447
G01 X11.5491 Y18.9476
G01 X11.5730 Y18.8524
G01 X11.6060 Y18.7600
G01 X11.6480 Y18.6713
G01 X11.6985 Y18.5871
G01 X11.7569 Y18.5083
G01 X11.8228 Y18.4356
G01 X11.8955 Y18.3697
G01 X11.9743 Y18.3112
G01 X12.0585 Y18.2608
G01 X12.1472 Y18.2188
G01 X12.2396 Y18.1857
G01 X12.3348 Y18.1619
G01 X12.4319 Y18.1475
G01 X12.5201 Y18.1429
G01 X12.5348 Y18.1427
G01 X12.6279 Y18.1475
G01 X12.7250 Y18.1619
G01 X12.8202 Y18.1857
G01 X12.9126 Y18.2188
G01 X13.0013 Y18.2608
G01 X13.0855 Y18.3112
G01 X13.1643 Y18.3697
G01 X13.2299 Y18.4288
G01 X13.2438 Y18.4427
G01 X13.2965 Y18.5009
G01 X13.3090 Y18.5160
G01 X13.3614 Y18.5871
G01 X13.4070 Y18.6627
G01 X13.4163 Y18.6801
G01 X13.4538 Y18.7600
G01 X13.4869 Y18.8524
G01 X13.5107 Y18.9476
G01 X13.5239 Y19.0349
G01 X13.5255 Y19.0496
G01 X13.5299 Y19.1427
G01 X13.5258 Y19.2309
G01 X13.5239 Y19.2504
G01 X13.5107 Y19.3378
G01 X13.4869 Y19.4330
G01 X13.4573 Y19.5162
G01 X13.4498 Y19.5343
G01 X13.4163 Y19.6053
G01 X13.4070 Y19.6226
G01 X13.3614 Y19.6983
G01 X13.3090 Y19.7693
G01 X13.2965 Y19.7845
G01 X13.2438 Y19.8427
G01 X13.2299 Y19.8566
G01 X13.1643 Y19.9157
G01 X13.0855 Y19.9741
G01 X13.0013 Y20.0246
G01 X12.9300 Y20.0586
G01 X12.9300 Y31.0451
G01 X13.7528 Y31.8679
G01 X13.7792 Y31.8970
G01 X13.8026 Y31.9285
G01 X13.8179 Y31.9536
G01 X13.8250 Y31.9665
G01 X13.8376 Y31.9932
G01 X13.8431 Y32.0068
G01 X13.8528 Y32.0346
G01 X13.8602 Y32.0631
G01 X13.8632 Y32.0776
G01 X13.8681 Y32.1116
G01 X13.8700 Y32.1508
G01 X13.8700 Y32.6303
G01 X13.8807 Y32.6350
G01 X13.9649 Y32.6751
G01 X14.0450 Y32.7228
G01 X14.0613 Y32.7337
G01 X14.1360 Y32.7894
G01 X14.2053 Y32.8518
G01 X14.2192 Y32.8657
G01 X14.2752 Y32.9275
G01 X14.2876 Y32.9427
G01 X14.3430 Y33.0177
G01 X14.3959 Y33.1061
G01 X14.4400 Y33.1993
G01 X14.4716 Y33.2870
G01 X14.4761 Y33.3010
G01 X14.4997 Y33.3962
G01 X14.5137 Y33.4884
G01 X14.5153 Y33.5031
G01 X14.5199 Y33.5962
G01 X14.5199 Y33.8511
G01 X14.5149 Y33.9540
G01 X14.5014 Y34.0463
G01 X14.4976 Y34.0655
G01 X14.4773 Y34.1464
G01 X14.4716 Y34.1652
G01 X14.4400 Y34.2529
G01 X14.3959 Y34.3460
G01 X14.3430 Y34.4344
G01 X14.2816 Y34.5172
G01 X14.2124 Y34.5935
G01 X14.1360 Y34.6627
G01 X14.0533 Y34.7241
G01 X13.9734 Y34.7723
G01 X13.9605 Y34.7794
G01 X13.8717 Y34.8212
G01 X13.7747 Y34.8559
G01 X13.6748 Y34.8809
G01 X13.5728 Y34.8960
G01 X13.4699 Y34.9011
G01 X13.3670 Y34.8960
G01 X13.2651 Y34.8809
G01 X13.1651 Y34.8559
G01 X13.0681 Y34.8212
G01 X12.9750 Y34.7771
G01 X12.8866 Y34.7241
G01 X12.8038 Y34.6627
G01 X12.7275 Y34.5935
G01 X12.6583 Y34.5172
G01 X12.5969 Y34.4344
G01 X12.5487 Y34.3546
G01 X12.5416 Y34.3417
G01 X12.4998 Y34.2529
G01 X12.4651 Y34.1559
G01 X12.4401 Y34.0559
G01 X12.4262 Y33.9637
G01 X12.4246 Y33.9491
G01 X12.4199 Y33.8511
G01 X12.4200 Y33.5962
G01 X12.4243 Y33.5080
G01 X12.4262 Y33.4884
G01 X12.4401 Y33.3962
G01 X12.4625 Y33.3057
G01 X12.4682 Y33.2870
G01 X12.4998 Y33.1993
G01 X12.5439 Y33.1061
G01 X12.5969 Y33.0177
G01 X12.6522 Y32.9427
G01 X12.6647 Y32.9275
G01 X12.7207 Y32.8657
G01 X12.7346 Y32.8518
G01 X12.8038 Y32.7894
G01 X12.8785 Y32.7337
G01 X12.8949 Y32.7228
G01 X12.9750 Y32.6751
G01 X13.0591 Y32.6350
G01 X13.0698 Y32.6303
G01 X13.0698 Y32.3165
G01 X12.2470 Y31.4937
G01 X12.2238 Y31.4684
G01 X12.2176 Y31.4608
G01 X12.2029 Y31.4411
G01 X12.1920 Y31.4248
G01 X12.1771 Y31.3994
G01 X12.1603 Y31.3639
G01 X12.1470 Y31.3269
G01 X12.1385 Y31.2936
G01 X12.1366 Y31.2840
G01 X12.1329 Y31.2597
G01 X12.1310 Y31.2402
G00 Z2.0000
G00 X13.8244 Y35.0904
G01 F120.00
G01 Z-0.0800
G01 F120.00
G01 X13.8274 Y35.0696
G01 X13.7378 Y35.0922
G01 X13.7177 Y35.0967
G01 X13.6974 Y35.1002
G01 X13.6149 Y35.1124
G01 X13.5944 Y35.1150
G01 X13.5841 Y35.1158
G01 X13.4802 Y35.1210
G01 X13.4596 Y35.1210
G01 X13.4493 Y35.1206
G01 X13.3660 Y35.1165
G01 X13.3454 Y35.1150
G01 X13.3250 Y35.1124
G01 X13.2323 Y35.0986
G01 X13.2121 Y35.0945
G01 X13.2020 Y35.0922
G01 X13.1211 Y35.0719
G01 X13.1013 Y35.0664
G01 X13.0817 Y35.0599
G01 X13.0031 Y35.0318
G01 X12.9839 Y35.0244
G01 X12.9651 Y35.0161
G01 X12.8897 Y34.9804
G01 X12.8712 Y34.9711
G01 X12.8533 Y34.9610
G01 X12.7730 Y34.9127
G01 X12.7558 Y34.9012
G01 X12.7475 Y34.8952
G01 X12.6805 Y34.8455
G01 X12.6642 Y34.8328
G01 X12.6486 Y34.8193
G01 X12.5868 Y34.7633
G01 X12.5719 Y34.7491
G01 X12.5577 Y34.7342
G01 X12.5017 Y34.6724
G01 X12.4882 Y34.6568
G01 X12.4755 Y34.6405
G01 X12.4258 Y34.5735
G01 X12.4140 Y34.5567
G01 X12.4029 Y34.5392
G01 X12.3600 Y34.4677
G01 X12.3499 Y34.4498
G01 X12.3406 Y34.4313
G01 X12.3049 Y34.3559
G01 X12.2966 Y34.3371
G01 X12.2892 Y34.3179
G01 X12.2611 Y34.2393
G01 X12.2546 Y34.2197
G01 X12.2517 Y34.2098
G01 X12.2265 Y34.1089
G01 X12.2224 Y34.0887
G01 X12.2199 Y34.0726
G01 X12.2174 Y34.0887
G01 X12.2134 Y34.1089
G01 X12.1881 Y34.2098
G01 X12.1821 Y34.2296
G01 X12.1788 Y34.2393
G01 X12.1507 Y34.3179
G01 X12.1432 Y34.3371
G01 X12.1349 Y34.3559
G01 X12.0992 Y34.4313
G01 X12.0900 Y34.4498
G01 X12.0798 Y34.4677
G01 X12.0369 Y34.5392
G01 X12.0259 Y34.5567
G01 X12.0140 Y34.5735
G01 X11.9643 Y34.6405
G01 X11.9516 Y34.6568
G01 X11.9382 Y34.6724
G01 X11.8822 Y34.7342
G01 X11.8679 Y34.7491
G01 X11.8530 Y34.7633
G01 X11.7912 Y34.8193
G01 X11.7756 Y34.8328
G01 X11.7593 Y34.8455
G01 X11.6923 Y34.8952
G01 X11.6755 Y34.9070
G01 X11.6581 Y34.9181
G01 X11.5865 Y34.9610
G01 X11.5686 Y34.9711
G01 X11.5502 Y34.9804
G01 X11.4748 Y35.0161
G01 X11.4559 Y35.0244
G01 X11.4367 Y35.0318
G01 X11.3582 Y35.0599
G01 X11.3386 Y35.0664
G01 X11.3187 Y35.0719
G01 X11.2378 Y35.0922
G01 X11.2177 Y35.0967
G01 X11.1974 Y35.1002
G01 X11.1149 Y35.1124
G01 X11.0944 Y35.1150
G01 X11.0738 Y35.1165
G01 X10.9905 Y35.1206
G01 X10.9699 Y35.1211
G01 X10.9493 Y35.1206
G01 X10.8660 Y35.1165
G01 X10.8454 Y35.1150
G01 X10.8250 Y35.1124
G01 X10.7425 Y35.1002
G01 X10.7222 Y35.0967
G01 X10.7020 Y35.0922
G01 X10.6211 Y35.0719
G01 X10.6013 Y35.0664
G01 X10.5817 Y35.0599
G01 X10.5031 Y35.0318
G01 X10.4839 Y35.0244
G01 X10.4651 Y35.0161
G01 X10.3897 Y34.9804
G01 X10.3712 Y34.9711
G01 X10.3533 Y34.9610
G01 X10.2818 Y34.9181
G01 X10.2643 Y34.9070
G01 X10.2475 Y34.8952
G01 X10.1805 Y34.8455
G01 X10.1642 Y34.8328
G01 X10.1486 Y34.8193
G01 X10.0868 Y34.7633
G01 X10.0719 Y34.7491
G01 X10.0647 Y34.7417
G01 X10.0017 Y34.6724
G01 X9.9882 Y34.6568
G01 X9.9755 Y34.6405
G01 X9.9258 Y34.5735
G01 X9.9140 Y34.5567
G01 X9.9029 Y34.5392
G01 X9.8600 Y34.4677
G01 X9.8549 Y34.4588
G01 X9.8451 Y34.4406
G01 X9.8049 Y34.3559
G01 X9.7966 Y34.3371
G01 X9.7892 Y34.3179
G01 X9.7577 Y34.2296
G01 X9.7546 Y34.2197
G01 X9.7491 Y34.1999
G01 X9.7288 Y34.1190
G01 X9.7243 Y34.0988
G01 X9.7199 Y34.0726
G01 X9.7174 Y34.0887
G01 X9.7134 Y34.1089
G01 X9.6881 Y34.2098
G01 X9.6821 Y34.2296
G01 X9.6788 Y34.2393
G01 X9.6471 Y34.3275
G01 X9.6392 Y34.3466
G01 X9.6349 Y34.3559
G01 X9.5992 Y34.4313
G01 X9.5900 Y34.4498
G01 X9.5798 Y34.4677
G01 X9.5315 Y34.5480
G01 X9.5201 Y34.5652
G01 X9.5140 Y34.5735
G01 X9.4643 Y34.6405
G01 X9.4516 Y34.6568
G01 X9.4382 Y34.6724
G01 X9.3822 Y34.7342
G01 X9.3679 Y34.7491
G01 X9.3530 Y34.7633
G01 X9.2912 Y34.8193
G01 X9.2756 Y34.8328
G01 X9.2593 Y34.8455
G01 X9.1840 Y34.9012
G01 X9.1755 Y34.9070
G01 X9.1581 Y34.9181
G01 X9.0865 Y34.9610
G01 X9.0686 Y34.9711
G01 X9.0502 Y34.9804
G01 X8.9748 Y35.0161
G01 X8.9559 Y35.0244
G01 X8.9367 Y35.0318
G01 X8.8582 Y35.0599
G01 X8.8386 Y35.0664
G01 X8.8187 Y35.0719
G01 X8.7378 Y35.0922
G01 X8.7177 Y35.0967
G01 X8.6974 Y35.1002
G01 X8.6149 Y35.1124
G01 X8.5944 Y35.1150
G01 X8.5738 Y35.1165
G01 X8.4905 Y35.1206
G01 X8.4699 Y35.1211
G01 X8.4493 Y35.1206
G01 X8.3660 Y35.1165
G01 X8.3454 Y35.1150
G01 X8.3250 Y35.1124
G01 X8.2425 Y35.1002
G01 X8.2222 Y35.0967
G01 X8.2121 Y35.0945
G01 X8.1211 Y35.0719
G01 X8.1013 Y35.0664
G01 X8.0817 Y35.0599
G01 X8.0031 Y35.0318
G01 X7.9839 Y35.0244
G01 X7.9651 Y35.0161
G01 X7.8897 Y34.9804
G01 X7.8712 Y34.9711
G01 X7.8533 Y34.9610
G01 X7.7818 Y34.9181
G01 X7.7643 Y34.9070
G01 X7.7475 Y34.8952
G01 X7.6805 Y34.8455
G01 X7.6642 Y34.8328
G01 X7.6486 Y34.8193
G01 X7.5868 Y34.7633
G01 X7.5719 Y34.7491
G01 X7.5577 Y34.7342
G01 X7.5017 Y34.6724
G01 X7.4882 Y34.6568
G01 X7.4755 Y34.6405
G01 X7.4258 Y34.5735
G01 X7.4140 Y34.5567
G01 X7.4029 Y34.5392
G01 X7.3600 Y34.4677
G01 X7.3499 Y34.4498
G01 X7.3406 Y34.4313
G01 X7.3049 Y34.3559
G01 X7.2966 Y34.3371
G01 X7.2892 Y34.3179
G01 X7.2611 Y34.2393
G01 X7.2546 Y34.2197
G01 X7.2517 Y34.2098
G01 X7.2288 Y34.1190
G01 X7.2243 Y34.0988
G01 X7.2199 Y34.0726
G01 X7.2155 Y34.0988
G01 X7.2110 Y34.1190
G01 X7.1881 Y34.2098
G01 X7.1852 Y34.2197
G01 X7.1788 Y34.2393
G01 X7.1507 Y34.3179
G01 X7.1432 Y34.3371
G01 X7.1349 Y34.3559
G01 X7.0992 Y34.4313
G01 X7.0900 Y34.4498
G01 X7.0798 Y34.4677
G01 X7.0369 Y34.5392
G01 X7.0259 Y34.5567
G01 X7.0140 Y34.5735
G01 X6.9643 Y34.6405
G01 X6.9516 Y34.6568
G01 X6.9382 Y34.6724
G01 X6.8822 Y34.7342
G01 X6.8679 Y34.7491
G01 X6.8530 Y34.7633
G01 X6.7912 Y34.8193
G01 X6.7756 Y34.8328
G01 X6.7593 Y34.8455
G01 X6.6923 Y34.8952
G01 X6.6755 Y34.9070
G01 X6.6581 Y34.9181
G01 X6.5865 Y34.9610
G01 X6.5686 Y34.9711
G01 X6.5502 Y34.9804
G01 X6.4748 Y35.0161
G01 X6.4559 Y35.0244
G01 X6.4367 Y35.0318
G01 X6.3582 Y35.0599
G01 X6.3386 Y35.0664
G01 X6.3187 Y35.0719
G01 X6.2378 Y35.0922
G01 X6.2177 Y35.0967
G01 X6.1974 Y35.1002
G01 X6.1149 Y35.1124
G01 X6.0944 Y35.1150
G01 X6.0738 Y35.1165
G01 X5.9905 Y35.1206
G01 X5.9699 Y35.1211
G01 X5.9493 Y35.1206
G01 X5.8660 Y35.1165
G01 X5.8454 Y35.1150
G01 X5.8250 Y35.1124
G01 X5.7425 Y35.1002
G01 X5.7222 Y35.0967
G01 X5.7020 Y35.0922
G01 X5.6211 Y35.0719
G01 X5.6013 Y35.0664
G01 X5.5817 Y35.0599
G01 X5.5031 Y35.0318
G01 X5.4839 Y35.0244
G01 X5.4651 Y35.0161
G01 X5.3897 Y34.9804
G01 X5.3712 Y34.9711
G01 X5.3533 Y34.9610
G01 X5.2730 Y34.9127
G01 X5.2643 Y34.9070
G01 X5.2475 Y34.8952
G01 X5.1805 Y34.8455
G01 X5.1642 Y34.8328
G01 X5.1486 Y34.8193
G01 X5.0868 Y34.7633
G01 X5.0719 Y34.7491
G01 X5.0577 Y34.7342
G01 X5.0017 Y34.6724
G01 X4.9882 Y34.6568
G01 X4.9755 Y34.6405
G01 X4.9198 Y34.5652
G01 X4.9083 Y34.5480
G01 X4.9029 Y34.5392
G01 X4.8600 Y34.4677
G01 X4.8499 Y34.4498
G01 X4.8406 Y34.4313
G01 X4.8007 Y34.3466
G01 X4.7928 Y34.3275
G01 X4.7892 Y34.3179
G01 X4.7577 Y34.2296
G01 X4.7517 Y34.2098
G01 X4.7399 Y34.1632
G01 X4.7399 Y34.4511
G01 X4.7394 Y34.4717
G01 X4.7376 Y34.5065
G01 X4.7367 Y34.5168
G01 X4.7342 Y34.5372
G01 X4.7289 Y34.5717
G01 X4.7249 Y34.5919
G01 X4.7166 Y34.6257
G01 X4.7111 Y34.6456
G01 X4.7046 Y34.6651
G01 X4.6963 Y34.6882
G01 X4.6889 Y34.7075
G01 X4.6806 Y34.7263
G01 X4.6656 Y34.7578
G01 X4.6558 Y34.7759
G01 X4.6380 Y34.8059
G01 X4.6270 Y34.8233
G01 X4.6151 Y34.8402
G01 X4.6005 Y34.8599
G01 X4.5878 Y34.8761
G01 X4.5744 Y34.8917
G01 X4.5509 Y34.9175
G01 X4.5363 Y34.9320
G01 X4.5106 Y34.9555
G01 X4.4950 Y34.9690
G01 X4.4787 Y34.9817
G01 X4.4507 Y35.0023
G01 X4.4335 Y35.0138
G01 X4.3948 Y35.0370
G01 X4.3858 Y35.0420
G01 X4.3673 Y35.0512
G01 X4.3452 Y35.0617
G01 X4.3263 Y35.0701
G01 X4.3071 Y35.0775
G01 X4.2742 Y35.0891
G01 X4.2545 Y35.0951
G01 X4.2445 Y35.0977
G01 X4.2207 Y35.1037
G01 X4.2006 Y35.1082
G01 X4.1803 Y35.1117
G01 X4.1458 Y35.1167
G01 X4.1356 Y35.1179
G01 X4.1150 Y35.1194
G01 X4.0905 Y35.1206
G01 X4.0699 Y35.1211
G01 X2.8699 Y35.1211
G01 X2.8493 Y35.1206
G01 X2.8248 Y35.1194
G01 X2.8042 Y35.1179
G01 X2.7838 Y35.1153
G01 X2.7595 Y35.1117
G01 X2.7392 Y35.1082
G01 X2.7278 Y35.1057
G01 X2.7290 Y35.1287
G01 X2.7295 Y35.1493
G01 X2.7290 Y35.1699
G01 X2.7269 Y35.2029
G01 X2.7225 Y35.2357
G01 X2.7190 Y35.2560
G01 X2.7145 Y35.2762
G01 X2.7088 Y35.2982
G01 X2.7028 Y35.3180
G01 X2.6953 Y35.3394
G01 X2.6878 Y35.3587
G01 X2.6795 Y35.3775
G01 X2.6696 Y35.3981
G01 X2.6599 Y35.4163
G01 X2.6429 Y35.4446
G01 X2.6314 Y35.4618
G01 X2.6179 Y35.4801
G01 X2.6052 Y35.4964
G01 X2.5918 Y35.5120
G01 X2.5692 Y35.5362
G01 X2.5542 Y35.5504
G01 X2.5294 Y35.5722
G01 X2.5131 Y35.5849
G01 X2.4947 Y35.5984
G01 X2.4776 Y35.6098
G01 X2.4581 Y35.6216
G01 X2.4402 Y35.6318
G01 X2.4218 Y35.6410
G01 X2.4011 Y35.6507
G01 X2.3821 Y35.6585
G01 X2.3509 Y35.6697
G01 X2.3312 Y35.6757
G01 X2.3091 Y35.6813
G01 X2.2890 Y35.6858
G01 X2.2563 Y35.6912
G01 X2.2359 Y35.6937
G01 X2.2256 Y35.6946
G01 X2.2028 Y35.6958
G01 X2.1822 Y35.6963
G01 X0.8940 Y35.6957
G01 X0.8734 Y35.6952
G01 X0.8404 Y35.6931
G01 X0.8199 Y35.6906
G01 X0.7974 Y35.6871
G01 X0.7873 Y35.6852
G01 X0.7672 Y35.6807
G01 X0.7353 Y35.6721
G01 X0.7157 Y35.6657
G01 X0.6943 Y35.6579
G01 X0.6847 Y35.6540
G01 X0.6659 Y35.6457
G01 X0.6362 Y35.6311
G01 X0.6183 Y35.6209
G01 X0.5988 Y35.6091
G01 X0.5817 Y35.5976
G01 X0.5733 Y35.5916
G01 X0.5471 Y35.5715
G01 X0.5222 Y35.5496
G01 X0.5147 Y35.5426
G01 X0.5001 Y35.5281
G01 X0.4847 Y35.5113
G01 X0.4713 Y35.4957
G01 X0.4512 Y35.4694
G01 X0.4452 Y35.4610
G01 X0.4337 Y35.4439
G01 X0.4219 Y35.4244
G01 X0.4117 Y35.4065
G01 X0.3971 Y35.3768
G01 X0.3929 Y35.3674
G01 X0.3850 Y35.3484
G01 X0.3772 Y35.3270
G01 X0.3707 Y35.3074
G01 X0.3652 Y35.2876
G01 X0.3577 Y35.2554
G01 X0.3542 Y35.2351
G01 X0.3498 Y35.2023
G01 X0.3477 Y35.1693
G01 X0.3472 Y35.1487
G01 X0.3472 Y0.6045
G01 X0.3483 Y0.5714
G01 X0.3489 Y0.5611
G01 X0.3509 Y0.5406
G01 X0.3558 Y0.5079
G01 X0.3577 Y0.4977
G01 X0.3622 Y0.4776
G01 X0.3707 Y0.4457
G01 X0.3814 Y0.4144
G01 X0.3850 Y0.4047
G01 X0.3929 Y0.3857
G01 X0.4070 Y0.3558
G01 X0.4167 Y0.3376
G01 X0.4219 Y0.3287
G01 X0.4393 Y0.3006
G01 X0.4512 Y0.2837
G01 X0.4713 Y0.2575
G01 X0.4931 Y0.2326
G01 X0.5073 Y0.2177
G01 X0.5147 Y0.2105
G01 X0.5392 Y0.1883
G01 X0.5552 Y0.1752
G01 X0.5634 Y0.1689
G01 X0.5817 Y0.1555
G01 X0.5989 Y0.1440
G01 X0.6183 Y0.1322
G01 X0.6363 Y0.1220
G01 X0.6547 Y0.1128
G01 X0.6848 Y0.0991
G01 X0.7040 Y0.0917
G01 X0.7255 Y0.0841
G01 X0.7452 Y0.0781
G01 X0.7673 Y0.0725
G01 X0.7874 Y0.0679
G01 X0.8077 Y0.0644
G01 X0.8302 Y0.0612
G01 X0.8507 Y0.0592
G01 X0.8735 Y0.0579
G01 X0.8941 Y0.0574
G01 X16.0799 Y0.0528
G01 X16.1001 Y0.0533
G01 X16.1325 Y0.0553
G01 X16.1647 Y0.0595
G01 X16.1846 Y0.0629
G01 X16.2044 Y0.0672
G01 X16.2358 Y0.0755
G01 X16.2666 Y0.0857
G01 X16.2948 Y0.0968
G01 X16.3243 Y0.1104
G01 X16.3422 Y0.1198
G01 X16.3703 Y0.1362
G01 X16.3955 Y0.1530
G01 X16.4215 Y0.1724
G01 X16.4462 Y0.1935
G01 X16.4610 Y0.2072
G01 X16.4835 Y0.2306
G01 X16.4970 Y0.2457
G01 X16.5172 Y0.2711
G01 X16.5291 Y0.2874
G01 X16.5403 Y0.3043
G01 X16.5520 Y0.3233
G01 X16.5619 Y0.3410
G01 X16.5765 Y0.3700
G01 X16.5846 Y0.3885
G01 X16.5927 Y0.4093
G01 X16.5996 Y0.4284
G01 X16.6087 Y0.4595
G01 X16.6136 Y0.4791
G01 X16.6176 Y0.4990
G01 X16.6228 Y0.5310
G01 X16.6248 Y0.5511
G01 X16.6265 Y0.5734
G01 X16.8222 Y7.1140
G01 X16.8435 Y17.8598
G01 X16.8423 Y17.8947
G01 X16.8466 Y17.9374
G01 X16.8584 Y17.9760
G01 X16.8775 Y18.0116
G01 X16.9032 Y18.0427
G01 X16.9344 Y18.0683
G01 X16.9700 Y18.0872
G01 X17.0087 Y18.0989
G01 X17.0513 Y18.1030
G01 X17.0861 Y18.1018
G01 X43.2093 Y18.0866
G01 X43.2440 Y18.0878
G01 X43.2864 Y18.0835
G01 X43.3250 Y18.0718
G01 X43.3606 Y18.0527
G01 X43.3918 Y18.0271
G01 X43.4056 Y18.0110
G01 X43.4213 Y17.9939
G01 X43.4361 Y17.9791
G01 X43.4453 Y17.9706
G01 X43.4467 Y17.9378
G01 X43.4522 Y17.8792
G01 X43.4509 Y17.8446
G01 X43.4365 Y0.5897
G01 X43.4375 Y0.5670
G01 X43.4390 Y0.5464
G01 X43.4415 Y0.5259
G01 X43.4468 Y0.4933
G01 X43.4513 Y0.4731
G01 X43.4598 Y0.4412
G01 X43.4705 Y0.4098
G01 X43.4779 Y0.3906
G01 X43.4916 Y0.3604
G01 X43.5008 Y0.3420
G01 X43.5110 Y0.3240
G01 X43.5228 Y0.3046
G01 X43.5342 Y0.2874
G01 X43.5539 Y0.2608
G01 X43.5670 Y0.2449
G01 X43.5822 Y0.2279
G01 X43.5892 Y0.2203
G01 X43.6038 Y0.2057
G01 X43.6283 Y0.1835
G01 X43.6443 Y0.1704
G01 X43.6709 Y0.1507
G01 X43.6880 Y0.1392
G01 X43.7164 Y0.1222
G01 X43.7346 Y0.1124
G01 X43.7645 Y0.0983
G01 X43.7740 Y0.0942
G01 X43.7932 Y0.0868
G01 X43.8245 Y0.0761
G01 X43.8565 Y0.0676
G01 X43.8767 Y0.0631
G01 X43.8970 Y0.0595
G01 X43.9298 Y0.0552
G01 X43.9628 Y0.0530
G01 X43.9834 Y0.0525
G01 X59.3855 Y0.0525
G01 X59.4185 Y0.0537
G01 X59.4391 Y0.0552
G01 X59.4493 Y0.0563
G01 X59.4820 Y0.0612
G01 X59.5022 Y0.0652
G01 X59.5123 Y0.0676
G01 X59.5442 Y0.0761
G01 X59.5755 Y0.0867
G01 X59.5852 Y0.0903
G01 X59.6042 Y0.0982
G01 X59.6341 Y0.1123
G01 X59.6523 Y0.1221
G01 X59.6612 Y0.1272
G01 X59.6893 Y0.1447
G01 X59.7062 Y0.1565
G01 X59.7324 Y0.1766
G01 X59.7573 Y0.1985
G01 X59.7722 Y0.2127
G01 X59.7794 Y0.2200
G01 X59.8016 Y0.2445
G01 X59.8147 Y0.2605
G01 X59.8209 Y0.2687
G01 X59.8344 Y0.2870
G01 X59.8458 Y0.3041
G01 X59.8577 Y0.3236
G01 X59.8678 Y0.3415
G01 X59.8824 Y0.3712
G01 X59.8908 Y0.3900
G01 X59.8982 Y0.4093
G01 X59.9058 Y0.4307
G01 X59.9118 Y0.4505
G01 X59.9174 Y0.4725
G01 X59.9220 Y0.4926
G01 X59.9255 Y0.5129
G01 X59.9287 Y0.5354
G01 X59.9308 Y0.5560
G01 X59.9320 Y0.5787
G01 X59.9325 Y0.5993
G01 X59.9520 Y35.1731
G01 X59.9509 Y35.2062
G01 X59.9503 Y35.2165
G01 X59.9483 Y35.2370
G01 X59.9434 Y35.2698
G01 X59.9415 Y35.2799
G01 X59.9370 Y35.3001
G01 X59.9285 Y35.3320
G01 X59.9178 Y35.3634
G01 X59.9104 Y35.3826
G01 X59.9064 Y35.3921
G01 X59.8922 Y35.4220
G01 X59.8825 Y35.4402
G01 X59.8773 Y35.4492
G01 X59.8599 Y35.4773
G01 X59.8480 Y35.4942
G01 X59.8279 Y35.5204
G01 X59.8060 Y35.5453
G01 X59.7990 Y35.5529
G01 X59.7844 Y35.5675
G01 X59.7599 Y35.5897
G01 X59.7520 Y35.5963
G01 X59.7357 Y35.6090
G01 X59.7173 Y35.6225
G01 X59.7002 Y35.6339
G01 X59.6807 Y35.6458
G01 X59.6628 Y35.6559
G01 X59.6443 Y35.6652
G01 X59.6237 Y35.6748
G01 X59.6046 Y35.6827
G01 X59.5832 Y35.6905
G01 X59.5636 Y35.6970
G01 X59.5437 Y35.7025
G01 X59.5216 Y35.7079
G01 X59.5014 Y35.7119
G01 X59.4788 Y35.7154
G01 X59.4584 Y35.7179
G01 X59.4378 Y35.7194
G01 X59.4150 Y35.7204
G01 X57.8309 Y35.7197
G01 X57.8082 Y35.7187
G01 X57.7876 Y35.7172
G01 X57.7672 Y35.7147
G01 X57.7345 Y35.7093
G01 X57.7023 Y35.7017
G01 X57.6825 Y35.6962
G01 X57.6629 Y35.6898
G01 X57.6415 Y35.6820
G01 X57.6225 Y35.6741
G01 X57.5926 Y35.6599
G01 X57.5744 Y35.6502
G01 X57.5548 Y35.6386
G01 X57.5374 Y35.6275
G01 X57.5205 Y35.6157
G01 X57.5023 Y35.6020
G01 X57.4864 Y35.5889
G01 X57.4695 Y35.5737
G01 X57.4545 Y35.5595
G01 X57.4320 Y35.5353
G01 X57.4185 Y35.5197
G01 X57.3984 Y35.4935
G01 X57.3865 Y35.4766
G01 X57.3755 Y35.4592
G01 X57.3639 Y35.4396
G01 X57.3542 Y35.4214
G01 X57.3401 Y35.3915
G01 X57.3322 Y35.3724
G01 X57.3244 Y35.3510
G01 X57.3179 Y35.3315
G01 X57.3124 Y35.3116
G01 X57.3070 Y35.2895
G01 X57.3030 Y35.2693
G01 X57.2996 Y35.2468
G01 X57.2970 Y35.2263
G01 X57.2955 Y35.2058
G01 X57.2944 Y35.1727
G01 X57.2955 Y35.1396
G01 X57.2971 Y35.1191
G01 X57.2996 Y35.0986
G01 X57.3027 Y35.0785
G01 X57.2278 Y35.0973
G01 X57.2077 Y35.1018
G01 X57.1874 Y35.1053
G01 X57.1049 Y35.1175
G01 X57.0844 Y35.1201
G01 X57.0741 Y35.1209
G01 X56.9805 Y35.1257
G01 X56.9599 Y35.1262
G01 X56.9393 Y35.1257
G01 X56.8560 Y35.1216
G01 X56.8354 Y35.1201
G01 X56.8150 Y35.1175
G01 X56.7325 Y35.1053
G01 X56.7122 Y35.1018
G01 X56.6920 Y35.0973
G01 X56.6111 Y35.0770
G01 X56.5913 Y35.0715
G01 X56.5717 Y35.0650
G01 X56.4931 Y35.0369
G01 X56.4739 Y35.0295
G01 X56.4551 Y35.0212
G01 X56.3797 Y34.9855
G01 X56.3612 Y34.9762
G01 X56.3433 Y34.9661
G01 X56.2718 Y34.9232
G01 X56.2543 Y34.9121
G01 X56.2375 Y34.9003
G01 X56.1705 Y34.8506
G01 X56.1542 Y34.8379
G01 X56.1386 Y34.8244
G01 X56.0768 Y34.7684
G01 X56.0619 Y34.7542
G01 X56.0477 Y34.7393
G01 X55.9917 Y34.6775
G01 X55.9782 Y34.6619
G01 X55.9655 Y34.6456
G01 X55.9158 Y34.5786
G01 X55.9040 Y34.5618
G01 X55.8929 Y34.5443
G01 X55.8500 Y34.4728
G01 X55.8399 Y34.4549
G01 X55.8351 Y34.4457
G01 X55.7907 Y34.3517
G01 X55.7828 Y34.3326
G01 X55.7792 Y34.3230
G01 X55.7511 Y34.2444
G01 X55.7446 Y34.2248
G01 X55.7417 Y34.2149
G01 X55.7188 Y34.1241
G01 X55.7143 Y34.1039
G01 X55.7099 Y34.0777
G01 X55.7055 Y34.1039
G01 X55.7010 Y34.1241
G01 X55.6781 Y34.2149
G01 X55.6721 Y34.2347
G01 X55.6688 Y34.2444
G01 X55.6407 Y34.3230
G01 X55.6332 Y34.3422
G01 X55.6292 Y34.3517
G01 X55.5847 Y34.4457
G01 X55.5800 Y34.4549
G01 X55.5698 Y34.4728
G01 X55.5269 Y34.5443
G01 X55.5159 Y34.5618
G01 X55.5040 Y34.5786
G01 X55.4543 Y34.6456
G01 X55.4416 Y34.6619
G01 X55.4282 Y34.6775
G01 X55.3722 Y34.7393
G01 X55.3579 Y34.7542
G01 X55.3430 Y34.7684
G01 X55.2812 Y34.8244
G01 X55.2656 Y34.8379
G01 X55.2493 Y34.8506
G01 X55.1823 Y34.9003
G01 X55.1655 Y34.9121
G01 X55.1481 Y34.9232
G01 X55.0765 Y34.9661
G01 X55.0586 Y34.9762
G01 X55.0494 Y34.9810
G01 X54.9648 Y35.0212
G01 X54.9459 Y35.0295
G01 X54.9267 Y35.0369
G01 X54.8482 Y35.0650
G01 X54.8286 Y35.0715
G01 X54.8087 Y35.0770
G01 X54.7278 Y35.0973
G01 X54.7077 Y35.1018
G01 X54.6874 Y35.1053
G01 X54.6049 Y35.1175
G01 X54.5844 Y35.1201
G01 X54.5638 Y35.1216
G01 X54.4805 Y35.1257
G01 X54.4599 Y35.1262
G01 X54.4393 Y35.1257
G01 X54.3560 Y35.1216
G01 X54.3354 Y35.1201
G01 X54.3150 Y35.1175
G01 X54.2325 Y35.1053
G01 X54.2122 Y35.1018
G01 X54.1920 Y35.0973
G01 X54.1012 Y35.0744
G01 X54.0814 Y35.0684
G01 X54.0717 Y35.0650
G01 X53.9931 Y35.0369
G01 X53.9739 Y35.0295
G01 X53.9551 Y35.0212
G01 X53.8797 Y34.9855
G01 X53.8612 Y34.9762
G01 X53.8433 Y34.9661
G01 X53.7718 Y34.9232
G01 X53.7543 Y34.9121
G01 X53.7375 Y34.9003
G01 X53.6705 Y34.8506
G01 X53.6542 Y34.8379
G01 X53.6386 Y34.8244
G01 X53.5768 Y34.7684
G01 X53.5619 Y34.7542
G01 X53.5477 Y34.7393
G01 X53.4917 Y34.6775
G01 X53.4782 Y34.6619
G01 X53.4655 Y34.6456
G01 X53.4158 Y34.5786
G01 X53.4040 Y34.5618
G01 X53.3929 Y34.5443
G01 X53.3500 Y34.4728
G01 X53.3399 Y34.4549
G01 X53.3351 Y34.4457
G01 X53.2907 Y34.3517
G01 X53.2828 Y34.3326
G01 X53.2792 Y34.3230
G01 X53.2511 Y34.2444
G01 X53.2446 Y34.2248
G01 X53.2417 Y34.2149
G01 X53.2188 Y34.1241
G01 X53.2143 Y34.1039
G01 X53.2099 Y34.0777
G01 X53.2055 Y34.1039
G01 X53.2010 Y34.1241
G01 X53.1781 Y34.2149
G01 X53.1721 Y34.2347
G01 X53.1688 Y34.2444
G01 X53.1407 Y34.3230
G01 X53.1332 Y34.3422
G01 X53.1249 Y34.3610
G01 X53.0892 Y34.4364
G01 X53.0800 Y34.4549
G01 X53.0750 Y34.4639
G01 X53.0269 Y34.5443
G01 X53.0159 Y34.5618
G01 X53.0040 Y34.5786
G01 X52.9543 Y34.6456
G01 X52.9416 Y34.6619
G01 X52.9282 Y34.6775
G01 X52.8722 Y34.7393
G01 X52.8579 Y34.7542
G01 X52.8430 Y34.7684
G01 X52.7735 Y34.8313
G01 X52.7576 Y34.8443
G01 X52.7493 Y34.8506
G01 X52.6823 Y34.9003
G01 X52.6655 Y34.9121
G01 X52.6481 Y34.9232
G01 X52.5765 Y34.9661
G01 X52.5586 Y34.9762
G01 X52.5494 Y34.9810
G01 X52.4648 Y35.0212
G01 X52.4459 Y35.0295
G01 X52.4267 Y35.0369
G01 X52.3482 Y35.0650
G01 X52.3286 Y35.0715
G01 X52.3087 Y35.0770
G01 X52.2278 Y35.0973
G01 X52.2077 Y35.1018
G01 X52.1874 Y35.1053
G01 X52.1049 Y35.1175
G01 X52.0844 Y35.1201
G01 X52.0638 Y35.1216
G01 X51.9702 Y35.1261
G01 X51.9496 Y35.1261
G01 X51.9393 Y35.1257
G01 X51.8560 Y35.1216
G01 X51.8354 Y35.1201
G01 X51.8150 Y35.1175
G01 X51.7325 Y35.1053
G01 X51.7122 Y35.1018
G01 X51.6920 Y35.0973
G01 X51.6012 Y35.0744
G01 X51.5814 Y35.0684
G01 X51.5717 Y35.0650
G01 X51.4931 Y35.0369
G01 X51.4739 Y35.0295
G01 X51.4551 Y35.0212
G01 X51.3797 Y34.9855
G01 X51.3612 Y34.9762
G01 X51.3433 Y34.9661
G01 X51.2718 Y34.9232
G01 X51.2543 Y34.9121
G01 X51.2375 Y34.9003
G01 X51.1705 Y34.8506
G01 X51.1542 Y34.8379
G01 X51.1386 Y34.8244
G01 X51.0768 Y34.7684
G01 X51.0619 Y34.7542
G01 X51.0477 Y34.7393
G01 X50.9917 Y34.6775
G01 X50.9782 Y34.6619
G01 X50.9655 Y34.6456
G01 X50.9158 Y34.5786
G01 X50.9040 Y34.5618
G01 X50.8929 Y34.5443
G01 X50.8500 Y34.4728
G01 X50.8399 Y34.4549
G01 X50.8351 Y34.4457
G01 X50.7907 Y34.3517
G01 X50.7828 Y34.3326
G01 X50.7792 Y34.3230
G01 X50.7511 Y34.2444
G01 X50.7446 Y34.2248
G01 X50.7417 Y34.2149
G01 X50.7188 Y34.1241
G01 X50.7143 Y34.1039
G01 X50.7099 Y34.0777
G01 X50.7055 Y34.1039
G01 X50.7010 Y34.1241
G01 X50.6781 Y34.2149
G01 X50.6721 Y34.2347
G01 X50.6688 Y34.2444
G01 X50.6407 Y34.3230
G01 X50.6332 Y34.3422
G01 X50.6249 Y34.3610
G01 X50.5892 Y34.4364
G01 X50.5800 Y34.4549
G01 X50.5750 Y34.4639
G01 X50.5269 Y34.5443
G01 X50.5159 Y34.5618
G01 X50.5040 Y34.5786
G01 X50.4543 Y34.6456
G01 X50.4416 Y34.6619
G01 X50.4282 Y34.6775
G01 X50.3722 Y34.7393
G01 X50.3579 Y34.7542
G01 X50.3430 Y34.7684
G01 X50.2735 Y34.8313
G01 X50.2576 Y34.8443
G01 X50.2493 Y34.8506
G01 X50.1823 Y34.9003
G01 X50.1655 Y34.9121
G01 X50.1481 Y34.9232
G01 X50.0765 Y34.9661
G01 X50.0586 Y34.9762
G01 X50.0494 Y34.9810
G01 X49.9648 Y35.0212
G01 X49.9459 Y35.0295
G01 X49.9267 Y35.0369
G01 X49.8482 Y35.0650
G01 X49.8286 Y35.0715
G01 X49.8087 Y35.0770
G01 X49.7278 Y35.0973
G01 X49.7077 Y35.1018
G01 X49.6874 Y35.1053
G01 X49.6049 Y35.1175
G01 X49.5844 Y35.1201
G01 X49.5638 Y35.1216
G01 X49.4702 Y35.1261
G01 X49.4496 Y35.1261
G01 X49.4393 Y35.1257
G01 X49.3560 Y35.1216
G01 X49.3354 Y35.1201
G01 X49.3150 Y35.1175
G01 X49.2325 Y35.1053
G01 X49.2122 Y35.1018
G01 X49.1920 Y35.0973
G01 X49.1012 Y35.0744
G01 X49.0814 Y35.0684
G01 X49.0717 Y35.0650
G01 X48.9931 Y35.0369
G01 X48.9739 Y35.0295
G01 X48.9551 Y35.0212
G01 X48.8797 Y34.9855
G01 X48.8612 Y34.9762
G01 X48.8433 Y34.9661
G01 X48.7718 Y34.9232
G01 X48.7543 Y34.9121
G01 X48.7375 Y34.9003
G01 X48.6623 Y34.8443
G01 X48.6464 Y34.8313
G01 X48.6386 Y34.8244
G01 X48.5768 Y34.7684
G01 X48.5619 Y34.7542
G01 X48.5477 Y34.7393
G01 X48.4917 Y34.6775
G01 X48.4782 Y34.6619
G01 X48.4655 Y34.6456
G01 X48.4158 Y34.5786
G01 X48.4040 Y34.5618
G01 X48.3983 Y34.5531
G01 X48.3500 Y34.4728
G01 X48.3399 Y34.4549
G01 X48.3306 Y34.4364
G01 X48.2907 Y34.3517
G01 X48.2828 Y34.3326
G01 X48.2792 Y34.3230
G01 X48.2477 Y34.2347
G01 X48.2417 Y34.2149
G01 X48.2299 Y34.1683
G01 X48.2299 Y34.4562
G01 X48.2294 Y34.4768
G01 X48.2276 Y34.5116
G01 X48.2256 Y34.5321
G01 X48.2206 Y34.5666
G01 X48.2189 Y34.5768
G01 X48.2149 Y34.5970
G01 X48.2066 Y34.6308
G01 X48.2011 Y34.6507
G01 X48.1946 Y34.6702
G01 X48.1863 Y34.6933
G01 X48.1789 Y34.7126
G01 X48.1706 Y34.7314
G01 X48.1556 Y34.7629
G01 X48.1458 Y34.7810
G01 X48.1280 Y34.8110
G01 X48.1170 Y34.8284
G01 X48.1051 Y34.8453
G01 X48.0905 Y34.8650
G01 X48.0778 Y34.8812
G01 X48.0644 Y34.8968
G01 X48.0479 Y34.9150
G01 X48.0337 Y34.9299
G01 X48.0188 Y34.9442
G01 X47.9929 Y34.9675
G01 X47.9769 Y34.9805
G01 X47.9490 Y35.0014
G01 X47.9322 Y35.0133
G01 X47.9147 Y35.0243
G01 X47.8937 Y35.0369
G01 X47.8758 Y35.0471
G01 X47.8573 Y35.0563
G01 X47.8352 Y35.0668
G01 X47.8258 Y35.0711
G01 X47.8067 Y35.0790
G01 X47.7642 Y35.0942
G01 X47.7445 Y35.1002
G01 X47.7345 Y35.1028
G01 X47.7107 Y35.1088
G01 X47.6906 Y35.1133
G01 X47.6703 Y35.1168
G01 X47.6358 Y35.1218
G01 X47.6153 Y35.1238
G01 X47.6050 Y35.1245
G01 X47.5805 Y35.1257
G01 X47.5599 Y35.1262
G01 X46.3599 Y35.1262
G01 X46.3393 Y35.1257
G01 X46.3148 Y35.1245
G01 X46.2942 Y35.1230
G01 X46.2738 Y35.1204
G01 X46.2331 Y35.1140
G01 X46.2346 Y35.1347
G01 X46.2357 Y35.1677
G01 X46.2352 Y35.1883
G01 X46.2331 Y35.2214
G01 X46.2306 Y35.2418
G01 X46.2252 Y35.2745
G01 X46.2177 Y35.3067
G01 X46.2150 Y35.3167
G01 X46.2090 Y35.3364
G01 X46.1979 Y35.3675
G01 X46.1900 Y35.3866
G01 X46.1758 Y35.4165
G01 X46.1661 Y35.4347
G01 X46.1491 Y35.4630
G01 X46.1376 Y35.4802
G01 X46.1179 Y35.5068
G01 X46.1115 Y35.5148
G01 X46.0980 Y35.5304
G01 X46.0754 Y35.5546
G01 X46.0605 Y35.5688
G01 X46.0356 Y35.5906
G01 X46.0093 Y35.6107
G01 X45.9925 Y35.6226
G01 X45.9643 Y35.6400
G01 X45.9464 Y35.6502
G01 X45.9167 Y35.6648
G01 X45.9073 Y35.6691
G01 X45.8883 Y35.6770
G01 X45.8571 Y35.6881
G01 X45.8374 Y35.6941
G01 X45.8053 Y35.7021
G01 X45.7851 Y35.7061
G01 X45.7523 Y35.7110
G01 X45.7318 Y35.7130
G01 X45.6988 Y35.7146
G01 X35.4913 Y35.7104
G01 X35.4707 Y35.7099
G01 X35.4377 Y35.7077
G01 X35.4173 Y35.7052
G01 X35.3846 Y35.6998
G01 X35.3524 Y35.6923
G01 X35.3326 Y35.6868
G01 X35.3013 Y35.6761
G01 X35.2820 Y35.6687
G01 X35.2632 Y35.6603
G01 X35.2335 Y35.6457
G01 X35.2156 Y35.6355
G01 X35.1875 Y35.6181
G01 X35.1706 Y35.6062
G01 X35.1444 Y35.5861
G01 X35.1195 Y35.5643
G01 X35.1046 Y35.5500
G01 X35.0904 Y35.5351
G01 X35.0686 Y35.5103
G01 X35.0559 Y35.4940
G01 X35.0366 Y35.4671
G01 X35.0192 Y35.4390
G01 X35.0090 Y35.4211
G01 X34.9998 Y35.4027
G01 X34.9861 Y35.3726
G01 X34.9745 Y35.3416
G01 X34.9680 Y35.3220
G01 X34.9625 Y35.3021
G01 X34.9550 Y35.2699
G01 X34.9496 Y35.2373
G01 X34.9471 Y35.2168
G01 X34.9450 Y35.1838
G01 X34.9445 Y35.1632
G01 X34.9450 Y35.1426
G01 X34.9470 Y35.1118
G01 X34.9039 Y35.1270
G01 X34.8842 Y35.1330
G01 X34.7980 Y35.1547
G01 X34.7779 Y35.1592
G01 X34.7678 Y35.1611
G01 X34.6800 Y35.1743
G01 X34.6595 Y35.1768
G01 X34.6389 Y35.1783
G01 X34.5605 Y35.1822
G01 X34.5502 Y35.1826
G01 X34.5296 Y35.1826
G01 X34.4409 Y35.1783
G01 X34.4203 Y35.1768
G01 X34.3999 Y35.1743
G01 X34.3222 Y35.1628
G01 X34.3019 Y35.1592
G01 X34.2818 Y35.1547
G01 X34.2056 Y35.1356
G01 X34.1858 Y35.1301
G01 X34.1662 Y35.1237
G01 X34.0923 Y35.0972
G01 X34.0730 Y35.0898
G01 X34.0542 Y35.0815
G01 X33.9832 Y35.0479
G01 X33.9648 Y35.0386
G01 X33.9469 Y35.0285
G01 X33.8795 Y34.9881
G01 X33.8621 Y34.9771
G01 X33.8453 Y34.9652
G01 X33.7822 Y34.9184
G01 X33.7660 Y34.9058
G01 X33.7504 Y34.8923
G01 X33.6846 Y34.8325
G01 X33.6772 Y34.8254
G01 X33.6630 Y34.8104
G01 X33.6103 Y34.7522
G01 X33.5968 Y34.7366
G01 X33.5842 Y34.7204
G01 X33.5314 Y34.6490
G01 X33.5255 Y34.6405
G01 X33.5145 Y34.6231
G01 X33.4689 Y34.5468
G01 X33.4592 Y34.5286
G01 X33.4399 Y34.4881
G01 X33.4206 Y34.5286
G01 X33.4109 Y34.5468
G01 X33.3599 Y34.6318
G01 X33.3485 Y34.6490
G01 X33.3424 Y34.6573
G01 X33.2957 Y34.7204
G01 X33.2830 Y34.7366
G01 X33.2764 Y34.7445
G01 X33.2098 Y34.8180
G01 X33.2026 Y34.8254
G01 X33.1877 Y34.8396
G01 X33.1295 Y34.8923
G01 X33.1139 Y34.9058
G01 X33.0976 Y34.9184
G01 X33.0262 Y34.9712
G01 X33.0177 Y34.9771
G01 X33.0003 Y34.9881
G01 X32.9330 Y35.0285
G01 X32.9150 Y35.0386
G01 X32.8966 Y35.0479
G01 X32.8256 Y35.0815
G01 X32.8068 Y35.0898
G01 X32.7876 Y35.0972
G01 X32.7136 Y35.1237
G01 X32.6941 Y35.1301
G01 X32.6742 Y35.1356
G01 X32.5980 Y35.1547
G01 X32.5779 Y35.1592
G01 X32.5678 Y35.1611
G01 X32.4697 Y35.1757
G01 X32.4492 Y35.1777
G01 X32.4389 Y35.1783
G01 X32.3605 Y35.1822
G01 X32.3399 Y35.1827
G01 X32.3193 Y35.1822
G01 X32.2409 Y35.1783
G01 X32.2203 Y35.1768
G01 X32.1999 Y35.1743
G01 X32.1222 Y35.1628
G01 X32.1019 Y35.1592
G01 X32.0818 Y35.1547
G01 X32.0056 Y35.1356
G01 X31.9858 Y35.1301
G01 X31.9662 Y35.1237
G01 X31.8923 Y35.0972
G01 X31.8730 Y35.0898
G01 X31.8542 Y35.0815
G01 X31.7832 Y35.0479
G01 X31.7648 Y35.0386
G01 X31.7558 Y35.0337
G01 X31.6795 Y34.9881
G01 X31.6621 Y34.9771
G01 X31.6453 Y34.9652
G01 X31.5822 Y34.9184
G01 X31.5660 Y34.9058
G01 X31.5504 Y34.8923
G01 X31.4922 Y34.8396
G01 X31.4772 Y34.8254
G01 X31.4701 Y34.8180
G01 X31.4103 Y34.7522
G01 X31.3968 Y34.7366
G01 X31.3842 Y34.7204
G01 X31.3314 Y34.6490
G01 X31.3255 Y34.6405
G01 X31.3145 Y34.6231
G01 X31.2689 Y34.5468
G01 X31.2592 Y34.5286
G01 X31.2399 Y34.4881
G01 X31.2206 Y34.5286
G01 X31.2109 Y34.5468
G01 X31.1653 Y34.6231
G01 X31.1543 Y34.6405
G01 X31.1485 Y34.6490
G01 X31.0957 Y34.7204
G01 X31.0830 Y34.7366
G01 X31.0695 Y34.7522
G01 X31.0098 Y34.8180
G01 X30.9952 Y34.8325
G01 X30.9877 Y34.8396
G01 X30.9295 Y34.8923
G01 X30.9139 Y34.9058
G01 X30.8976 Y34.9184
G01 X30.8346 Y34.9652
G01 X30.8177 Y34.9771
G01 X30.8003 Y34.9881
G01 X30.7330 Y35.0285
G01 X30.7150 Y35.0386
G01 X30.7059 Y35.0434
G01 X30.6256 Y35.0815
G01 X30.6068 Y35.0898
G01 X30.5876 Y35.0972
G01 X30.5136 Y35.1237
G01 X30.4941 Y35.1301
G01 X30.4742 Y35.1356
G01 X30.3980 Y35.1547
G01 X30.3779 Y35.1592
G01 X30.3576 Y35.1628
G01 X30.2800 Y35.1743
G01 X30.2595 Y35.1768
G01 X30.2389 Y35.1783
G01 X30.1502 Y35.1826
G01 X30.1296 Y35.1826
G01 X30.1193 Y35.1822
G01 X30.0409 Y35.1783
G01 X30.0203 Y35.1768
G01 X29.9999 Y35.1743
G01 X29.9222 Y35.1628
G01 X29.9019 Y35.1592
G01 X29.8818 Y35.1547
G01 X29.8056 Y35.1356
G01 X29.7858 Y35.1301
G01 X29.7662 Y35.1237
G01 X29.6923 Y35.0972
G01 X29.6730 Y35.0898
G01 X29.6542 Y35.0815
G01 X29.5832 Y35.0479
G01 X29.5648 Y35.0386
G01 X29.5469 Y35.0285
G01 X29.4795 Y34.9881
G01 X29.4708 Y34.9827
G01 X29.4536 Y34.9712
G01 X29.3740 Y34.9122
G01 X29.3660 Y34.9058
G01 X29.3504 Y34.8923
G01 X29.2922 Y34.8396
G01 X29.2772 Y34.8254
G01 X29.2630 Y34.8104
G01 X29.2103 Y34.7522
G01 X29.2035 Y34.7445
G01 X29.1904 Y34.7286
G01 X29.1374 Y34.6573
G01 X29.1314 Y34.6490
G01 X29.1199 Y34.6318
G01 X29.0689 Y34.5468
G01 X29.0592 Y34.5286
G01 X29.0399 Y34.4881
G01 X29.0206 Y34.5286
G01 X29.0109 Y34.5468
G01 X28.9599 Y34.6318
G01 X28.9543 Y34.6405
G01 X28.9424 Y34.6573
G01 X28.8957 Y34.7204
G01 X28.8830 Y34.7366
G01 X28.8764 Y34.7445
G01 X28.8168 Y34.8104
G01 X28.8026 Y34.8254
G01 X28.7877 Y34.8396
G01 X28.7295 Y34.8923
G01 X28.7139 Y34.9058
G01 X28.6976 Y34.9184
G01 X28.6346 Y34.9652
G01 X28.6262 Y34.9712
G01 X28.6091 Y34.9827
G01 X28.5330 Y35.0285
G01 X28.5150 Y35.0386
G01 X28.4966 Y35.0479
G01 X28.4256 Y35.0815
G01 X28.4068 Y35.0898
G01 X28.3876 Y35.0972
G01 X28.3136 Y35.1237
G01 X28.2941 Y35.1301
G01 X28.2742 Y35.1356
G01 X28.1980 Y35.1547
G01 X28.1779 Y35.1592
G01 X28.1576 Y35.1628
G01 X28.0800 Y35.1743
G01 X28.0595 Y35.1768
G01 X28.0389 Y35.1783
G01 X27.9605 Y35.1822
G01 X27.9399 Y35.1827
G01 X27.9193 Y35.1822
G01 X27.8409 Y35.1783
G01 X27.8203 Y35.1768
G01 X27.7999 Y35.1743
G01 X27.7222 Y35.1628
G01 X27.7019 Y35.1592
G01 X27.6818 Y35.1547
G01 X27.6056 Y35.1356
G01 X27.5858 Y35.1301
G01 X27.5662 Y35.1237
G01 X27.4923 Y35.0972
G01 X27.4730 Y35.0898
G01 X27.4542 Y35.0815
G01 X27.3832 Y35.0479
G01 X27.3648 Y35.0386
G01 X27.3469 Y35.0285
G01 X27.2708 Y34.9827
G01 X27.2536 Y34.9712
G01 X27.2453 Y34.9652
G01 X27.1822 Y34.9184
G01 X27.1660 Y34.9058
G01 X27.1504 Y34.8923
G01 X27.0922 Y34.8396
G01 X27.0772 Y34.8254
G01 X27.0630 Y34.8104
G01 X27.0035 Y34.7445
G01 X26.9904 Y34.7286
G01 X26.9842 Y34.7204
G01 X26.9374 Y34.6573
G01 X26.9314 Y34.6490
G01 X26.9199 Y34.6318
G01 X26.8689 Y34.5468
G01 X26.8592 Y34.5286
G01 X26.8399 Y34.4881
G01 X26.8206 Y34.5286
G01 X26.8109 Y34.5468
G01 X26.7653 Y34.6231
G01 X26.7543 Y34.6405
G01 X26.7485 Y34.6490
G01 X26.6957 Y34.7204
G01 X26.6830 Y34.7366
G01 X26.6695 Y34.7522
G01 X26.6168 Y34.8104
G01 X26.6098 Y34.8180
G01 X26.5952 Y34.8325
G01 X26.5295 Y34.8923
G01 X26.5139 Y34.9058
G01 X26.4976 Y34.9184
G01 X26.4346 Y34.9652
G01 X26.4177 Y34.9771
G01 X26.4003 Y34.9881
G01 X26.3330 Y35.0285
G01 X26.3150 Y35.0386
G01 X26.2966 Y35.0479
G01 X26.2256 Y35.0815
G01 X26.2068 Y35.0898
G01 X26.1876 Y35.0972
G01 X26.1136 Y35.1237
G01 X26.0941 Y35.1301
G01 X26.0742 Y35.1356
G01 X25.9980 Y35.1547
G01 X25.9779 Y35.1592
G01 X25.9576 Y35.1628
G01 X25.8800 Y35.1743
G01 X25.8595 Y35.1768
G01 X25.8389 Y35.1783
G01 X25.7502 Y35.1826
G01 X25.7296 Y35.1826
G01 X25.7193 Y35.1822
G01 X25.6409 Y35.1783
G01 X25.6203 Y35.1768
G01 X25.5999 Y35.1743
G01 X25.5120 Y35.1611
G01 X25.4918 Y35.1571
G01 X25.4818 Y35.1547
G01 X25.3957 Y35.1330
G01 X25.3759 Y35.1270
G01 X25.3263 Y35.1094
G01 X25.3274 Y35.1258
G01 X25.3284 Y35.1486
G01 X25.3284 Y35.1692
G01 X25.3268 Y35.2022
G01 X25.3248 Y35.2227
G01 X25.3199 Y35.2555
G01 X25.3159 Y35.2757
G01 X25.3078 Y35.3078
G01 X25.3019 Y35.3275
G01 X25.2907 Y35.3587
G01 X25.2828 Y35.3777
G01 X25.2686 Y35.4076
G01 X25.2589 Y35.4258
G01 X25.2419 Y35.4542
G01 X25.2304 Y35.4713
G01 X25.2107 Y35.4979
G01 X25.2043 Y35.5060
G01 X25.1908 Y35.5216
G01 X25.1682 Y35.5457
G01 X25.1533 Y35.5599
G01 X25.1284 Y35.5818
G01 X25.1021 Y35.6019
G01 X25.0853 Y35.6138
G01 X25.0572 Y35.6312
G01 X25.0392 Y35.6413
G01 X25.0095 Y35.6559
G01 X25.0001 Y35.6602
G01 X24.9811 Y35.6681
G01 X24.9499 Y35.6792
G01 X24.9302 Y35.6852
G01 X24.8981 Y35.6932
G01 X24.8779 Y35.6973
G01 X24.8451 Y35.7021
G01 X24.8246 Y35.7041
G01 X24.7916 Y35.7057
G01 X14.3674 Y35.7014
G01 X14.3344 Y35.7003
G01 X14.3138 Y35.6988
G01 X14.3036 Y35.6976
G01 X14.2709 Y35.6928
G01 X14.2507 Y35.6888
G01 X14.2186 Y35.6807
G01 X14.1989 Y35.6747
G01 X14.1677 Y35.6636
G01 X14.1487 Y35.6557
G01 X14.1188 Y35.6415
G01 X14.1006 Y35.6318
G01 X14.0917 Y35.6266
G01 X14.0636 Y35.6091
G01 X14.0367 Y35.5898
G01 X14.0205 Y35.5772
G01 X14.0049 Y35.5637
G01 X13.9807 Y35.5411
G01 X13.9582 Y35.5169
G01 X13.9447 Y35.5013
G01 X13.9246 Y35.4751
G01 X13.9127 Y35.4582
G01 X13.9017 Y35.4408
G01 X13.8852 Y35.4121
G01 X13.8759 Y35.3937
G01 X13.8622 Y35.3636
G01 X13.8506 Y35.3326
G01 X13.8441 Y35.3131
G01 X13.8386 Y35.2932
G01 X13.8311 Y35.2610
G01 X13.8276 Y35.2407
G01 X13.8232 Y35.2079
G01 X13.8211 Y35.1749
G01 X13.8206 Y35.1543
G01 X13.8217 Y35.1212
G01 X13.8224 Y35.1110
G01 X13.8244 Y35.0904
G00 Z2.0000
G00 X2.4200 Y34.4560
G01 F120.00
G01 Z-0.0800
G01 F120.00
G01 X2.4199 Y33.0011
G01 X2.4217 Y32.9619
G01 X2.4233 Y32.9472
G01 X2.4286 Y32.9133
G01 X2.4367 Y32.8799
G01 X2.4408 Y32.8658
G01 X2.4506 Y32.8380
G01 X2.4582 Y32.8199
G01 X2.4708 Y32.7933
G01 X2.4754 Y32.7847
G01 X2.4931 Y32.7552
G01 X2.5014 Y32.7430
G01 X2.5221 Y32.7156
G01 X2.5517 Y32.6829
G01 X2.5844 Y32.6532
G01 X2.6199 Y32.6269
G01 X2.6578 Y32.6042
G01 X2.6887 Y32.5893
G01 X2.7023 Y32.5835
G01 X2.7300 Y32.5735
G01 X2.7488 Y32.5678
G01 X2.7821 Y32.5597
G01 X2.8258 Y32.5532
G01 X2.8650 Y32.5511
G01 X2.9197 Y32.5511
G01 X2.9197 Y19.4027
G01 X2.9224 Y19.3488
G01 X2.9303 Y19.2953
G01 X2.9434 Y19.2430
G01 X2.9616 Y19.1921
G01 X2.9847 Y19.1433
G01 X3.0125 Y19.0970
G01 X3.0446 Y19.0537
G01 X3.0809 Y19.0136
G01 X11.5505 Y10.5440
G01 X11.5475 Y10.5281
G01 X11.5347 Y10.4407
G01 X11.5302 Y10.3525
G01 X11.5302 Y10.3329
G01 X11.5347 Y10.2447
G01 X11.5475 Y10.1573
G01 X11.5513 Y10.1380
G01 X11.5730 Y10.0524
G01 X11.6060 Y9.9600
G01 X11.6436 Y9.8801
G01 X11.6528 Y9.8627
G01 X11.6985 Y9.7871
G01 X11.7509 Y9.7160
G01 X11.7633 Y9.7009
G01 X11.8228 Y9.6356
G01 X11.8881 Y9.5761
G01 X11.9033 Y9.5636
G01 X11.9743 Y9.5112
G01 X12.0585 Y9.4608
G01 X12.1383 Y9.4228
G01 X12.1564 Y9.4153
G01 X12.2396 Y9.3857
G01 X12.3348 Y9.3619
G01 X12.4319 Y9.3475
G01 X12.5201 Y9.3429
G01 X12.5397 Y9.3429
G01 X12.6279 Y9.3475
G01 X12.7153 Y9.3602
G01 X12.7346 Y9.3640
G01 X12.8202 Y9.3857
G01 X12.9126 Y9.4188
G01 X12.9925 Y9.4563
G01 X13.0099 Y9.4656
G01 X13.0855 Y9.5112
G01 X13.1566 Y9.5636
G01 X13.1717 Y9.5761
G01 X13.2370 Y9.6356
G01 X13.3029 Y9.7083
G01 X13.3614 Y9.7871
G01 X13.4070 Y9.8627
G01 X13.4163 Y9.8801
G01 X13.4498 Y9.9510
G01 X13.4573 Y9.9692
G01 X13.4869 Y10.0524
G01 X13.5086 Y10.1380
G01 X13.5124 Y10.1573
G01 X13.5251 Y10.2447
G01 X13.5299 Y10.3427
G01 X13.5251 Y10.4407
G01 X13.5124 Y10.5281
G01 X13.5086 Y10.5473
G01 X13.4869 Y10.6330
G01 X13.4573 Y10.7162
G01 X13.4498 Y10.7343
G01 X13.4163 Y10.8053
G01 X13.4070 Y10.8226
G01 X13.3614 Y10.8983
G01 X13.3090 Y10.9693
G01 X13.2998 Y10.9808
G01 X13.2370 Y11.0498
G01 X13.1717 Y11.1093
G01 X13.1566 Y11.1217
G01 X13.0855 Y11.1741
G01 X13.0099 Y11.2198
G01 X12.9925 Y11.2290
G01 X12.9126 Y11.2666
G01 X12.8295 Y11.2965
G01 X12.8107 Y11.3022
G01 X12.7250 Y11.3235
G01 X12.6377 Y11.3367
G01 X12.6181 Y11.3386
G01 X12.5299 Y11.3427
G01 X12.4417 Y11.3386
G01 X12.4222 Y11.3367
G01 X12.3445 Y11.3251
G01 X12.3286 Y11.3221
G01 X4.0201 Y19.6306
G01 X4.0201 Y32.5511
G01 X4.0748 Y32.5511
G01 X4.1140 Y32.5532
G01 X4.1577 Y32.5597
G01 X4.1911 Y32.5678
G01 X4.2099 Y32.5735
G01 X4.2376 Y32.5835
G01 X4.2511 Y32.5893
G01 X4.2820 Y32.6042
G01 X4.3199 Y32.6269
G01 X4.3554 Y32.6532
G01 X4.3881 Y32.6829
G01 X4.4178 Y32.7156
G01 X4.4384 Y32.7430
G01 X4.4468 Y32.7552
G01 X4.4644 Y32.7847
G01 X4.4690 Y32.7933
G01 X4.4817 Y32.8199
G01 X4.4875 Y32.8334
G01 X4.4975 Y32.8611
G01 X4.5032 Y32.8799
G01 X4.5113 Y32.9133
G01 X4.5166 Y32.9472
G01 X4.5182 Y32.9619
G01 X4.5199 Y33.0011
G01 X4.5199 Y34.4511
G01 X4.5178 Y34.4952
G01 X4.5113 Y34.5389
G01 X4.5032 Y34.5722
G01 X4.4991 Y34.5864
G01 X4.4857 Y34.6233
G01 X4.4668 Y34.6632
G01 X4.4493 Y34.6928
G01 X4.4413 Y34.7051
G01 X4.4238 Y34.7288
G01 X4.4114 Y34.7440
G01 X4.3881 Y34.7693
G01 X4.3554 Y34.7989
G01 X4.3199 Y34.8252
G01 X4.2906 Y34.8431
G01 X4.2733 Y34.8524
G01 X4.2466 Y34.8649
G01 X4.2376 Y34.8686
G01 X4.2005 Y34.8817
G01 X4.1673 Y34.8903
G01 X4.1529 Y34.8933
G01 X4.1140 Y34.8989
G01 X4.0699 Y34.9011
G01 X2.8650 Y34.9010
G01 X2.8258 Y34.8989
G01 X2.7821 Y34.8924
G01 X2.7393 Y34.8817
G01 X2.6977 Y34.8668
G01 X2.6578 Y34.8479
G01 X2.6199 Y34.8252
G01 X2.5844 Y34.7989
G01 X2.5517 Y34.7693
G01 X2.5221 Y34.7366
G01 X2.4958 Y34.7011
G01 X2.4731 Y34.6632
G01 X2.4542 Y34.6233
G01 X2.4393 Y34.5817
G01 X2.4286 Y34.5389
G01 X2.4221 Y34.4952
G01 X2.4200 Y34.4560
G00 Z2.0000
G00 X2.2165 Y34.4350
G01 F120.00
G01 Z-0.0800
G01 F120.00
G01 X2.2306 Y34.5783
G01 X2.2677 Y34.7005
G01 X2.3279 Y34.8132
G01 X2.4145 Y34.9187
G01 X2.4289 Y34.9343
G01 X2.4384 Y34.9456
G01 X2.4544 Y34.9675
G01 X2.4685 Y34.9908
G01 X2.4732 Y34.9994
G01 X2.4827 Y35.0196
G01 X2.4865 Y35.0286
G01 X2.4940 Y35.0496
G01 X2.4968 Y35.0590
G01 X2.5022 Y35.0806
G01 X2.5041 Y35.0903
G01 X2.5074 Y35.1123
G01 X2.5084 Y35.1221
G01 X2.5093 Y35.1395
G01 X2.5093 Y35.1591
G01 X2.5084 Y35.1764
G01 X2.5074 Y35.1862
G01 X2.5032 Y35.2131
G01 X2.4968 Y35.2395
G01 X2.4939 Y35.2489
G01 X2.4881 Y35.2653
G01 X2.4827 Y35.2790
G01 X2.4709 Y35.3035
G01 X2.4570 Y35.3269
G01 X2.4487 Y35.3390
G01 X2.4383 Y35.3529
G01 X2.4321 Y35.3605
G01 X2.4137 Y35.3806
G01 X2.3936 Y35.3990
G01 X2.3860 Y35.4052
G01 X2.3721 Y35.4156
G01 X2.3600 Y35.4239
G01 X2.3365 Y35.4377
G01 X2.3165 Y35.4475
G01 X2.3030 Y35.4533
G01 X2.2820 Y35.4608
G01 X2.2678 Y35.4649
G01 X2.2461 Y35.4700
G01 X2.2241 Y35.4735
G01 X2.2095 Y35.4751
G01 X2.1872 Y35.4762
G01 X0.8941 Y35.4757
G01 X0.8669 Y35.4746
G01 X0.8523 Y35.4729
G01 X0.8303 Y35.4694
G01 X0.8039 Y35.4630
G01 X0.7899 Y35.4585
G01 X0.7690 Y35.4508
G01 X0.7443 Y35.4393
G01 X0.7314 Y35.4322
G01 X0.7125 Y35.4206
G01 X0.6944 Y35.4075
G01 X0.6829 Y35.3983
G01 X0.6629 Y35.3799
G01 X0.6478 Y35.3636
G01 X0.6383 Y35.3523
G01 X0.6250 Y35.3344
G01 X0.6170 Y35.3221
G01 X0.6058 Y35.3028
G01 X0.5960 Y35.2828
G01 X0.5902 Y35.2693
G01 X0.5813 Y35.2436
G01 X0.5756 Y35.2220
G01 X0.5726 Y35.2076
G01 X0.5693 Y35.1856
G01 X0.5680 Y35.1709
G01 X0.5672 Y35.1487
G01 X0.5672 Y0.6045
G01 X0.5680 Y0.5822
G01 X0.5693 Y0.5675
G01 X0.5735 Y0.5407
G01 X0.5786 Y0.5190
G01 X0.5827 Y0.5049
G01 X0.5921 Y0.4793
G01 X0.6014 Y0.4591
G01 X0.6081 Y0.4460
G01 X0.6223 Y0.4228
G01 X0.6354 Y0.4047
G01 X0.6445 Y0.3932
G01 X0.6629 Y0.3732
G01 X0.6793 Y0.3581
G01 X0.6905 Y0.3486
G01 X0.7125 Y0.3325
G01 X0.7315 Y0.3209
G01 X0.7444 Y0.3138
G01 X0.7690 Y0.3023
G01 X0.7899 Y0.2946
G01 X0.8039 Y0.2901
G01 X0.8303 Y0.2837
G01 X0.8523 Y0.2802
G01 X0.8670 Y0.2786
G01 X0.8941 Y0.2774
G01 X16.0800 Y0.2728
G01 X16.1114 Y0.2743
G01 X16.1331 Y0.2772
G01 X16.1473 Y0.2798
G01 X16.1685 Y0.2850
G01 X16.1778 Y0.2878
G01 X16.1984 Y0.2950
G01 X16.2117 Y0.3006
G01 X16.2272 Y0.3078
G01 X16.2399 Y0.3146
G01 X16.2587 Y0.3259
G01 X16.2765 Y0.3385
G01 X16.2879 Y0.3474
G01 X16.3043 Y0.3618
G01 X16.3112 Y0.3685
G01 X16.3262 Y0.3845
G01 X16.3324 Y0.3918
G01 X16.3457 Y0.4092
G01 X16.3512 Y0.4171
G01 X16.3603 Y0.4315
G01 X16.3676 Y0.4440
G01 X16.3752 Y0.4592
G01 X16.3830 Y0.4769
G01 X16.3891 Y0.4928
G01 X16.3921 Y0.5019
G01 X16.3979 Y0.5230
G01 X16.4001 Y0.5324
G01 X16.4045 Y0.5587
G01 X16.4070 Y0.5901
G01 X16.6022 Y7.1175
G01 X16.6235 Y17.8602
G01 X16.6226 Y17.8828
G01 X16.6215 Y17.8971
G01 X16.6299 Y17.9810
G01 X16.6543 Y18.0610
G01 X16.6939 Y18.1348
G01 X16.7471 Y18.1994
G01 X16.8120 Y18.2523
G01 X16.8859 Y18.2916
G01 X16.9660 Y18.3158
G01 X17.0493 Y18.3238
G01 X17.0636 Y18.3226
G01 X17.0862 Y18.3218
G01 X43.2095 Y18.3066
G01 X43.2317 Y18.3074
G01 X43.2464 Y18.3086
G01 X43.3297 Y18.3003
G01 X43.4098 Y18.2759
G01 X43.4836 Y18.2364
G01 X43.5482 Y18.1833
G01 X43.5653 Y18.1625
G01 X43.5806 Y18.1457
G01 X43.5876 Y18.1386
G01 X43.6045 Y18.1234
G01 X43.6162 Y18.1141
G01 X43.6346 Y18.1009
G01 X43.6540 Y18.0891
G01 X43.6672 Y18.0819
G01 X43.6652 Y17.9855
G01 X43.6653 Y17.9736
G01 X43.6666 Y17.9467
G01 X43.6730 Y17.8814
G01 X43.6718 Y17.8666
G01 X43.6709 Y17.8444
G01 X43.6564 Y0.5999
G01 X43.6579 Y0.5678
G01 X43.6626 Y0.5360
G01 X43.6704 Y0.5049
G01 X43.6794 Y0.4792
G01 X43.6831 Y0.4701
G01 X43.6926 Y0.4500
G01 X43.6973 Y0.4413
G01 X43.7087 Y0.4222
G01 X43.7142 Y0.4140
G01 X43.7274 Y0.3961
G01 X43.7337 Y0.3885
G01 X43.7453 Y0.3755
G01 X43.7556 Y0.3650
G01 X43.7721 Y0.3500
G01 X43.7797 Y0.3438
G01 X43.7976 Y0.3305
G01 X43.8058 Y0.3250
G01 X43.8249 Y0.3136
G01 X43.8335 Y0.3089
G01 X43.8537 Y0.2994
G01 X43.8674 Y0.2939
G01 X43.8884 Y0.2866
G01 X43.9196 Y0.2788
G01 X43.9514 Y0.2741
G01 X43.9834 Y0.2725
G01 X59.3855 Y0.2725
G01 X59.4077 Y0.2734
G01 X59.4224 Y0.2747
G01 X59.4492 Y0.2788
G01 X59.4709 Y0.2840
G01 X59.4851 Y0.2881
G01 X59.5106 Y0.2974
G01 X59.5308 Y0.3067
G01 X59.5439 Y0.3135
G01 X59.5671 Y0.3276
G01 X59.5852 Y0.3407
G01 X59.5966 Y0.3499
G01 X59.6167 Y0.3683
G01 X59.6318 Y0.3846
G01 X59.6413 Y0.3959
G01 X59.6573 Y0.4178
G01 X59.6690 Y0.4368
G01 X59.6761 Y0.4497
G01 X59.6876 Y0.4743
G01 X59.6953 Y0.4952
G01 X59.6998 Y0.5092
G01 X59.7062 Y0.5356
G01 X59.7097 Y0.5576
G01 X59.7114 Y0.5723
G01 X59.7125 Y0.5994
G01 X59.7320 Y35.1733
G01 X59.7312 Y35.1955
G01 X59.7299 Y35.2102
G01 X59.7257 Y35.2371
G01 X59.7206 Y35.2588
G01 X59.7165 Y35.2729
G01 X59.7071 Y35.2985
G01 X59.6978 Y35.3188
G01 X59.6911 Y35.3318
G01 X59.6769 Y35.3551
G01 X59.6638 Y35.3732
G01 X59.6546 Y35.3847
G01 X59.6362 Y35.4047
G01 X59.6199 Y35.4198
G01 X59.6086 Y35.4293
G01 X59.5866 Y35.4454
G01 X59.5676 Y35.4571
G01 X59.5547 Y35.4642
G01 X59.5300 Y35.4756
G01 X59.5091 Y35.4834
G01 X59.4951 Y35.4878
G01 X59.4686 Y35.4942
G01 X59.4466 Y35.4977
G01 X59.4320 Y35.4994
G01 X59.4097 Y35.5004
G01 X57.8413 Y35.4998
G01 X57.8191 Y35.4990
G01 X57.8044 Y35.4977
G01 X57.7775 Y35.4935
G01 X57.7464 Y35.4857
G01 X57.7208 Y35.4767
G01 X57.7117 Y35.4730
G01 X57.6960 Y35.4656
G01 X57.6787 Y35.4563
G01 X57.6638 Y35.4473
G01 X57.6556 Y35.4419
G01 X57.6339 Y35.4255
G01 X57.6101 Y35.4040
G01 X57.5886 Y35.3802
G01 X57.5723 Y35.3585
G01 X57.5668 Y35.3503
G01 X57.5578 Y35.3354
G01 X57.5486 Y35.3181
G01 X57.5412 Y35.3024
G01 X57.5375 Y35.2933
G01 X57.5285 Y35.2677
G01 X57.5207 Y35.2365
G01 X57.5165 Y35.2097
G01 X57.5156 Y35.1999
G01 X57.5145 Y35.1776
G01 X57.5145 Y35.1678
G01 X57.5156 Y35.1456
G01 X57.5165 Y35.1358
G01 X57.5198 Y35.1138
G01 X57.5217 Y35.1041
G01 X57.5271 Y35.0825
G01 X57.5300 Y35.0731
G01 X57.5375 Y35.0521
G01 X57.5413 Y35.0431
G01 X57.5508 Y35.0229
G01 X57.5554 Y35.0143
G01 X57.5669 Y34.9952
G01 X57.5723 Y34.9870
G01 X57.5826 Y34.9730
G01 X57.5918 Y34.9615
G01 X57.6068 Y34.9450
G01 X57.6137 Y34.9381
G01 X57.6302 Y34.9231
G01 X57.8480 Y34.7443
G01 X58.0042 Y34.5540
G01 X58.1203 Y34.3368
G01 X58.1918 Y34.1012
G01 X58.2099 Y33.9176
G01 X58.2099 Y33.5448
G01 X58.1918 Y33.3612
G01 X58.1203 Y33.1255
G01 X58.0042 Y32.9084
G01 X57.8480 Y32.7181
G01 X57.6720 Y32.5733
G01 X57.6557 Y32.5581
G01 X57.6405 Y32.5418
G01 X57.6310 Y32.5305
G01 X57.6178 Y32.5126
G01 X57.6123 Y32.5045
G01 X57.6033 Y32.4896
G01 X57.5962 Y32.4767
G01 X57.5848 Y32.4520
G01 X57.5754 Y32.4265
G01 X57.5713 Y32.4124
G01 X57.5672 Y32.3955
G01 X57.5652 Y32.3859
G01 X57.5614 Y32.3589
G01 X57.5601 Y32.3367
G01 X57.5599 Y19.5982
G01 X57.5610 Y19.5710
G01 X57.5628 Y19.5527
G01 X57.5512 Y19.4351
G01 X57.5169 Y19.3220
G01 X57.4612 Y19.2178
G01 X57.3862 Y19.1264
G01 X57.3720 Y19.1147
G01 X57.3519 Y19.0963
G01 X49.0280 Y10.7720
G01 X49.0132 Y10.7553
G01 X48.9969 Y10.7336
G01 X48.9914 Y10.7254
G01 X48.9824 Y10.7105
G01 X48.9753 Y10.6976
G01 X48.9639 Y10.6730
G01 X48.9545 Y10.6474
G01 X48.9517 Y10.6380
G01 X48.9474 Y10.6212
G01 X48.9436 Y10.6020
G01 X48.9411 Y10.5848
G01 X48.9401 Y10.5750
G01 X48.9390 Y10.5527
G01 X48.9390 Y10.5429
G01 X48.9401 Y10.5207
G01 X48.9411 Y10.5109
G01 X48.9444 Y10.4888
G01 X48.9499 Y10.4609
G01 X48.9499 Y10.2245
G01 X48.9037 Y9.9927
G01 X48.8133 Y9.7743
G01 X48.6820 Y9.5778
G01 X48.5148 Y9.4106
G01 X48.3183 Y9.2793
G01 X48.0999 Y9.1889
G01 X47.8681 Y9.1427
G01 X47.6317 Y9.1427
G01 X47.3999 Y9.1889
G01 X47.1815 Y9.2793
G01 X46.9850 Y9.4106
G01 X46.8179 Y9.5778
G01 X46.6865 Y9.7743
G01 X46.5961 Y9.9927
G01 X46.5500 Y10.2245
G01 X46.5500 Y10.4609
G01 X46.5961 Y10.6927
G01 X46.6865 Y10.9111
G01 X46.8179 Y11.1076
G01 X46.9850 Y11.2747
G01 X47.1815 Y11.4061
G01 X47.2476 Y11.4334
G01 X47.2678 Y11.4427
G01 X47.2851 Y11.4520
G01 X47.3000 Y11.4610
G01 X47.3082 Y11.4664
G01 X47.3299 Y11.4828
G01 X47.3502 Y11.5009
G01 X47.4414 Y11.5920
G01 X47.4550 Y11.5872
G01 X47.4643 Y11.5844
G01 X47.5548 Y11.5619
G01 X47.6422 Y11.5487
G01 X47.6617 Y11.5468
G01 X47.7499 Y11.5427
G01 X47.8381 Y11.5468
G01 X47.8577 Y11.5487
G01 X47.9353 Y11.5602
G01 X47.9498 Y11.5629
G01 X48.0402 Y11.5857
G01 X48.1234 Y11.6153
G01 X48.1416 Y11.6228
G01 X48.2213 Y11.6608
G01 X48.2972 Y11.7060
G01 X48.3135 Y11.7169
G01 X48.3843 Y11.7697
G01 X48.4499 Y11.8288
G01 X48.4638 Y11.8427
G01 X48.5229 Y11.9083
G01 X48.5757 Y11.9791
G01 X48.5866 Y11.9954
G01 X48.6318 Y12.0713
G01 X48.6698 Y12.1510
G01 X48.6773 Y12.1692
G01 X48.7069 Y12.2524
G01 X48.7286 Y12.3380
G01 X48.7324 Y12.3573
G01 X48.7451 Y12.4447
G01 X48.7497 Y12.5329
G01 X48.7497 Y12.5525
G01 X48.7451 Y12.6407
G01 X48.7324 Y12.7281
G01 X48.7293 Y12.7440
G01 X48.8267 Y12.8414
G01 X48.8371 Y12.8253
G01 X48.8454 Y12.8136
G01 X48.8591 Y12.7967
G01 X48.8688 Y12.7861
G01 X48.8842 Y12.7707
G01 X48.9007 Y12.7565
G01 X48.9120 Y12.7476
G01 X48.9299 Y12.7352
G01 X48.9422 Y12.7278
G01 X48.9613 Y12.7174
G01 X48.9900 Y12.7048
G01 X49.0106 Y12.6978
G01 X49.0244 Y12.6939
G01 X49.0456 Y12.6891
G01 X49.0598 Y12.6868
G01 X49.0814 Y12.6843
G01 X49.1032 Y12.6834
G01 X49.1175 Y12.6835
G01 X49.1393 Y12.6850
G01 X49.1535 Y12.6868
G01 X49.1749 Y12.6905
G01 X49.2052 Y12.6985
G01 X49.2257 Y12.7059
G01 X49.2390 Y12.7113
G01 X49.2586 Y12.7208
G01 X49.2712 Y12.7278
G01 X49.2896 Y12.7393
G01 X49.3072 Y12.7521
G01 X49.3184 Y12.7611
G01 X49.3345 Y12.7758
G01 X56.2642 Y19.7054
G01 X56.2793 Y19.7217
G01 X56.2888 Y19.7330
G01 X56.3049 Y19.7549
G01 X56.3165 Y19.7739
G01 X56.3236 Y19.7868
G01 X56.3351 Y19.8115
G01 X56.3428 Y19.8324
G01 X56.3473 Y19.8464
G01 X56.3537 Y19.8728
G01 X56.3572 Y19.8949
G01 X56.3588 Y19.9095
G01 X56.3600 Y19.9367
G01 X56.3600 Y32.3269
G01 X56.3584 Y32.3589
G01 X56.3537 Y32.3907
G01 X56.3473 Y32.4171
G01 X56.3444 Y32.4265
G01 X56.3386 Y32.4429
G01 X56.3311 Y32.4610
G01 X56.3236 Y32.4767
G01 X56.3190 Y32.4854
G01 X56.3049 Y32.5086
G01 X56.2857 Y32.5344
G01 X56.2676 Y32.5546
G01 X56.2571 Y32.5649
G01 X56.2404 Y32.5797
G01 X56.0718 Y32.7181
G01 X55.8943 Y32.9342
G01 X55.8755 Y32.9547
G01 X55.8550 Y32.9734
G01 X55.8432 Y32.9827
G01 X55.8247 Y32.9960
G01 X55.8009 Y33.0103
G01 X55.7875 Y33.0171
G01 X55.7667 Y33.0264
G01 X55.7405 Y33.0356
G01 X55.7260 Y33.0396
G01 X55.7038 Y33.0446
G01 X55.6939 Y33.0462
G01 X55.6713 Y33.0489
G01 X55.6486 Y33.0498
G01 X55.6385 Y33.0499
G01 X55.6158 Y33.0486
G01 X55.6058 Y33.0476
G01 X55.5784 Y33.0431
G01 X55.5686 Y33.0410
G01 X55.5467 Y33.0349
G01 X55.5372 Y33.0317
G01 X55.5159 Y33.0235
G01 X55.5068 Y33.0194
G01 X55.4865 Y33.0091
G01 X55.4778 Y33.0041
G01 X55.4628 Y32.9946
G01 X55.4505 Y32.9860
G01 X55.4288 Y32.9686
G01 X55.4123 Y32.9529
G01 X55.4020 Y32.9420
G01 X55.3842 Y32.9207
G01 X55.3079 Y32.8202
G01 X55.1383 Y32.6698
G01 X55.0101 Y32.5949
G01 X55.0101 Y32.7130
G01 X55.0392 Y32.7305
G01 X55.0473 Y32.7359
G01 X55.1183 Y32.7885
G01 X55.1298 Y32.7977
G01 X55.2024 Y32.8637
G01 X55.2684 Y32.9363
G01 X55.2776 Y32.9478
G01 X55.3273 Y33.0148
G01 X55.3382 Y33.0311
G01 X55.3859 Y33.1112
G01 X55.4260 Y33.1954
G01 X55.4318 Y33.2089
G01 X55.4616 Y33.2921
G01 X55.4673 Y33.3108
G01 X55.4897 Y33.4013
G01 X55.5043 Y33.4984
G01 X55.5056 Y33.5131
G01 X55.5099 Y33.6013
G01 X55.5099 Y33.8611
G01 X55.5056 Y33.9493
G01 X55.5037 Y33.9688
G01 X55.4897 Y34.0610
G01 X55.4673 Y34.1515
G01 X55.4616 Y34.1703
G01 X55.4300 Y34.2580
G01 X55.3904 Y34.3424
G01 X55.3811 Y34.3597
G01 X55.3330 Y34.4395
G01 X55.2776 Y34.5146
G01 X55.2652 Y34.5297
G01 X55.2024 Y34.5986
G01 X55.1335 Y34.6614
G01 X55.1183 Y34.6739
G01 X55.0433 Y34.7292
G01 X54.9592 Y34.7798
G01 X54.9461 Y34.7866
G01 X54.8617 Y34.8263
G01 X54.7647 Y34.8610
G01 X54.6648 Y34.8860
G01 X54.5628 Y34.9011
G01 X54.4599 Y34.9062
G01 X54.3570 Y34.9011
G01 X54.2551 Y34.8860
G01 X54.1551 Y34.8610
G01 X54.0581 Y34.8263
G01 X53.9650 Y34.7822
G01 X53.8766 Y34.7292
G01 X53.7938 Y34.6678
G01 X53.7175 Y34.5986
G01 X53.6483 Y34.5223
G01 X53.5869 Y34.4395
G01 X53.5387 Y34.3597
G01 X53.5295 Y34.3424
G01 X53.4898 Y34.2580
G01 X53.4551 Y34.1610
G01 X53.4301 Y34.0610
G01 X53.4150 Y33.9591
G01 X53.4100 Y33.8611
G01 X53.4100 Y33.6013
G01 X53.4150 Y33.5033
G01 X53.4284 Y33.4110
G01 X53.4311 Y33.3965
G01 X53.4551 Y33.3014
G01 X53.4898 Y33.2044
G01 X53.5339 Y33.1112
G01 X53.5816 Y33.0311
G01 X53.5897 Y33.0188
G01 X53.6483 Y32.9401
G01 X53.7107 Y32.8708
G01 X53.7210 Y32.8603
G01 X53.7864 Y32.8009
G01 X53.7976 Y32.7915
G01 X53.8725 Y32.7359
G01 X53.8807 Y32.7305
G01 X53.9097 Y32.7130
G01 X53.9097 Y32.5949
G01 X53.7815 Y32.6698
G01 X53.6119 Y32.8202
G01 X53.5356 Y32.9207
G01 X53.5179 Y32.9420
G01 X53.5075 Y32.9529
G01 X53.4910 Y32.9686
G01 X53.4694 Y32.9860
G01 X53.4570 Y32.9946
G01 X53.4420 Y33.0041
G01 X53.4333 Y33.0091
G01 X53.4131 Y33.0194
G01 X53.4039 Y33.0235
G01 X53.3779 Y33.0334
G01 X53.3561 Y33.0397
G01 X53.3463 Y33.0421
G01 X53.3239 Y33.0462
G01 X53.3140 Y33.0476
G01 X53.2913 Y33.0495
G01 X53.2813 Y33.0499
G01 X53.2713 Y33.0498
G01 X53.2485 Y33.0489
G01 X53.2210 Y33.0454
G01 X53.2111 Y33.0436
G01 X53.1938 Y33.0396
G01 X53.1841 Y33.0371
G01 X53.1746 Y33.0340
G01 X53.1578 Y33.0282
G01 X53.1485 Y33.0244
G01 X53.1234 Y33.0126
G01 X53.0993 Y32.9987
G01 X53.0869 Y32.9903
G01 X53.0726 Y32.9797
G01 X53.0648 Y32.9734
G01 X53.0443 Y32.9547
G01 X53.0374 Y32.9474
G01 X53.0223 Y32.9304
G01 X52.8480 Y32.7181
G01 X52.6757 Y32.5765
G01 X52.6557 Y32.5581
G01 X52.6341 Y32.5344
G01 X52.6178 Y32.5126
G01 X52.6097 Y32.5003
G01 X52.5985 Y32.4811
G01 X52.5867 Y32.4565
G01 X52.5812 Y32.4429
G01 X52.5739 Y32.4218
G01 X52.5672 Y32.3955
G01 X52.5645 Y32.3810
G01 X52.5620 Y32.3638
G01 X52.5610 Y32.3540
G01 X52.5599 Y32.3269
G01 X52.5599 Y18.9982
G01 X52.5610 Y18.9710
G01 X52.5628 Y18.9527
G01 X52.5512 Y18.8351
G01 X52.5169 Y18.7220
G01 X52.4612 Y18.6178
G01 X52.3862 Y18.5264
G01 X52.3720 Y18.5147
G01 X52.3519 Y18.4963
G01 X49.0348 Y15.1791
G01 X49.0164 Y15.1591
G01 X49.0072 Y15.1476
G01 X48.9969 Y15.1336
G01 X48.9914 Y15.1254
G01 X48.9776 Y15.1020
G01 X48.9658 Y15.0775
G01 X48.9620 Y15.0684
G01 X48.9561 Y15.0521
G01 X48.9517 Y15.0380
G01 X48.9453 Y15.0116
G01 X48.9417 Y14.9896
G01 X48.9401 Y14.9750
G01 X48.9390 Y14.9527
G01 X48.9390 Y14.9429
G01 X48.9401 Y14.9207
G01 X48.9411 Y14.9109
G01 X48.9444 Y14.8888
G01 X48.9499 Y14.8609
G01 X48.9499 Y14.6245
G01 X48.9241 Y14.4949
G01 X47.9513 Y13.5221
G01 X47.9353 Y13.5251
G01 X47.8577 Y13.5367
G01 X47.8381 Y13.5386
G01 X47.7499 Y13.5427
G01 X47.6617 Y13.5386
G01 X47.6422 Y13.5367
G01 X47.5548 Y13.5235
G01 X47.4643 Y13.5010
G01 X47.4550 Y13.4981
G01 X47.4414 Y13.4933
G01 X47.3502 Y13.5845
G01 X47.3299 Y13.6026
G01 X47.3082 Y13.6190
G01 X47.3000 Y13.6244
G01 X47.2851 Y13.6334
G01 X47.2678 Y13.6426
G01 X47.2476 Y13.6520
G01 X47.1815 Y13.6793
G01 X46.9850 Y13.8106
G01 X46.8179 Y13.9778
G01 X46.6865 Y14.1743
G01 X46.5961 Y14.3927
G01 X46.5500 Y14.6245
G01 X46.5500 Y14.8609
G01 X46.5961 Y15.0927
G01 X46.6865 Y15.3111
G01 X46.8179 Y15.5076
G01 X46.9217 Y15.6114
G01 X46.9368 Y15.6278
G01 X46.9463 Y15.6390
G01 X46.9596 Y15.6569
G01 X46.9650 Y15.6651
G01 X46.9765 Y15.6842
G01 X46.9833 Y15.6973
G01 X46.9926 Y15.7175
G01 X47.0003 Y15.7384
G01 X47.0048 Y15.7525
G01 X47.0112 Y15.7789
G01 X47.0147 Y15.8009
G01 X47.0163 Y15.8155
G01 X47.0174 Y15.8378
G01 X47.0174 Y15.8476
G01 X47.0166 Y15.8649
G01 X47.0154 Y15.8796
G01 X47.0112 Y15.9065
G01 X47.0048 Y15.9329
G01 X47.0003 Y15.9469
G01 X46.9944 Y15.9633
G01 X46.9906 Y15.9724
G01 X46.9789 Y15.9969
G01 X46.9650 Y16.0203
G01 X46.9596 Y16.0284
G01 X46.9463 Y16.0463
G01 X46.9401 Y16.0539
G01 X46.9251 Y16.0704
G01 X46.8179 Y16.1778
G01 X46.6865 Y16.3743
G01 X46.5961 Y16.5927
G01 X46.5500 Y16.8245
G01 X46.5500 Y17.0609
G01 X46.5961 Y17.2927
G01 X46.6865 Y17.5111
G01 X46.8179 Y17.7076
G01 X46.9217 Y17.8114
G01 X46.9368 Y17.8278
G01 X46.9463 Y17.8390
G01 X46.9596 Y17.8569
G01 X46.9650 Y17.8651
G01 X46.9765 Y17.8842
G01 X46.9833 Y17.8973
G01 X46.9926 Y17.9175
G01 X47.0019 Y17.9431
G01 X47.0060 Y17.9572
G01 X47.0112 Y17.9789
G01 X47.0154 Y18.0057
G01 X47.0166 Y18.0204
G01 X47.0175 Y18.0427
G01 X47.0166 Y18.0649
G01 X47.0154 Y18.0796
G01 X47.0112 Y18.1065
G01 X47.0060 Y18.1282
G01 X47.0019 Y18.1423
G01 X46.9926 Y18.1678
G01 X46.9833 Y18.1881
G01 X46.9765 Y18.2012
G01 X46.9650 Y18.2203
G01 X46.9596 Y18.2284
G01 X46.9463 Y18.2463
G01 X46.9368 Y18.2576
G01 X46.9217 Y18.2739
G01 X46.8179 Y18.3778
G01 X46.6865 Y18.5743
G01 X46.5961 Y18.7927
G01 X46.5500 Y19.0245
G01 X46.5500 Y19.2609
G01 X46.5961 Y19.4927
G01 X46.6865 Y19.7111
G01 X46.8179 Y19.9076
G01 X46.9850 Y20.0747
G01 X47.0087 Y20.0906
G01 X47.0266 Y20.1039
G01 X47.0342 Y20.1101
G01 X47.0507 Y20.1251
G01 X47.0576 Y20.1320
G01 X47.0726 Y20.1485
G01 X47.0788 Y20.1561
G01 X47.0892 Y20.1701
G01 X47.1001 Y20.1864
G01 X47.1090 Y20.2013
G01 X47.1136 Y20.2100
G01 X47.1251 Y20.2346
G01 X47.1344 Y20.2602
G01 X47.1373 Y20.2696
G01 X47.1415 Y20.2864
G01 X47.1446 Y20.3008
G01 X47.1484 Y20.3277
G01 X47.1497 Y20.3500
G01 X47.1500 Y32.0257
G01 X47.1488 Y32.0528
G01 X47.1472 Y32.0675
G01 X47.1437 Y32.0895
G01 X47.1373 Y32.1159
G01 X47.1328 Y32.1299
G01 X47.1251 Y32.1508
G01 X47.1136 Y32.1755
G01 X47.1065 Y32.1884
G01 X47.0949 Y32.2074
G01 X47.0818 Y32.2254
G01 X47.0726 Y32.2369
G01 X47.0542 Y32.2569
G01 X47.0378 Y32.2721
G01 X47.0266 Y32.2816
G01 X47.0046 Y32.2976
G01 X46.9856 Y32.3093
G01 X46.9727 Y32.3164
G01 X46.9526 Y32.3259
G01 X46.9435 Y32.3297
G01 X46.9225 Y32.3372
G01 X46.9131 Y32.3400
G01 X46.8915 Y32.3454
G01 X46.8819 Y32.3473
G01 X46.8599 Y32.3506
G01 X46.8501 Y32.3516
G01 X46.8229 Y32.3527
G01 X46.3760 Y32.3527
G01 X46.2327 Y32.3668
G01 X46.1105 Y32.4039
G01 X45.9978 Y32.4642
G01 X45.8990 Y32.5452
G01 X45.8179 Y32.6440
G01 X45.7577 Y32.7567
G01 X45.7206 Y32.8790
G01 X45.7065 Y33.0222
G01 X45.7065 Y34.4401
G01 X45.7206 Y34.5834
G01 X45.7577 Y34.7056
G01 X45.8179 Y34.8183
G01 X45.8991 Y34.9173
G01 X45.9200 Y34.9364
G01 X45.9415 Y34.9602
G01 X45.9606 Y34.9859
G01 X45.9723 Y35.0049
G01 X45.9794 Y35.0178
G01 X45.9889 Y35.0380
G01 X45.9927 Y35.0471
G01 X46.0002 Y35.0681
G01 X46.0043 Y35.0822
G01 X46.0084 Y35.0991
G01 X46.0111 Y35.1135
G01 X46.0142 Y35.1356
G01 X46.0155 Y35.1579
G01 X46.0157 Y35.1726
G01 X46.0142 Y35.1998
G01 X46.0111 Y35.2218
G01 X46.0084 Y35.2363
G01 X46.0016 Y35.2626
G01 X45.9944 Y35.2837
G01 X45.9889 Y35.2974
G01 X45.9793 Y35.3175
G01 X45.9722 Y35.3304
G01 X45.9606 Y35.3494
G01 X45.9445 Y35.3714
G01 X45.9350 Y35.3826
G01 X45.9199 Y35.3990
G01 X45.8998 Y35.4174
G01 X45.8883 Y35.4266
G01 X45.8703 Y35.4396
G01 X45.8471 Y35.4538
G01 X45.8384 Y35.4584
G01 X45.8227 Y35.4659
G01 X45.8092 Y35.4717
G01 X45.7835 Y35.4807
G01 X45.7572 Y35.4874
G01 X45.7475 Y35.4893
G01 X45.7303 Y35.4919
G01 X45.7157 Y35.4936
G01 X45.6885 Y35.4947
G01 X35.4914 Y35.4904
G01 X35.4594 Y35.4888
G01 X35.4325 Y35.4850
G01 X35.4228 Y35.4831
G01 X35.4060 Y35.4789
G01 X35.3872 Y35.4732
G01 X35.3708 Y35.4673
G01 X35.3618 Y35.4635
G01 X35.3373 Y35.4517
G01 X35.3098 Y35.4352
G01 X35.2878 Y35.4191
G01 X35.2802 Y35.4129
G01 X35.2673 Y35.4013
G01 X35.2535 Y35.3874
G01 X35.2418 Y35.3745
G01 X35.2356 Y35.3669
G01 X35.2196 Y35.3450
G01 X35.2054 Y35.3217
G01 X35.2008 Y35.3131
G01 X35.1933 Y35.2974
G01 X35.1858 Y35.2793
G01 X35.1800 Y35.2629
G01 X35.1772 Y35.2535
G01 X35.1708 Y35.2271
G01 X35.1661 Y35.1953
G01 X35.1646 Y35.1682
G01 X35.1646 Y35.1584
G01 X35.1654 Y35.1410
G01 X35.1673 Y35.1215
G01 X35.1699 Y35.1043
G01 X35.1718 Y35.0947
G01 X35.1786 Y35.0683
G01 X35.1876 Y35.0427
G01 X35.1913 Y35.0336
G01 X35.2009 Y35.0135
G01 X35.2055 Y35.0048
G01 X35.2144 Y34.9899
G01 X35.2224 Y34.9775
G01 X35.2327 Y34.9636
G01 X35.2452 Y34.9484
G01 X35.2603 Y34.9320
G01 X35.2766 Y34.9169
G01 X35.2879 Y34.9074
G01 X35.3044 Y34.8952
G01 X35.4720 Y34.7276
G01 X35.6033 Y34.5311
G01 X35.6937 Y34.3127
G01 X35.7399 Y34.0809
G01 X35.7399 Y33.9588
G01 X35.7414 Y33.9267
G01 X35.7452 Y33.8998
G01 X35.7483 Y33.8854
G01 X35.7526 Y33.8686
G01 X35.7554 Y33.8592
G01 X35.7648 Y33.8336
G01 X35.7762 Y33.8090
G01 X35.7833 Y33.7961
G01 X35.7923 Y33.7812
G01 X35.7978 Y33.7730
G01 X35.8141 Y33.7513
G01 X35.8322 Y33.7310
G01 X35.8663 Y33.6970
G01 X35.8828 Y33.6820
G01 X35.9028 Y33.6655
G01 X35.9965 Y33.5513
G01 X36.0661 Y33.4211
G01 X36.1090 Y33.2797
G01 X36.1235 Y33.1327
G01 X36.1210 Y33.1069
G01 X36.1199 Y33.0798
G01 X36.1199 Y29.8511
G01 X36.1207 Y29.8288
G01 X36.1220 Y29.8141
G01 X36.1252 Y29.7921
G01 X36.1272 Y29.7825
G01 X36.1326 Y29.7609
G01 X36.1370 Y29.7468
G01 X36.1448 Y29.7259
G01 X36.1541 Y29.7057
G01 X36.1608 Y29.6926
G01 X36.1723 Y29.6735
G01 X36.1778 Y29.6653
G01 X36.1910 Y29.6474
G01 X36.1973 Y29.6398
G01 X36.2122 Y29.6233
G01 X36.2192 Y29.6164
G01 X36.2357 Y29.6014
G01 X36.2580 Y29.5830
G01 X36.4142 Y29.3927
G01 X36.5303 Y29.1755
G01 X36.6018 Y28.9399
G01 X36.6199 Y28.7563
G01 X36.6199 Y28.3835
G01 X36.6018 Y28.1999
G01 X36.5303 Y27.9642
G01 X36.4142 Y27.7471
G01 X36.2580 Y27.5568
G01 X36.0677 Y27.4006
G01 X35.8506 Y27.2845
G01 X35.6150 Y27.2130
G01 X35.3699 Y27.1889
G01 X35.1249 Y27.2130
G01 X34.8893 Y27.2845
G01 X34.6721 Y27.4006
G01 X34.4818 Y27.5568
G01 X34.3727 Y27.6897
G01 X34.3580 Y27.7063
G01 X34.3477 Y27.7169
G01 X34.3312 Y27.7318
G01 X34.3197 Y27.7410
G01 X34.3016 Y27.7541
G01 X34.2784 Y27.7682
G01 X34.2653 Y27.7750
G01 X34.2496 Y27.7824
G01 X34.2405 Y27.7862
G01 X34.2149 Y27.7952
G01 X34.1885 Y27.8019
G01 X34.1741 Y27.8046
G01 X34.1569 Y27.8071
G01 X34.1471 Y27.8081
G01 X34.1199 Y27.8092
G01 X34.0928 Y27.8081
G01 X34.0830 Y27.8071
G01 X34.0658 Y27.8046
G01 X34.0513 Y27.8019
G01 X34.0250 Y27.7952
G01 X33.9993 Y27.7862
G01 X33.9858 Y27.7804
G01 X33.9701 Y27.7729
G01 X33.9614 Y27.7682
G01 X33.9382 Y27.7541
G01 X33.9202 Y27.7410
G01 X33.9087 Y27.7318
G01 X33.8922 Y27.7169
G01 X33.8819 Y27.7063
G01 X33.8671 Y27.6897
G01 X33.7580 Y27.5568
G01 X33.5677 Y27.4006
G01 X33.3506 Y27.2845
G01 X33.1150 Y27.2130
G01 X32.8699 Y27.1889
G01 X32.6249 Y27.2130
G01 X32.3893 Y27.2845
G01 X32.1721 Y27.4006
G01 X31.9818 Y27.5568
G01 X31.8663 Y27.6971
G01 X31.8512 Y27.7134
G01 X31.8348 Y27.7286
G01 X31.8236 Y27.7381
G01 X31.8057 Y27.7513
G01 X31.7933 Y27.7594
G01 X31.7784 Y27.7682
G01 X31.7697 Y27.7729
G01 X31.7451 Y27.7843
G01 X31.7195 Y27.7937
G01 X31.7054 Y27.7978
G01 X31.6885 Y27.8019
G01 X31.6789 Y27.8038
G01 X31.6520 Y27.8077
G01 X31.6248 Y27.8092
G01 X31.6150 Y27.8092
G01 X31.5977 Y27.8084
G01 X31.5781 Y27.8065
G01 X31.5609 Y27.8038
G01 X31.5513 Y27.8019
G01 X31.5250 Y27.7952
G01 X31.4993 Y27.7862
G01 X31.4858 Y27.7804
G01 X31.4701 Y27.7729
G01 X31.4614 Y27.7682
G01 X31.4382 Y27.7541
G01 X31.4202 Y27.7410
G01 X31.4087 Y27.7318
G01 X31.3922 Y27.7169
G01 X31.3819 Y27.7063
G01 X31.3671 Y27.6897
G01 X31.2580 Y27.5568
G01 X31.0677 Y27.4006
G01 X30.8506 Y27.2845
G01 X30.6150 Y27.2130
G01 X30.3699 Y27.1889
G01 X30.1249 Y27.2130
G01 X29.8893 Y27.2845
G01 X29.6721 Y27.4006
G01 X29.4818 Y27.5568
G01 X29.3663 Y27.6971
G01 X29.3512 Y27.7134
G01 X29.3348 Y27.7286
G01 X29.3236 Y27.7381
G01 X29.3057 Y27.7513
G01 X29.2933 Y27.7594
G01 X29.2784 Y27.7682
G01 X29.2697 Y27.7729
G01 X29.2451 Y27.7843
G01 X29.2195 Y27.7937
G01 X29.2054 Y27.7978
G01 X29.1885 Y27.8019
G01 X29.1789 Y27.8038
G01 X29.1520 Y27.8077
G01 X29.1248 Y27.8092
G01 X29.1150 Y27.8092
G01 X29.0977 Y27.8084
G01 X29.0781 Y27.8065
G01 X29.0609 Y27.8038
G01 X29.0513 Y27.8019
G01 X29.0250 Y27.7952
G01 X28.9948 Y27.7843
G01 X28.9701 Y27.7729
G01 X28.9614 Y27.7682
G01 X28.9465 Y27.7594
G01 X28.9302 Y27.7485
G01 X28.9124 Y27.7350
G01 X28.8958 Y27.7202
G01 X28.8852 Y27.7099
G01 X28.8735 Y27.6971
G01 X28.7580 Y27.5568
G01 X28.5677 Y27.4006
G01 X28.3506 Y27.2845
G01 X28.1150 Y27.2130
G01 X27.8699 Y27.1889
G01 X27.6249 Y27.2130
G01 X27.3893 Y27.2845
G01 X27.1721 Y27.4006
G01 X26.9863 Y27.5530
G01 X26.9644 Y27.5690
G01 X26.9412 Y27.5832
G01 X26.9281 Y27.5899
G01 X26.9078 Y27.5992
G01 X26.8869 Y27.6070
G01 X26.8729 Y27.6114
G01 X26.8513 Y27.6168
G01 X26.8368 Y27.6195
G01 X26.8147 Y27.6226
G01 X26.7876 Y27.6241
G01 X26.7729 Y27.6239
G01 X26.7555 Y27.6230
G01 X26.7457 Y27.6220
G01 X26.7189 Y27.6179
G01 X26.6925 Y27.6114
G01 X26.6831 Y27.6086
G01 X26.6667 Y27.6028
G01 X26.6530 Y27.5973
G01 X26.6285 Y27.5855
G01 X26.6093 Y27.5743
G01 X26.5969 Y27.5662
G01 X26.5752 Y27.5499
G01 X26.5585 Y27.5351
G01 X26.5480 Y27.5248
G01 X26.5299 Y27.5046
G01 X26.4309 Y27.3839
G01 X26.3321 Y27.3029
G01 X26.2194 Y27.2426
G01 X26.0971 Y27.2055
G01 X25.9539 Y27.1914
G01 X24.7860 Y27.1914
G01 X24.6427 Y27.2055
G01 X24.5205 Y27.2426
G01 X24.4078 Y27.3029
G01 X24.3090 Y27.3839
G01 X24.2279 Y27.4827
G01 X24.1677 Y27.5954
G01 X24.1306 Y27.7177
G01 X24.1165 Y27.8609
G01 X24.1165 Y29.2788
G01 X24.1306 Y29.4221
G01 X24.1677 Y29.5443
G01 X24.2279 Y29.6570
G01 X24.3090 Y29.7558
G01 X24.4078 Y29.8369
G01 X24.5205 Y29.8971
G01 X24.5425 Y29.9039
G01 X24.5635 Y29.9114
G01 X24.5771 Y29.9172
G01 X24.5971 Y29.9269
G01 X24.6205 Y29.9408
G01 X24.6327 Y29.9491
G01 X24.6504 Y29.9626
G01 X24.6707 Y29.9807
G01 X24.6776 Y29.9876
G01 X24.6926 Y30.0041
G01 X24.6988 Y30.0117
G01 X24.7092 Y30.0257
G01 X24.7201 Y30.0420
G01 X24.7290 Y30.0569
G01 X24.7336 Y30.0656
G01 X24.7451 Y30.0902
G01 X24.7559 Y30.1204
G01 X24.7637 Y30.1516
G01 X24.7679 Y30.1785
G01 X24.7691 Y30.1931
G01 X24.7700 Y30.2154
G01 X24.7700 Y33.1552
G01 X24.7691 Y33.1775
G01 X24.7672 Y33.1970
G01 X24.7646 Y33.2142
G01 X24.7627 Y33.2239
G01 X24.7559 Y33.2502
G01 X24.7451 Y33.2804
G01 X24.7336 Y33.3051
G01 X24.7290 Y33.3137
G01 X24.7201 Y33.3287
G01 X24.6765 Y33.3943
G01 X24.5861 Y33.6127
G01 X24.5400 Y33.8445
G01 X24.5400 Y34.0809
G01 X24.5861 Y34.3127
G01 X24.6765 Y34.5311
G01 X24.8079 Y34.7276
G01 X24.9772 Y34.8969
G01 X24.9927 Y34.9091
G01 X25.0128 Y34.9275
G01 X25.0279 Y34.9439
G01 X25.0374 Y34.9551
G01 X25.0507 Y34.9730
G01 X25.0561 Y34.9812
G01 X25.0676 Y35.0003
G01 X25.0722 Y35.0090
G01 X25.0817 Y35.0291
G01 X25.0855 Y35.0382
G01 X25.0930 Y35.0592
G01 X25.0971 Y35.0733
G01 X25.1013 Y35.0902
G01 X25.1032 Y35.0998
G01 X25.1064 Y35.1219
G01 X25.1074 Y35.1317
G01 X25.1086 Y35.1588
G01 X25.1070 Y35.1909
G01 X25.1023 Y35.2227
G01 X25.0945 Y35.2538
G01 X25.0836 Y35.2840
G01 X25.0722 Y35.3087
G01 X25.0675 Y35.3173
G01 X25.0561 Y35.3364
G01 X25.0506 Y35.3446
G01 X25.0403 Y35.3586
G01 X25.0278 Y35.3738
G01 X25.0161 Y35.3866
G01 X25.0056 Y35.3969
G01 X24.9927 Y35.4085
G01 X24.9851 Y35.4147
G01 X24.9672 Y35.4280
G01 X24.9590 Y35.4335
G01 X24.9399 Y35.4449
G01 X24.9312 Y35.4495
G01 X24.9111 Y35.4591
G01 X24.9020 Y35.4628
G01 X24.8763 Y35.4718
G01 X24.8452 Y35.4796
G01 X24.8134 Y35.4843
G01 X24.7814 Y35.4859
G01 X14.3675 Y35.4814
G01 X14.3404 Y35.4803
G01 X14.3258 Y35.4787
G01 X14.3037 Y35.4751
G01 X14.2773 Y35.4687
G01 X14.2633 Y35.4642
G01 X14.2470 Y35.4583
G01 X14.2379 Y35.4546
G01 X14.2134 Y35.4428
G01 X14.1942 Y35.4315
G01 X14.1779 Y35.4206
G01 X14.1639 Y35.4102
G01 X14.1564 Y35.4040
G01 X14.1363 Y35.3856
G01 X14.1180 Y35.3656
G01 X14.1117 Y35.3580
G01 X14.1013 Y35.3440
G01 X14.0904 Y35.3277
G01 X14.0816 Y35.3128
G01 X14.0769 Y35.3041
G01 X14.0655 Y35.2795
G01 X14.0562 Y35.2539
G01 X14.0533 Y35.2445
G01 X14.0490 Y35.2277
G01 X14.0452 Y35.2085
G01 X14.0427 Y35.1913
G01 X14.0418 Y35.1815
G01 X14.0406 Y35.1543
G01 X14.0418 Y35.1272
G01 X14.0427 Y35.1174
G01 X14.0452 Y35.1002
G01 X14.0491 Y35.0810
G01 X14.0547 Y35.0594
G01 X14.0620 Y35.0383
G01 X14.0675 Y35.0247
G01 X14.0770 Y35.0045
G01 X14.0841 Y34.9916
G01 X14.0957 Y34.9727
G01 X14.1088 Y34.9546
G01 X14.1180 Y34.9431
G01 X14.1364 Y34.9231
G01 X14.1564 Y34.9047
G01 X14.3580 Y34.7392
G01 X14.5142 Y34.5489
G01 X14.6303 Y34.3317
G01 X14.7018 Y34.0961
G01 X14.7199 Y33.9125
G01 X14.7199 Y33.5397
G01 X14.7018 Y33.3561
G01 X14.6303 Y33.1204
G01 X14.5142 Y32.9033
G01 X14.3580 Y32.7130
G01 X14.1894 Y32.5746
G01 X14.1692 Y32.5565
G01 X14.1622 Y32.5495
G01 X14.1473 Y32.5330
G01 X14.1410 Y32.5254
G01 X14.1306 Y32.5115
G01 X14.1223 Y32.4994
G01 X14.1133 Y32.4845
G01 X14.1041 Y32.4672
G01 X14.0967 Y32.4514
G01 X14.0929 Y32.4424
G01 X14.0854 Y32.4214
G01 X14.0826 Y32.4120
G01 X14.0761 Y32.3856
G01 X14.0714 Y32.3538
G01 X14.0699 Y32.3218
G01 X14.0699 Y32.1963
G01 X14.0710 Y32.1691
G01 X14.0728 Y32.1508
G01 X14.0612 Y32.0332
G01 X14.0269 Y31.9201
G01 X13.9712 Y31.8159
G01 X13.8962 Y31.7245
G01 X13.8820 Y31.7128
G01 X13.8619 Y31.6944
G01 X13.2257 Y31.0581
G01 X13.2073 Y31.0380
G01 X13.2010 Y31.0305
G01 X13.1906 Y31.0165
G01 X13.1797 Y31.0002
G01 X13.1708 Y30.9853
G01 X13.1662 Y30.9766
G01 X13.1567 Y30.9565
G01 X13.1529 Y30.9474
G01 X13.1439 Y30.9217
G01 X13.1361 Y30.8906
G01 X13.1314 Y30.8589
G01 X13.1299 Y30.8317
G01 X13.1299 Y20.3598
G01 X13.1307 Y20.3375
G01 X13.1326 Y20.3180
G01 X13.1352 Y20.3008
G01 X13.1372 Y20.2912
G01 X13.1439 Y20.2648
G01 X13.1512 Y20.2438
G01 X13.1567 Y20.2301
G01 X13.1685 Y20.2056
G01 X13.1823 Y20.1822
G01 X13.1906 Y20.1701
G01 X13.2010 Y20.1561
G01 X13.2073 Y20.1485
G01 X13.2222 Y20.1320
G01 X13.2292 Y20.1251
G01 X13.2457 Y20.1101
G01 X13.2533 Y20.1039
G01 X13.2712 Y20.0906
G01 X13.2948 Y20.0747
G01 X13.4620 Y19.9076
G01 X13.5933 Y19.7111
G01 X13.6837 Y19.4927
G01 X13.7299 Y19.2609
G01 X13.7299 Y19.0245
G01 X13.6837 Y18.7927
G01 X13.5933 Y18.5743
G01 X13.4620 Y18.3778
G01 X13.3582 Y18.2739
G01 X13.3430 Y18.2576
G01 X13.3335 Y18.2463
G01 X13.3203 Y18.2284
G01 X13.3148 Y18.2203
G01 X13.3033 Y18.2012
G01 X13.2966 Y18.1881
G01 X13.2873 Y18.1678
G01 X13.2779 Y18.1423
G01 X13.2738 Y18.1282
G01 X13.2686 Y18.1065
G01 X13.2645 Y18.0796
G01 X13.2632 Y18.0649
G01 X13.2624 Y18.0427
G01 X13.2635 Y18.0155
G01 X13.2645 Y18.0057
G01 X13.2670 Y17.9885
G01 X13.2697 Y17.9741
G01 X13.2764 Y17.9477
G01 X13.2854 Y17.9221
G01 X13.2912 Y17.9085
G01 X13.3010 Y17.8885
G01 X13.3148 Y17.8651
G01 X13.3203 Y17.8569
G01 X13.3335 Y17.8390
G01 X13.3398 Y17.8314
G01 X13.3547 Y17.8149
G01 X13.4620 Y17.7076
G01 X13.5933 Y17.5111
G01 X13.6837 Y17.2927
G01 X13.7299 Y17.0609
G01 X13.7299 Y16.8245
G01 X13.6837 Y16.5927
G01 X13.5933 Y16.3743
G01 X13.4620 Y16.1778
G01 X13.3582 Y16.0739
G01 X13.3430 Y16.0576
G01 X13.3335 Y16.0463
G01 X13.3203 Y16.0284
G01 X13.3148 Y16.0203
G01 X13.3033 Y16.0012
G01 X13.2966 Y15.9881
G01 X13.2873 Y15.9678
G01 X13.2779 Y15.9423
G01 X13.2738 Y15.9282
G01 X13.2686 Y15.9065
G01 X13.2645 Y15.8796
G01 X13.2632 Y15.8649
G01 X13.2624 Y15.8427
G01 X13.2635 Y15.8155
G01 X13.2645 Y15.8057
G01 X13.2670 Y15.7885
G01 X13.2697 Y15.7741
G01 X13.2764 Y15.7477
G01 X13.2854 Y15.7221
G01 X13.2912 Y15.7085
G01 X13.3010 Y15.6885
G01 X13.3148 Y15.6651
G01 X13.3203 Y15.6569
G01 X13.3335 Y15.6390
G01 X13.3398 Y15.6314
G01 X13.3547 Y15.6149
G01 X13.4620 Y15.5076
G01 X13.5933 Y15.3111
G01 X13.6837 Y15.0927
G01 X13.7299 Y14.8609
G01 X13.7299 Y14.6245
G01 X13.6837 Y14.3927
G01 X13.5933 Y14.1743
G01 X13.4620 Y13.9778
G01 X13.3582 Y13.8739
G01 X13.3430 Y13.8576
G01 X13.3335 Y13.8463
G01 X13.3203 Y13.8284
G01 X13.3148 Y13.8203
G01 X13.3033 Y13.8012
G01 X13.2966 Y13.7881
G01 X13.2873 Y13.7678
G01 X13.2779 Y13.7423
G01 X13.2738 Y13.7282
G01 X13.2686 Y13.7065
G01 X13.2645 Y13.6796
G01 X13.2632 Y13.6649
G01 X13.2624 Y13.6427
G01 X13.2632 Y13.6204
G01 X13.2645 Y13.6057
G01 X13.2686 Y13.5789
G01 X13.2738 Y13.5572
G01 X13.2779 Y13.5431
G01 X13.2873 Y13.5175
G01 X13.2966 Y13.4973
G01 X13.3033 Y13.4842
G01 X13.3148 Y13.4651
G01 X13.3203 Y13.4569
G01 X13.3335 Y13.4390
G01 X13.3430 Y13.4278
G01 X13.3582 Y13.4114
G01 X13.4620 Y13.3076
G01 X13.5933 Y13.1111
G01 X13.6837 Y12.8927
G01 X13.7299 Y12.6609
G01 X13.7299 Y12.4245
G01 X13.6837 Y12.1927
G01 X13.5933 Y11.9743
G01 X13.4620 Y11.7778
G01 X13.3547 Y11.6704
G01 X13.3398 Y11.6539
G01 X13.3335 Y11.6463
G01 X13.3203 Y11.6284
G01 X13.3148 Y11.6203
G01 X13.3010 Y11.5969
G01 X13.2892 Y11.5724
G01 X13.2854 Y11.5633
G01 X13.2795 Y11.5469
G01 X13.2751 Y11.5329
G01 X13.2686 Y11.5065
G01 X13.2645 Y11.4796
G01 X13.2635 Y11.4698
G01 X13.2626 Y11.4525
G01 X13.2624 Y11.4378
G01 X13.2639 Y11.4106
G01 X13.2670 Y11.3885
G01 X13.2697 Y11.3741
G01 X13.2751 Y11.3525
G01 X13.2795 Y11.3384
G01 X13.2873 Y11.3175
G01 X13.2966 Y11.2973
G01 X13.3033 Y11.2842
G01 X13.3148 Y11.2651
G01 X13.3203 Y11.2569
G01 X13.3335 Y11.2390
G01 X13.3430 Y11.2278
G01 X13.3582 Y11.2114
G01 X13.4620 Y11.1076
G01 X13.5933 Y10.9111
G01 X13.6837 Y10.6927
G01 X13.7299 Y10.4609
G01 X13.7299 Y10.2245
G01 X13.6837 Y9.9927
G01 X13.5933 Y9.7743
G01 X13.4620 Y9.5778
G01 X13.2948 Y9.4106
G01 X13.0983 Y9.2793
G01 X12.8799 Y9.1889
G01 X12.6481 Y9.1427
G01 X12.4117 Y9.1427
G01 X12.1799 Y9.1889
G01 X11.9615 Y9.2793
G01 X11.7650 Y9.4106
G01 X11.5979 Y9.5778
G01 X11.4665 Y9.7743
G01 X11.3761 Y9.9927
G01 X11.3300 Y10.2245
G01 X11.3297 Y10.3564
G01 X11.3288 Y10.3737
G01 X11.3279 Y10.3835
G01 X11.3246 Y10.4056
G01 X11.3227 Y10.4152
G01 X11.3159 Y10.4415
G01 X11.3086 Y10.4626
G01 X11.3032 Y10.4762
G01 X11.2914 Y10.5007
G01 X11.2801 Y10.5200
G01 X11.2721 Y10.5323
G01 X11.2557 Y10.5541
G01 X11.2410 Y10.5707
G01 X2.9771 Y18.8350
G01 X2.9570 Y18.8534
G01 X2.9371 Y18.8698
G01 X2.8434 Y18.9840
G01 X2.7737 Y19.1143
G01 X2.7308 Y19.2557
G01 X2.7164 Y19.4027
G01 X2.7188 Y19.4284
G01 X2.7200 Y19.4556
G01 X2.7199 Y32.1545
G01 X2.7184 Y32.1817
G01 X2.7154 Y32.2037
G01 X2.7127 Y32.2182
G01 X2.7059 Y32.2445
G01 X2.6969 Y32.2702
G01 X2.6932 Y32.2793
G01 X2.6858 Y32.2950
G01 X2.6790 Y32.3081
G01 X2.6649 Y32.3313
G01 X2.6488 Y32.3533
G01 X2.6393 Y32.3645
G01 X2.6276 Y32.3774
G01 X2.6207 Y32.3843
G01 X2.6004 Y32.4024
G01 X2.5787 Y32.4188
G01 X2.5663 Y32.4268
G01 X2.5514 Y32.4357
G01 X2.5078 Y32.4591
G01 X2.4090 Y32.5401
G01 X2.3279 Y32.6389
G01 X2.2677 Y32.7516
G01 X2.2306 Y32.8739
G01 X2.2165 Y33.0171
G01 X2.2165 Y34.4350
G00 Z2.0000
G00 X24.3200 Y29.2998
G01 F120.00
G01 Z-0.0800
G01 F120.00
G01 X24.3199 Y27.8449
G01 X24.3221 Y27.8008
G01 X24.3286 Y27.7571
G01 X24.3393 Y27.7143
G01 X24.3542 Y27.6727
G01 X24.3731 Y27.6328
G01 X24.3958 Y27.5949
G01 X24.4221 Y27.5594
G01 X24.4517 Y27.5267
G01 X24.4807 Y27.5002
G01 X24.4883 Y27.4940
G01 X24.5119 Y27.4764
G01 X24.5282 Y27.4655
G01 X24.5578 Y27.4480
G01 X24.5977 Y27.4291
G01 X24.6393 Y27.4143
G01 X24.6726 Y27.4057
G01 X24.6918 Y27.4018
G01 X24.7209 Y27.3976
G01 X24.7307 Y27.3966
G01 X24.7699 Y27.3949
G01 X25.9748 Y27.3949
G01 X26.0140 Y27.3970
G01 X26.0480 Y27.4018
G01 X26.0625 Y27.4045
G01 X26.0911 Y27.4116
G01 X26.1052 Y27.4157
G01 X26.1376 Y27.4273
G01 X26.1511 Y27.4331
G01 X26.1777 Y27.4458
G01 X26.1906 Y27.4529
G01 X26.2199 Y27.4707
G01 X26.2477 Y27.4910
G01 X26.2592 Y27.5002
G01 X26.2846 Y27.5233
G01 X26.2949 Y27.5338
G01 X26.3146 Y27.5556
G01 X26.3208 Y27.5632
G01 X26.3384 Y27.5868
G01 X26.3493 Y27.6032
G01 X26.3668 Y27.6328
G01 X26.3857 Y27.6727
G01 X26.4005 Y27.7143
G01 X26.4091 Y27.7475
G01 X26.4130 Y27.7668
G01 X26.4172 Y27.7959
G01 X26.4185 Y27.8106
G01 X26.4199 Y27.8449
G01 X26.4199 Y29.2949
G01 X26.4178 Y29.3390
G01 X26.4122 Y29.3778
G01 X26.4091 Y29.3922
G01 X26.4019 Y29.4208
G01 X26.3991 Y29.4302
G01 X26.3875 Y29.4625
G01 X26.3817 Y29.4761
G01 X26.3690 Y29.5027
G01 X26.3619 Y29.5155
G01 X26.3441 Y29.5449
G01 X26.3238 Y29.5726
G01 X26.3146 Y29.5841
G01 X26.2915 Y29.6096
G01 X26.2810 Y29.6198
G01 X26.2592 Y29.6396
G01 X26.2477 Y29.6488
G01 X26.2199 Y29.6690
G01 X26.1863 Y29.6894
G01 X26.1733 Y29.6962
G01 X26.1421 Y29.7106
G01 X26.1005 Y29.7255
G01 X26.0577 Y29.7362
G01 X26.0189 Y29.7422
G01 X26.0042 Y29.7434
G01 X25.9699 Y29.7449
G01 X25.7700 Y29.7449
G01 X25.7700 Y32.9639
G01 X25.8281 Y32.9668
G01 X25.8428 Y32.9680
G01 X25.9253 Y32.9802
G01 X25.9398 Y32.9829
G01 X26.0302 Y33.0057
G01 X26.1134 Y33.0353
G01 X26.1271 Y33.0407
G01 X26.2113 Y33.0808
G01 X26.2955 Y33.1312
G01 X26.3743 Y33.1897
G01 X26.4399 Y33.2488
G01 X26.4505 Y33.2591
G01 X26.5129 Y33.3283
G01 X26.5714 Y33.4071
G01 X26.6218 Y33.4913
G01 X26.6638 Y33.5800
G01 X26.6969 Y33.6724
G01 X26.7207 Y33.7676
G01 X26.7351 Y33.8647
G01 X26.7397 Y33.9529
G01 X26.7397 Y33.9725
G01 X26.7351 Y34.0607
G01 X26.7224 Y34.1481
G01 X26.7186 Y34.1673
G01 X26.6995 Y34.2435
G01 X26.6938 Y34.2623
G01 X26.6638 Y34.3454
G01 X26.6218 Y34.4341
G01 X26.5714 Y34.5183
G01 X26.5190 Y34.5893
G01 X26.5065 Y34.6045
G01 X26.4538 Y34.6627
G01 X26.4399 Y34.6766
G01 X26.3743 Y34.7357
G01 X26.2955 Y34.7941
G01 X26.2113 Y34.8446
G01 X26.1316 Y34.8826
G01 X26.1134 Y34.8901
G01 X26.0302 Y34.9196
G01 X25.9350 Y34.9435
G01 X25.8379 Y34.9579
G01 X25.7399 Y34.9627
G01 X25.6419 Y34.9579
G01 X25.5448 Y34.9435
G01 X25.4496 Y34.9196
G01 X25.3572 Y34.8866
G01 X25.2685 Y34.8446
G01 X25.1843 Y34.7941
G01 X25.1055 Y34.7357
G01 X25.0328 Y34.6698
G01 X24.9669 Y34.5971
G01 X24.9085 Y34.5183
G01 X24.8580 Y34.4341
G01 X24.8160 Y34.3454
G01 X24.7830 Y34.2530
G01 X24.7591 Y34.1578
G01 X24.7459 Y34.0704
G01 X24.7440 Y34.0509
G01 X24.7399 Y33.9627
G01 X24.7440 Y33.8745
G01 X24.7459 Y33.8549
G01 X24.7591 Y33.7676
G01 X24.7804 Y33.6819
G01 X24.7861 Y33.6631
G01 X24.8160 Y33.5800
G01 X24.8536 Y33.5001
G01 X24.8628 Y33.4827
G01 X24.9085 Y33.4071
G01 X24.9609 Y33.3360
G01 X24.9698 Y33.3248
G01 X24.9698 Y29.7449
G01 X24.7650 Y29.7448
G01 X24.7258 Y29.7427
G01 X24.6870 Y29.7371
G01 X24.6726 Y29.7341
G01 X24.6393 Y29.7255
G01 X24.5977 Y29.7106
G01 X24.5578 Y29.6917
G01 X24.5199 Y29.6690
G01 X24.4883 Y29.6458
G01 X24.4770 Y29.6363
G01 X24.4517 Y29.6131
G01 X24.4285 Y29.5878
G01 X24.4190 Y29.5765
G01 X24.3958 Y29.5449
G01 X24.3731 Y29.5070
G01 X24.3542 Y29.4671
G01 X24.3408 Y29.4302
G01 X24.3367 Y29.4160
G01 X24.3286 Y29.3827
G01 X24.3233 Y29.3487
G01 X24.3217 Y29.3341
G01 X24.3200 Y29.2998
G00 Z2.0000
G00 X26.6399 Y27.8449
G01 F120.00
G01 Z-0.0800
G01 F120.00
G01 X26.6394 Y27.8249
G01 X26.6659 Y27.8315
G01 X26.6861 Y27.8355
G01 X26.7188 Y27.8404
G01 X26.7393 Y27.8424
G01 X26.7516 Y27.8431
G01 X26.7406 Y27.8646
G01 X26.7049 Y27.9400
G01 X26.7007 Y27.9494
G01 X26.6928 Y27.9684
G01 X26.6577 Y28.0664
G01 X26.6517 Y28.0861
G01 X26.6399 Y28.1328
G01 X26.6399 Y27.8449
G00 Z2.0000
G00 X29.0766 Y28.0275
G01 F120.00
G01 Z-0.0800
G01 F120.00
G01 X29.0993 Y28.0287
G01 X29.1199 Y28.0292
G01 X29.1405 Y28.0287
G01 X29.1718 Y28.0268
G01 X29.1577 Y28.0664
G01 X29.1517 Y28.0861
G01 X29.1265 Y28.1870
G01 X29.1224 Y28.2072
G01 X29.1199 Y28.2233
G01 X29.1174 Y28.2072
G01 X29.1134 Y28.1870
G01 X29.0881 Y28.0861
G01 X29.0821 Y28.0664
G01 X29.0681 Y28.0268
G01 X29.0766 Y28.0275
G00 Z2.0000
G00 X31.5766 Y28.0275
G01 F120.00
G01 Z-0.0800
G01 F120.00
G01 X31.5993 Y28.0287
G01 X31.6199 Y28.0292
G01 X31.6405 Y28.0287
G01 X31.6718 Y28.0268
G01 X31.6577 Y28.0664
G01 X31.6517 Y28.0861
G01 X31.6265 Y28.1870
G01 X31.6224 Y28.2072
G01 X31.6199 Y28.2233
G01 X31.6174 Y28.2072
G01 X31.6134 Y28.1870
G01 X31.5881 Y28.0861
G01 X31.5821 Y28.0664
G01 X31.5681 Y28.0268
G01 X31.5766 Y28.0275
G00 Z2.0000
G00 X34.0766 Y28.0275
G01 F120.00
G01 Z-0.0800
G01 F120.00
G01 X34.0993 Y28.0287
G01 X34.1199 Y28.0292
G01 X34.1405 Y28.0287
G01 X34.1718 Y28.0268
G01 X34.1577 Y28.0664
G01 X34.1517 Y28.0861
G01 X34.1265 Y28.1870
G01 X34.1224 Y28.2072
G01 X34.1199 Y28.2233
G01 X34.1174 Y28.2072
G01 X34.1134 Y28.1870
G01 X34.0881 Y28.0861
G01 X34.0821 Y28.0664
G01 X34.0681 Y28.0268
G01 X34.0766 Y28.0275
G00 Z2.0000
G00 X34.6477 Y32.9687
G01 F120.00
G01 Z-0.0800
G01 F120.00
G01 X34.7253 Y32.9802
G01 X34.7413 Y32.9833
G01 X34.8197 Y32.9048
G01 X34.8197 Y29.5881
G01 X34.7907 Y29.5706
G01 X34.7825 Y29.5651
G01 X34.7115 Y29.5126
G01 X34.7001 Y29.5034
G01 X34.6275 Y29.4373
G01 X34.5647 Y29.3684
G01 X34.5552 Y29.3572
G01 X34.4969 Y29.2782
G01 X34.4439 Y29.1898
G01 X34.3998 Y29.0967
G01 X34.3682 Y29.0090
G01 X34.3625 Y28.9902
G01 X34.3422 Y28.9093
G01 X34.3384 Y28.8901
G01 X34.3250 Y28.7978
G01 X34.3202 Y28.7047
G01 X34.3202 Y28.4351
G01 X34.3250 Y28.3420
G01 X34.3392 Y28.2449
G01 X34.3422 Y28.2305
G01 X34.3651 Y28.1401
G01 X34.3998 Y28.0431
G01 X34.4439 Y27.9499
G01 X34.4969 Y27.8615
G01 X34.5583 Y27.7788
G01 X34.6275 Y27.7024
G01 X34.7038 Y27.6332
G01 X34.7866 Y27.5718
G01 X34.8750 Y27.5189
G01 X34.9681 Y27.4748
G01 X35.0651 Y27.4401
G01 X35.1651 Y27.4151
G01 X35.2670 Y27.3999
G01 X35.3699 Y27.3949
G01 X35.4728 Y27.3999
G01 X35.5699 Y27.4142
G01 X35.5843 Y27.4172
G01 X35.6747 Y27.4401
G01 X35.7626 Y27.4713
G01 X35.7807 Y27.4788
G01 X35.8561 Y27.5144
G01 X35.8734 Y27.5237
G01 X35.9533 Y27.5718
G01 X36.0360 Y27.6332
G01 X36.1124 Y27.7024
G01 X36.1752 Y27.7713
G01 X36.1876 Y27.7865
G01 X36.2373 Y27.8535
G01 X36.2482 Y27.8698
G01 X36.2959 Y27.9499
G01 X36.3400 Y28.0431
G01 X36.3747 Y28.1401
G01 X36.3976 Y28.2305
G01 X36.4014 Y28.2497
G01 X36.4137 Y28.3322
G01 X36.4156 Y28.3518
G01 X36.4199 Y28.4400
G01 X36.4199 Y28.6949
G01 X36.4149 Y28.7978
G01 X36.4014 Y28.8901
G01 X36.3976 Y28.9093
G01 X36.3747 Y28.9997
G01 X36.3400 Y29.0967
G01 X36.2959 Y29.1898
G01 X36.2482 Y29.2699
G01 X36.2373 Y29.2863
G01 X36.1876 Y29.3533
G01 X36.1784 Y29.3647
G01 X36.1124 Y29.4373
G01 X36.0398 Y29.5034
G01 X36.0283 Y29.5126
G01 X35.9573 Y29.5651
G01 X35.9492 Y29.5706
G01 X35.9201 Y29.5881
G01 X35.9201 Y33.1327
G01 X35.9174 Y33.1866
G01 X35.9112 Y33.2303
G01 X35.9074 Y33.2496
G01 X35.8964 Y33.2924
G01 X35.8782 Y33.3432
G01 X35.8551 Y33.3920
G01 X35.8326 Y33.4300
G01 X35.8217 Y33.4464
G01 X35.7952 Y33.4817
G01 X35.7624 Y33.5182
G01 X35.5193 Y33.7613
G01 X35.5224 Y33.7773
G01 X35.5351 Y33.8647
G01 X35.5399 Y33.9627
