(G-CODE GENERATED BY FLATCAM v8.994 - www.flatcam.org - Version Date: 2020/11/7)

(Name: fixed_head_pcb-Edge_Cuts.gbr_1_conv_cnc)
(Type: G-code from Geometry)
(Units: MM)

(Created on dimanche, 13 mars 2022 at 10:53)

(This preprocessor is the default preprocessor used by FlatCAM.)
(It is made to work with MACH3 compatible motion controllers.)

(TOOL DIAMETER: 2.0 mm)
(Feedrate_XY: 120.0 mm/min)
(Feedrate_Z: 60.0 mm/min)
(Feedrate rapids 1500.0 mm/min)

(Z_Cut: -1.8 mm)
(DepthPerCut: 0.6 mm <=>3 passes)
(Z_Move: 2.0 mm)
(Z Start: None mm)
(Z End: 15.0 mm)
(X,Y End: None mm)
(Steps per circle: 64)
(Preprocessor Geometry: default)

(X range:   -0.3400 ...   60.6548  mm)
(Y range:   -0.6803 ...   36.3470  mm)

(Spindle Speed: 1000.0 RPM)
G21
G90
G94

G01 F120.00

M5
G00 Z15.0000
G00 X0.0000 Y0.0000
T1
M6    
(MSG, Change to Tool Dia = 2.0000)
M0
G00 Z15.0000

M03 S1000.0
G01 F120.00
G00 X-0.3302 Y1.2500
G01 F60.00
G01 Z-0.6000
G01 F120.00
G01 X-0.1454 Y34.7500
G00 X-0.1454 Y34.7500
G01 F60.00
G01 Z-1.2000
G01 F120.00
G01 X-0.3302 Y1.2500
G00 X-0.3302 Y1.2500
G01 F60.00
G01 Z-1.8000
G01 F120.00
G01 X-0.1454 Y34.7500
G00 Z2.0000
G00 X1.2500 Y-0.5463
G01 F60.00
G01 Z-0.6000
G01 F120.00
G01 X17.3583 Y-0.5787
G01 X17.3632 Y-0.5783
G01 X17.3680 Y-0.5768
G01 X17.3742 Y-0.5731
G01 X17.3777 Y-0.5696
G01 X17.3804 Y-0.5656
G01 X17.3823 Y-0.5610
G01 X17.3832 Y-0.5562
G01 X17.3834 Y-0.5536
G01 X17.3326 Y17.4044
G01 X42.8501 Y17.3791
G01 X42.7892 Y-0.5689
G01 X42.7897 Y-0.5737
G01 X42.7911 Y-0.5784
G01 X42.7949 Y-0.5848
G01 X42.7983 Y-0.5882
G01 X42.8046 Y-0.5920
G01 X42.8092 Y-0.5935
G01 X42.8141 Y-0.5940
G01 X58.7500 Y-0.6716
G00 X58.7500 Y-0.6716
G01 F60.00
G01 Z-1.2000
G01 F120.00
G01 X42.8141 Y-0.5940
G01 X42.8092 Y-0.5935
G01 X42.8046 Y-0.5920
G01 X42.7983 Y-0.5882
G01 X42.7949 Y-0.5848
G01 X42.7911 Y-0.5784
G01 X42.7897 Y-0.5737
G01 X42.7892 Y-0.5689
G01 X42.8501 Y17.3791
G01 X17.3326 Y17.4044
G01 X17.3834 Y-0.5536
G01 X17.3832 Y-0.5562
G01 X17.3823 Y-0.5610
G01 X17.3804 Y-0.5656
G01 X17.3777 Y-0.5696
G01 X17.3742 Y-0.5731
G01 X17.3680 Y-0.5768
G01 X17.3632 Y-0.5783
G01 X17.3583 Y-0.5787
G01 X1.2500 Y-0.5463
G00 X1.2500 Y-0.5463
G01 F60.00
G01 Z-1.8000
G01 F120.00
G01 X17.3583 Y-0.5787
G01 X17.3632 Y-0.5783
G01 X17.3680 Y-0.5768
G01 X17.3742 Y-0.5731
G01 X17.3777 Y-0.5696
G01 X17.3804 Y-0.5656
G01 X17.3823 Y-0.5610
G01 X17.3832 Y-0.5562
G01 X17.3834 Y-0.5536
G01 X17.3326 Y17.4044
G01 X42.8501 Y17.3791
G01 X42.7892 Y-0.5689
G01 X42.7897 Y-0.5737
G01 X42.7911 Y-0.5784
G01 X42.7949 Y-0.5848
G01 X42.7983 Y-0.5882
G01 X42.8046 Y-0.5920
G01 X42.8092 Y-0.5935
G01 X42.8141 Y-0.5940
G01 X58.7500 Y-0.6716
G00 Z2.0000
G00 X60.5706 Y0.2500
G01 F60.00
G01 Z-0.6000
G01 F120.00
G01 X60.6512 Y34.7500
G00 X60.6512 Y34.7500
G01 F60.00
G01 Z-1.2000
G01 F120.00
G01 X60.5706 Y0.2500
G00 X60.5706 Y0.2500
G01 F60.00
G01 Z-1.8000
G01 F120.00
G01 X60.6512 Y34.7500
G00 Z2.0000
G00 X59.7500 Y36.3220
G01 F60.00
G01 Z-0.6000
G01 F120.00
G01 X1.2500 Y36.3464
G00 X1.2500 Y36.3464
G01 F60.00
G01 Z-1.2000
G01 F120.00
G01 X59.7500 Y36.3220
G00 X59.7500 Y36.3220
G01 F60.00
G01 Z-1.8000
G01 F120.00
G01 X1.2500 Y36.3464
G00 Z2.0000
M05
G00 Z2.0000
G00 Z15.00


