(G-CODE GENERATED BY FLATCAM v8.994 - www.flatcam.org - Version Date: 2020/11/7)

(Name: interface_up_left_side_arm-B_Cu.gbr_iso_combined_cnc)
(Type: G-code from Geometry)
(Units: MM)

(Created on mardi, 07 juin 2022 at 21:42)

(This preprocessor is the default preprocessor used by FlatCAM.)
(It is made to work with MACH3 compatible motion controllers.)

(TOOL DIAMETER: 0.4 mm)
(Feedrate_XY: 120.0 mm/min)
(Feedrate_Z: 60.0 mm/min)
(Feedrate rapids 1500.0 mm/min)

(Z_Cut: -0.02 mm)
(Z_Move: 2.0 mm)
(Z Start: None mm)
(Z End: 15.0 mm)
(X,Y End: None mm)
(Steps per circle: 64)
(Preprocessor Geometry: default)

(X range:    0.3190 ...   30.0510  mm)
(Y range:    0.3712 ...   89.5912  mm)

(Spindle Speed: 1000.0 RPM)
G21
G90
G94

G01 F120.00

M5
G00 Z15.0000
G00 X0.0000 Y0.0000
T1
M6    
(MSG, Change to Tool Dia = 0.4000)
M0
G00 Z15.0000

M03 S1000.0
G01 F120.00
G00 X14.0358 Y2.5617
G01 F60.00
G01 Z-0.0200
G01 F120.00
G01 X14.0266 Y2.5790
G01 X13.9684 Y2.6757
G01 X13.8953 Y2.7742
G01 X13.8129 Y2.8651
G01 X13.7220 Y2.9475
G01 X13.6235 Y3.0205
G01 X13.5183 Y3.0836
G01 X13.4074 Y3.1360
G01 X13.2919 Y3.1774
G01 X13.1729 Y3.2072
G01 X13.0515 Y3.2252
G01 X12.9290 Y3.2312
G01 X12.8065 Y3.2252
G01 X12.6852 Y3.2072
G01 X12.5662 Y3.1774
G01 X12.4507 Y3.1360
G01 X12.3398 Y3.0836
G01 X12.2346 Y3.0205
G01 X12.1360 Y2.9475
G01 X12.0451 Y2.8651
G01 X11.9628 Y2.7742
G01 X11.8897 Y2.6757
G01 X11.8266 Y2.5704
G01 X11.7742 Y2.4596
G01 X11.7328 Y2.3441
G01 X11.7030 Y2.2251
G01 X11.6850 Y2.1037
G01 X11.6790 Y1.9812
G01 X11.6850 Y1.8587
G01 X11.7030 Y1.7373
G01 X11.7328 Y1.6183
G01 X11.7742 Y1.5028
G01 X11.8266 Y1.3920
G01 X11.8897 Y1.2867
G01 X11.9628 Y1.1882
G01 X12.0451 Y1.0973
G01 X12.1360 Y1.0149
G01 X12.2346 Y0.9419
G01 X12.3398 Y0.8788
G01 X12.4507 Y0.8264
G01 X12.5662 Y0.7850
G01 X12.6852 Y0.7552
G01 X12.8065 Y0.7372
G01 X12.9290 Y0.7312
G01 X13.0515 Y0.7372
G01 X13.1729 Y0.7552
G01 X13.2919 Y0.7850
G01 X13.4074 Y0.8264
G01 X13.5183 Y0.8788
G01 X13.6235 Y0.9419
G01 X13.7220 Y1.0149
G01 X13.8129 Y1.0973
G01 X13.8953 Y1.1882
G01 X13.9684 Y1.2867
G01 X14.0314 Y1.3920
G01 X14.0839 Y1.5028
G01 X14.1252 Y1.6183
G01 X14.1550 Y1.7373
G01 X14.1730 Y1.8587
G01 X14.1790 Y1.9812
G01 X14.1730 Y2.1037
G01 X14.1550 Y2.2251
G01 X14.1252 Y2.3441
G01 X14.0839 Y2.4596
G01 X14.0358 Y2.5617
G00 Z2.0000
G00 X14.1443 Y2.6130
G01 F60.00
G01 Z-0.0200
G01 F120.00
G01 X14.1373 Y2.6270
G01 X14.1295 Y2.6407
G01 X14.0765 Y2.7291
G01 X14.0681 Y2.7423
G01 X14.0591 Y2.7552
G01 X13.9977 Y2.8379
G01 X13.9880 Y2.8503
G01 X13.9778 Y2.8622
G01 X13.9086 Y2.9386
G01 X13.8978 Y2.9499
G01 X13.8864 Y2.9608
G01 X13.8100 Y3.0300
G01 X13.7981 Y3.0402
G01 X13.7858 Y3.0499
G01 X13.7030 Y3.1113
G01 X13.6902 Y3.1203
G01 X13.6769 Y3.1287
G01 X13.5885 Y3.1817
G01 X13.5748 Y3.1894
G01 X13.5608 Y3.1965
G01 X13.4677 Y3.2405
G01 X13.4533 Y3.2469
G01 X13.4386 Y3.2526
G01 X13.3416 Y3.2873
G01 X13.3267 Y3.2922
G01 X13.3116 Y3.2964
G01 X13.2116 Y3.3214
G01 X13.1963 Y3.3249
G01 X13.1808 Y3.3276
G01 X13.0789 Y3.3427
G01 X13.0633 Y3.3446
G01 X13.0476 Y3.3458
G01 X12.9447 Y3.3508
G01 X12.9290 Y3.3512
G01 X12.9133 Y3.3508
G01 X12.8104 Y3.3458
G01 X12.7947 Y3.3446
G01 X12.7791 Y3.3427
G01 X12.6772 Y3.3276
G01 X12.6617 Y3.3249
G01 X12.6464 Y3.3214
G01 X12.5465 Y3.2964
G01 X12.5313 Y3.2922
G01 X12.5164 Y3.2873
G01 X12.4194 Y3.2526
G01 X12.4047 Y3.2469
G01 X12.3904 Y3.2405
G01 X12.2972 Y3.1965
G01 X12.2832 Y3.1894
G01 X12.2695 Y3.1817
G01 X12.1812 Y3.1287
G01 X12.1679 Y3.1203
G01 X12.1550 Y3.1113
G01 X12.0723 Y3.0499
G01 X12.0599 Y3.0402
G01 X12.0480 Y3.0300
G01 X11.9717 Y2.9608
G01 X11.9603 Y2.9499
G01 X11.9495 Y2.9386
G01 X11.8803 Y2.8622
G01 X11.8700 Y2.8503
G01 X11.8603 Y2.8379
G01 X11.7990 Y2.7552
G01 X11.7899 Y2.7423
G01 X11.7815 Y2.7291
G01 X11.7285 Y2.6407
G01 X11.7208 Y2.6270
G01 X11.7137 Y2.6130
G01 X11.6697 Y2.5198
G01 X11.6633 Y2.5055
G01 X11.6577 Y2.4908
G01 X11.6229 Y2.3938
G01 X11.6180 Y2.3789
G01 X11.6138 Y2.3638
G01 X11.5888 Y2.2638
G01 X11.5853 Y2.2485
G01 X11.5827 Y2.2330
G01 X11.5675 Y2.1311
G01 X11.5656 Y2.1155
G01 X11.5645 Y2.0998
G01 X11.5594 Y1.9969
G01 X11.5590 Y1.9812
G01 X11.5594 Y1.9655
G01 X11.5645 Y1.8626
G01 X11.5656 Y1.8469
G01 X11.5675 Y1.8313
G01 X11.5827 Y1.7294
G01 X11.5853 Y1.7139
G01 X11.5888 Y1.6986
G01 X11.6138 Y1.5986
G01 X11.6180 Y1.5835
G01 X11.6229 Y1.5686
G01 X11.6577 Y1.4716
G01 X11.6633 Y1.4569
G01 X11.6697 Y1.4426
G01 X11.7137 Y1.3494
G01 X11.7208 Y1.3354
G01 X11.7285 Y1.3217
G01 X11.7815 Y1.2333
G01 X11.7899 Y1.2201
G01 X11.7990 Y1.2072
G01 X11.8603 Y1.1245
G01 X11.8700 Y1.1121
G01 X11.8803 Y1.1002
G01 X11.9495 Y1.0238
G01 X11.9603 Y1.0125
G01 X11.9717 Y1.0016
G01 X12.0480 Y0.9324
G01 X12.0599 Y0.9222
G01 X12.0723 Y0.9125
G01 X12.1550 Y0.8511
G01 X12.1679 Y0.8421
G01 X12.1812 Y0.8337
G01 X12.2695 Y0.7807
G01 X12.2832 Y0.7730
G01 X12.2972 Y0.7659
G01 X12.3904 Y0.7219
G01 X12.4047 Y0.7155
G01 X12.4194 Y0.7098
G01 X12.5164 Y0.6751
G01 X12.5313 Y0.6702
G01 X12.5465 Y0.6660
G01 X12.6464 Y0.6410
G01 X12.6617 Y0.6375
G01 X12.6772 Y0.6348
G01 X12.7791 Y0.6197
G01 X12.7947 Y0.6178
G01 X12.8104 Y0.6166
G01 X12.9133 Y0.6116
G01 X12.9290 Y0.6112
G01 X12.9447 Y0.6116
G01 X13.0476 Y0.6166
G01 X13.0633 Y0.6178
G01 X13.0789 Y0.6197
G01 X13.1808 Y0.6348
G01 X13.1963 Y0.6375
G01 X13.2116 Y0.6410
G01 X13.3116 Y0.6660
G01 X13.3267 Y0.6702
G01 X13.3416 Y0.6751
G01 X13.4386 Y0.7098
G01 X13.4533 Y0.7155
G01 X13.4677 Y0.7219
G01 X13.5608 Y0.7659
G01 X13.5748 Y0.7730
G01 X13.5885 Y0.7807
G01 X13.6769 Y0.8337
G01 X13.6902 Y0.8421
G01 X13.7030 Y0.8511
G01 X13.7858 Y0.9125
G01 X13.7981 Y0.9222
G01 X13.8100 Y0.9324
G01 X13.8864 Y1.0016
G01 X13.8978 Y1.0125
G01 X13.9086 Y1.0238
G01 X13.9778 Y1.1002
G01 X13.9880 Y1.1121
G01 X13.9977 Y1.1245
G01 X14.0591 Y1.2072
G01 X14.0681 Y1.2201
G01 X14.0765 Y1.2333
G01 X14.1295 Y1.3217
G01 X14.1373 Y1.3354
G01 X14.1443 Y1.3494
G01 X14.1884 Y1.4426
G01 X14.1947 Y1.4569
G01 X14.2004 Y1.4716
G01 X14.2351 Y1.5686
G01 X14.2400 Y1.5835
G01 X14.2442 Y1.5986
G01 X14.2693 Y1.6986
G01 X14.2727 Y1.7139
G01 X14.2754 Y1.7294
G01 X14.2905 Y1.8313
G01 X14.2924 Y1.8469
G01 X14.2936 Y1.8626
G01 X14.2986 Y1.9655
G01 X14.2990 Y1.9812
G01 X14.2986 Y1.9969
G01 X14.2936 Y2.0998
G01 X14.2924 Y2.1155
G01 X14.2905 Y2.1311
G01 X14.2754 Y2.2330
G01 X14.2727 Y2.2485
G01 X14.2693 Y2.2638
G01 X14.2442 Y2.3638
G01 X14.2400 Y2.3789
G01 X14.2351 Y2.3938
G01 X14.2004 Y2.4908
G01 X14.1947 Y2.5055
G01 X14.1884 Y2.5198
G01 X14.1443 Y2.6130
G00 Z2.0000
G00 X14.2528 Y2.6643
G01 F60.00
G01 Z-0.0200
G01 F120.00
G01 X14.2431 Y2.6836
G01 X14.2324 Y2.7024
G01 X14.1795 Y2.7908
G01 X14.1679 Y2.8090
G01 X14.1555 Y2.8267
G01 X14.0941 Y2.9094
G01 X14.0808 Y2.9264
G01 X14.0667 Y2.9428
G01 X13.9975 Y3.0191
G01 X13.9826 Y3.0348
G01 X13.9670 Y3.0497
G01 X13.8906 Y3.1189
G01 X13.8743 Y3.1330
G01 X13.8572 Y3.1463
G01 X13.7745 Y3.2077
G01 X13.7568 Y3.2201
G01 X13.7386 Y3.2316
G01 X13.6502 Y3.2846
G01 X13.6314 Y3.2953
G01 X13.6121 Y3.3050
G01 X13.5190 Y3.3490
G01 X13.4992 Y3.3578
G01 X13.4791 Y3.3656
G01 X13.3821 Y3.4003
G01 X13.3615 Y3.4070
G01 X13.3407 Y3.4128
G01 X13.2408 Y3.4378
G01 X13.2197 Y3.4426
G01 X13.1984 Y3.4463
G01 X13.0965 Y3.4614
G01 X13.0751 Y3.4640
G01 X13.0535 Y3.4656
G01 X12.9506 Y3.4707
G01 X12.9290 Y3.4712
G01 X12.9074 Y3.4707
G01 X12.8045 Y3.4656
G01 X12.7830 Y3.4640
G01 X12.7615 Y3.4614
G01 X12.6596 Y3.4463
G01 X12.6383 Y3.4426
G01 X12.6173 Y3.4378
G01 X12.5173 Y3.4128
G01 X12.4965 Y3.4070
G01 X12.4760 Y3.4003
G01 X12.3790 Y3.3656
G01 X12.3588 Y3.3578
G01 X12.3391 Y3.3490
G01 X12.2459 Y3.3050
G01 X12.2266 Y3.2953
G01 X12.2078 Y3.2846
G01 X12.1195 Y3.2316
G01 X12.1012 Y3.2201
G01 X12.0836 Y3.2077
G01 X12.0008 Y3.1463
G01 X11.9838 Y3.1330
G01 X11.9674 Y3.1189
G01 X11.8911 Y3.0497
G01 X11.8754 Y3.0348
G01 X11.8605 Y3.0191
G01 X11.7913 Y2.9428
G01 X11.7772 Y2.9264
G01 X11.7639 Y2.9094
G01 X11.7026 Y2.8267
G01 X11.6901 Y2.8090
G01 X11.6786 Y2.7908
G01 X11.6256 Y2.7024
G01 X11.6150 Y2.6836
G01 X11.6052 Y2.6643
G01 X11.5612 Y2.5711
G01 X11.5524 Y2.5514
G01 X11.5447 Y2.5312
G01 X11.5100 Y2.4342
G01 X11.5032 Y2.4137
G01 X11.4974 Y2.3929
G01 X11.4724 Y2.2930
G01 X11.4677 Y2.2719
G01 X11.4640 Y2.2506
G01 X11.4488 Y2.1487
G01 X11.4462 Y2.1272
G01 X11.4446 Y2.1057
G01 X11.4396 Y2.0028
G01 X11.4390 Y1.9812
G01 X11.4396 Y1.9596
G01 X11.4446 Y1.8567
G01 X11.4462 Y1.8352
G01 X11.4488 Y1.8137
G01 X11.4640 Y1.7118
G01 X11.4677 Y1.6905
G01 X11.4724 Y1.6694
G01 X11.4974 Y1.5695
G01 X11.5032 Y1.5487
G01 X11.5100 Y1.5282
G01 X11.5447 Y1.4312
G01 X11.5524 Y1.4110
G01 X11.5612 Y1.3913
G01 X11.6052 Y1.2981
G01 X11.6150 Y1.2788
G01 X11.6256 Y1.2600
G01 X11.6786 Y1.1716
G01 X11.6901 Y1.1534
G01 X11.7026 Y1.1357
G01 X11.7639 Y1.0530
G01 X11.7772 Y1.0360
G01 X11.7913 Y1.0196
G01 X11.8605 Y0.9433
G01 X11.8754 Y0.9276
G01 X11.8911 Y0.9127
G01 X11.9674 Y0.8435
G01 X11.9838 Y0.8294
G01 X12.0008 Y0.8161
G01 X12.0836 Y0.7547
G01 X12.1012 Y0.7423
G01 X12.1195 Y0.7308
G01 X12.2078 Y0.6778
G01 X12.2266 Y0.6671
G01 X12.2459 Y0.6574
G01 X12.3391 Y0.6134
G01 X12.3588 Y0.6046
G01 X12.3790 Y0.5968
G01 X12.4760 Y0.5621
G01 X12.4965 Y0.5554
G01 X12.5173 Y0.5496
G01 X12.6173 Y0.5246
G01 X12.6383 Y0.5198
G01 X12.6596 Y0.5161
G01 X12.7615 Y0.5010
G01 X12.7830 Y0.4984
G01 X12.8045 Y0.4968
G01 X12.9074 Y0.4917
G01 X12.9290 Y0.4912
G01 X12.9506 Y0.4917
G01 X13.0535 Y0.4968
G01 X13.0751 Y0.4984
G01 X13.0965 Y0.5010
G01 X13.1984 Y0.5161
G01 X13.2197 Y0.5198
G01 X13.2408 Y0.5246
G01 X13.3407 Y0.5496
G01 X13.3615 Y0.5554
G01 X13.3821 Y0.5621
G01 X13.4791 Y0.5968
G01 X13.4992 Y0.6046
G01 X13.5190 Y0.6134
G01 X13.6121 Y0.6574
G01 X13.6314 Y0.6671
G01 X13.6502 Y0.6778
G01 X13.7386 Y0.7308
G01 X13.7568 Y0.7423
G01 X13.7745 Y0.7547
G01 X13.8572 Y0.8161
G01 X13.8743 Y0.8294
G01 X13.8906 Y0.8435
G01 X13.9670 Y0.9127
G01 X13.9826 Y0.9276
G01 X13.9975 Y0.9433
G01 X14.0667 Y1.0196
G01 X14.0808 Y1.0360
G01 X14.0941 Y1.0530
G01 X14.1555 Y1.1357
G01 X14.1679 Y1.1534
G01 X14.1795 Y1.1716
G01 X14.2324 Y1.2600
G01 X14.2431 Y1.2788
G01 X14.2528 Y1.2981
G01 X14.2968 Y1.3913
G01 X14.3056 Y1.4110
G01 X14.3134 Y1.4312
G01 X14.3481 Y1.5282
G01 X14.3549 Y1.5487
G01 X14.3606 Y1.5695
G01 X14.3857 Y1.6694
G01 X14.3904 Y1.6905
G01 X14.3941 Y1.7118
G01 X14.4092 Y1.8137
G01 X14.4118 Y1.8352
G01 X14.4134 Y1.8567
G01 X14.4185 Y1.9596
G01 X14.4190 Y1.9812
G01 X14.4185 Y2.0028
G01 X14.4134 Y2.1057
G01 X14.4118 Y2.1272
G01 X14.4092 Y2.1487
G01 X14.3941 Y2.2506
G01 X14.3904 Y2.2719
G01 X14.3857 Y2.2930
G01 X14.3606 Y2.3929
G01 X14.3549 Y2.4137
G01 X14.3481 Y2.4342
G01 X14.3134 Y2.5312
G01 X14.3056 Y2.5514
G01 X14.2968 Y2.5711
G01 X14.2528 Y2.6643
G00 Z2.0000
G00 X14.3613 Y2.7156
G01 F60.00
G01 Z-0.0200
G01 F120.00
G01 X14.3489 Y2.7401
G01 X14.3354 Y2.7641
G01 X14.2824 Y2.8524
G01 X14.2677 Y2.8757
G01 X14.2519 Y2.8981
G01 X14.1905 Y2.9809
G01 X14.1736 Y3.0026
G01 X14.1556 Y3.0234
G01 X14.0864 Y3.0997
G01 X14.0675 Y3.1196
G01 X14.0476 Y3.1386
G01 X13.9712 Y3.2078
G01 X13.9504 Y3.2257
G01 X13.9287 Y3.2427
G01 X13.8460 Y3.3040
G01 X13.8235 Y3.3199
G01 X13.8003 Y3.3346
G01 X13.7119 Y3.3875
G01 X13.6880 Y3.4011
G01 X13.6634 Y3.4135
G01 X13.5703 Y3.4575
G01 X13.5451 Y3.4686
G01 X13.5195 Y3.4785
G01 X13.4225 Y3.5133
G01 X13.3964 Y3.5219
G01 X13.3699 Y3.5292
G01 X13.2699 Y3.5542
G01 X13.2431 Y3.5603
G01 X13.2160 Y3.5650
G01 X13.1141 Y3.5801
G01 X13.0868 Y3.5834
G01 X13.0594 Y3.5855
G01 X12.9565 Y3.5905
G01 X12.9290 Y3.5912
G01 X12.9015 Y3.5905
G01 X12.7986 Y3.5855
G01 X12.7712 Y3.5834
G01 X12.7439 Y3.5801
G01 X12.6420 Y3.5650
G01 X12.6149 Y3.5603
G01 X12.5881 Y3.5542
G01 X12.4882 Y3.5292
G01 X12.4617 Y3.5219
G01 X12.4356 Y3.5133
G01 X12.3385 Y3.4785
G01 X12.3129 Y3.4686
G01 X12.2878 Y3.4575
G01 X12.1946 Y3.4135
G01 X12.1701 Y3.4011
G01 X12.1462 Y3.3875
G01 X12.0578 Y3.3346
G01 X12.0346 Y3.3199
G01 X12.0121 Y3.3040
G01 X11.9293 Y3.2427
G01 X11.9076 Y3.2257
G01 X11.8868 Y3.2078
G01 X11.8105 Y3.1386
G01 X11.7906 Y3.1196
G01 X11.7716 Y3.0997
G01 X11.7024 Y3.0234
G01 X11.6845 Y3.0026
G01 X11.6676 Y2.9809
G01 X11.6062 Y2.8981
G01 X11.5904 Y2.8757
G01 X11.5756 Y2.8524
G01 X11.5227 Y2.7641
G01 X11.5091 Y2.7401
G01 X11.4968 Y2.7156
G01 X11.4527 Y2.6224
G01 X11.4416 Y2.5973
G01 X11.4317 Y2.5717
G01 X11.3970 Y2.4747
G01 X11.3883 Y2.4486
G01 X11.3810 Y2.4221
G01 X11.3560 Y2.3221
G01 X11.3500 Y2.2953
G01 X11.3453 Y2.2682
G01 X11.3301 Y2.1663
G01 X11.3268 Y2.1390
G01 X11.3248 Y2.1116
G01 X11.3197 Y2.0087
G01 X11.3190 Y1.9812
G01 X11.3197 Y1.9537
G01 X11.3248 Y1.8508
G01 X11.3268 Y1.8234
G01 X11.3301 Y1.7961
G01 X11.3453 Y1.6942
G01 X11.3500 Y1.6671
G01 X11.3560 Y1.6403
G01 X11.3810 Y1.5403
G01 X11.3883 Y1.5138
G01 X11.3970 Y1.4877
G01 X11.4317 Y1.3907
G01 X11.4416 Y1.3651
G01 X11.4527 Y1.3400
G01 X11.4968 Y1.2468
G01 X11.5091 Y1.2223
G01 X11.5227 Y1.1983
G01 X11.5756 Y1.1100
G01 X11.5904 Y1.0867
G01 X11.6062 Y1.0643
G01 X11.6676 Y0.9815
G01 X11.6845 Y0.9598
G01 X11.7024 Y0.9390
G01 X11.7716 Y0.8627
G01 X11.7906 Y0.8428
G01 X11.8105 Y0.8238
G01 X11.8868 Y0.7546
G01 X11.9076 Y0.7367
G01 X11.9293 Y0.7197
G01 X12.0121 Y0.6584
G01 X12.0346 Y0.6425
G01 X12.0578 Y0.6278
G01 X12.1462 Y0.5749
G01 X12.1701 Y0.5613
G01 X12.1946 Y0.5489
G01 X12.2878 Y0.5049
G01 X12.3129 Y0.4938
G01 X12.3385 Y0.4839
G01 X12.4356 Y0.4491
G01 X12.4617 Y0.4405
G01 X12.4882 Y0.4332
G01 X12.5881 Y0.4082
G01 X12.6149 Y0.4021
G01 X12.6420 Y0.3974
G01 X12.7439 Y0.3823
G01 X12.7712 Y0.3790
G01 X12.7986 Y0.3769
G01 X12.9015 Y0.3719
G01 X12.9290 Y0.3712
G01 X12.9565 Y0.3719
G01 X13.0594 Y0.3769
G01 X13.0868 Y0.3790
G01 X13.1141 Y0.3823
G01 X13.2160 Y0.3974
G01 X13.2431 Y0.4021
G01 X13.2699 Y0.4082
G01 X13.3699 Y0.4332
G01 X13.3964 Y0.4405
G01 X13.4225 Y0.4491
G01 X13.5195 Y0.4839
G01 X13.5451 Y0.4938
G01 X13.5703 Y0.5049
G01 X13.6634 Y0.5489
G01 X13.6880 Y0.5613
G01 X13.7119 Y0.5749
G01 X13.8003 Y0.6278
G01 X13.8235 Y0.6425
G01 X13.8460 Y0.6584
G01 X13.9287 Y0.7197
G01 X13.9504 Y0.7367
G01 X13.9712 Y0.7546
G01 X14.0476 Y0.8238
G01 X14.0675 Y0.8428
G01 X14.0864 Y0.8627
G01 X14.1556 Y0.9390
G01 X14.1736 Y0.9598
G01 X14.1905 Y0.9815
G01 X14.2519 Y1.0643
G01 X14.2677 Y1.0867
G01 X14.2824 Y1.1100
G01 X14.3354 Y1.1983
G01 X14.3489 Y1.2223
G01 X14.3613 Y1.2468
G01 X14.4053 Y1.3400
G01 X14.4165 Y1.3651
G01 X14.4264 Y1.3907
G01 X14.4611 Y1.4877
G01 X14.4697 Y1.5138
G01 X14.4770 Y1.5403
G01 X14.5021 Y1.6403
G01 X14.5081 Y1.6671
G01 X14.5128 Y1.6942
G01 X14.5279 Y1.7961
G01 X14.5313 Y1.8234
G01 X14.5333 Y1.8508
G01 X14.5383 Y1.9537
G01 X14.5390 Y1.9812
G01 X14.5383 Y2.0087
G01 X14.5333 Y2.1116
G01 X14.5313 Y2.1390
G01 X14.5279 Y2.1663
G01 X14.5128 Y2.2682
G01 X14.5081 Y2.2953
G01 X14.5021 Y2.3221
G01 X14.4770 Y2.4221
G01 X14.4697 Y2.4486
G01 X14.4611 Y2.4747
G01 X14.4264 Y2.5717
G01 X14.4165 Y2.5973
G01 X14.4053 Y2.6224
G01 X14.3613 Y2.7156
G00 Z2.0000
G00 X21.2453 Y8.5972
G01 F60.00
G01 Z-0.0200
G01 F120.00
G01 X21.3510 Y8.7741
G01 X21.4434 Y8.9693
G01 X21.5161 Y9.1726
G01 X21.5685 Y9.3820
G01 X21.6002 Y9.5956
G01 X21.6108 Y9.8112
G01 X21.6002 Y10.0268
G01 X21.5685 Y10.2404
G01 X21.5161 Y10.4498
G01 X21.4434 Y10.6531
G01 X21.3510 Y10.8483
G01 X21.2401 Y11.0335
G01 X21.1114 Y11.2069
G01 X20.9665 Y11.3668
G01 X20.8065 Y11.5118
G01 X20.6331 Y11.6404
G01 X20.4479 Y11.7514
G01 X20.2527 Y11.8437
G01 X20.0494 Y11.9165
G01 X19.8400 Y11.9689
G01 X19.6265 Y12.0006
G01 X19.4108 Y12.0112
G01 X19.1952 Y12.0006
G01 X18.9816 Y11.9689
G01 X18.7722 Y11.9165
G01 X18.5689 Y11.8437
G01 X18.3737 Y11.7514
G01 X18.1886 Y11.6404
G01 X18.0152 Y11.5118
G01 X17.8552 Y11.3668
G01 X17.7102 Y11.2069
G01 X17.5816 Y11.0335
G01 X17.4706 Y10.8483
G01 X17.3783 Y10.6531
G01 X17.3056 Y10.4498
G01 X17.2531 Y10.2404
G01 X17.2214 Y10.0268
G01 X17.2108 Y9.8112
G01 X17.2214 Y9.5956
G01 X17.2531 Y9.3820
G01 X17.3056 Y9.1726
G01 X17.3783 Y8.9693
G01 X17.4706 Y8.7741
G01 X17.5816 Y8.5889
G01 X17.7102 Y8.4155
G01 X17.8552 Y8.2556
G01 X18.0152 Y8.1106
G01 X18.1886 Y7.9820
G01 X18.3737 Y7.8710
G01 X18.5689 Y7.7787
G01 X18.7722 Y7.7059
G01 X18.9816 Y7.6535
G01 X19.1952 Y7.6218
G01 X19.4108 Y7.6112
G01 X19.6265 Y7.6218
G01 X19.8400 Y7.6535
G01 X20.0494 Y7.7059
G01 X20.2527 Y7.7787
G01 X20.4479 Y7.8710
G01 X20.6331 Y7.9820
G01 X20.8065 Y8.1106
G01 X20.9665 Y8.2556
G01 X21.1114 Y8.4155
G01 X21.2344 Y8.5809
G01 X21.2453 Y8.5972
G00 Z2.0000
G00 X21.3482 Y8.5355
G01 F60.00
G01 Z-0.0200
G01 F120.00
G01 X21.4491 Y8.7039
G01 X21.4569 Y8.7176
G01 X21.4639 Y8.7316
G01 X21.5479 Y8.9090
G01 X21.5542 Y8.9234
G01 X21.5599 Y8.9380
G01 X21.6260 Y9.1228
G01 X21.6309 Y9.1377
G01 X21.6351 Y9.1529
G01 X21.6828 Y9.3433
G01 X21.6862 Y9.3586
G01 X21.6889 Y9.3741
G01 X21.7177 Y9.5682
G01 X21.7196 Y9.5838
G01 X21.7208 Y9.5995
G01 X21.7304 Y9.7955
G01 X21.7308 Y9.8112
G01 X21.7304 Y9.8269
G01 X21.7208 Y10.0229
G01 X21.7196 Y10.0386
G01 X21.7177 Y10.0542
G01 X21.6889 Y10.2483
G01 X21.6862 Y10.2638
G01 X21.6828 Y10.2791
G01 X21.6351 Y10.4695
G01 X21.6309 Y10.4847
G01 X21.6260 Y10.4996
G01 X21.5599 Y10.6844
G01 X21.5542 Y10.6990
G01 X21.5479 Y10.7134
G01 X21.4639 Y10.8908
G01 X21.4569 Y10.9048
G01 X21.4491 Y10.9185
G01 X21.3482 Y11.0869
G01 X21.3398 Y11.1001
G01 X21.3308 Y11.1130
G01 X21.2139 Y11.2706
G01 X21.2042 Y11.2830
G01 X21.1939 Y11.2949
G01 X21.0621 Y11.4403
G01 X21.0513 Y11.4517
G01 X21.0399 Y11.4625
G01 X20.8945 Y11.5943
G01 X20.8826 Y11.6046
G01 X20.8702 Y11.6142
G01 X20.7126 Y11.7312
G01 X20.6997 Y11.7402
G01 X20.6865 Y11.7486
G01 X20.5181 Y11.8495
G01 X20.5045 Y11.8573
G01 X20.4904 Y11.8643
G01 X20.3130 Y11.9482
G01 X20.2986 Y11.9546
G01 X20.2840 Y11.9603
G01 X20.0992 Y12.0264
G01 X20.0843 Y12.0313
G01 X20.0691 Y12.0355
G01 X19.8788 Y12.0832
G01 X19.8634 Y12.0866
G01 X19.8480 Y12.0893
G01 X19.6538 Y12.1181
G01 X19.6382 Y12.1200
G01 X19.6226 Y12.1212
G01 X19.4265 Y12.1308
G01 X19.4108 Y12.1312
G01 X19.3951 Y12.1308
G01 X19.1991 Y12.1212
G01 X19.1834 Y12.1200
G01 X19.1678 Y12.1181
G01 X18.9737 Y12.0893
G01 X18.9582 Y12.0866
G01 X18.9429 Y12.0832
G01 X18.7525 Y12.0355
G01 X18.7374 Y12.0313
G01 X18.7224 Y12.0264
G01 X18.5376 Y11.9603
G01 X18.5230 Y11.9546
G01 X18.5086 Y11.9482
G01 X18.3312 Y11.8643
G01 X18.3172 Y11.8573
G01 X18.3035 Y11.8495
G01 X18.1352 Y11.7486
G01 X18.1219 Y11.7402
G01 X18.1091 Y11.7312
G01 X17.9514 Y11.6142
G01 X17.9390 Y11.6046
G01 X17.9271 Y11.5943
G01 X17.7817 Y11.4625
G01 X17.7703 Y11.4517
G01 X17.7595 Y11.4403
G01 X17.6277 Y11.2949
G01 X17.6174 Y11.2830
G01 X17.6078 Y11.2706
G01 X17.4909 Y11.1130
G01 X17.4818 Y11.1001
G01 X17.4734 Y11.0869
G01 X17.3725 Y10.9185
G01 X17.3648 Y10.9048
G01 X17.3577 Y10.8908
G01 X17.2738 Y10.7134
G01 X17.2674 Y10.6990
G01 X17.2618 Y10.6844
G01 X17.1956 Y10.4996
G01 X17.1907 Y10.4847
G01 X17.1865 Y10.4695
G01 X17.1388 Y10.2791
G01 X17.1354 Y10.2638
G01 X17.1327 Y10.2483
G01 X17.1039 Y10.0542
G01 X17.1020 Y10.0386
G01 X17.1008 Y10.0229
G01 X17.0912 Y9.8269
G01 X17.0908 Y9.8112
G01 X17.0912 Y9.7955
G01 X17.1008 Y9.5995
G01 X17.1020 Y9.5838
G01 X17.1039 Y9.5682
G01 X17.1327 Y9.3741
G01 X17.1354 Y9.3586
G01 X17.1388 Y9.3433
G01 X17.1865 Y9.1529
G01 X17.1907 Y9.1377
G01 X17.1956 Y9.1228
G01 X17.2618 Y8.9380
G01 X17.2674 Y8.9234
G01 X17.2738 Y8.9090
G01 X17.3577 Y8.7316
G01 X17.3648 Y8.7176
G01 X17.3725 Y8.7039
G01 X17.4734 Y8.5355
G01 X17.4818 Y8.5223
G01 X17.4909 Y8.5094
G01 X17.6078 Y8.3518
G01 X17.6174 Y8.3394
G01 X17.6277 Y8.3275
G01 X17.7595 Y8.1821
G01 X17.7703 Y8.1707
G01 X17.7817 Y8.1599
G01 X17.9271 Y8.0281
G01 X17.9390 Y8.0178
G01 X17.9514 Y8.0082
G01 X18.1091 Y7.8912
G01 X18.1219 Y7.8822
G01 X18.1352 Y7.8738
G01 X18.3035 Y7.7729
G01 X18.3172 Y7.7651
G01 X18.3312 Y7.7581
G01 X18.5086 Y7.6742
G01 X18.5230 Y7.6678
G01 X18.5376 Y7.6621
G01 X18.7224 Y7.5960
G01 X18.7374 Y7.5911
G01 X18.7525 Y7.5869
G01 X18.9429 Y7.5392
G01 X18.9582 Y7.5358
G01 X18.9737 Y7.5331
G01 X19.1678 Y7.5043
G01 X19.1834 Y7.5024
G01 X19.1991 Y7.5012
G01 X19.3951 Y7.4916
G01 X19.4108 Y7.4912
G01 X19.4265 Y7.4916
G01 X19.6226 Y7.5012
G01 X19.6382 Y7.5024
G01 X19.6538 Y7.5043
G01 X19.8480 Y7.5331
G01 X19.8634 Y7.5358
G01 X19.8788 Y7.5392
G01 X20.0691 Y7.5869
G01 X20.0843 Y7.5911
G01 X20.0992 Y7.5960
G01 X20.2840 Y7.6621
G01 X20.2986 Y7.6678
G01 X20.3130 Y7.6742
G01 X20.4904 Y7.7581
G01 X20.5045 Y7.7651
G01 X20.5181 Y7.7729
G01 X20.6865 Y7.8738
G01 X20.6997 Y7.8822
G01 X20.7126 Y7.8912
G01 X20.8702 Y8.0082
G01 X20.8826 Y8.0178
G01 X20.8945 Y8.0281
G01 X21.0399 Y8.1599
G01 X21.0513 Y8.1707
G01 X21.0621 Y8.1821
G01 X21.1939 Y8.3275
G01 X21.2042 Y8.3394
G01 X21.2139 Y8.3518
G01 X21.3308 Y8.5094
G01 X21.3398 Y8.5223
G01 X21.3482 Y8.5355
G00 Z2.0000
G00 X21.4512 Y8.4739
G01 F60.00
G01 Z-0.0200
G01 F120.00
G01 X21.5521 Y8.6422
G01 X21.5627 Y8.6610
G01 X21.5724 Y8.6803
G01 X21.6563 Y8.8577
G01 X21.6651 Y8.8775
G01 X21.6729 Y8.8976
G01 X21.7390 Y9.0824
G01 X21.7458 Y9.1029
G01 X21.7515 Y9.1237
G01 X21.7992 Y9.3141
G01 X21.8039 Y9.3352
G01 X21.8076 Y9.3565
G01 X21.8364 Y9.5506
G01 X21.8391 Y9.5720
G01 X21.8407 Y9.5936
G01 X21.8503 Y9.7896
G01 X21.8508 Y9.8112
G01 X21.8503 Y9.8328
G01 X21.8407 Y10.0288
G01 X21.8391 Y10.0504
G01 X21.8364 Y10.0718
G01 X21.8076 Y10.2659
G01 X21.8039 Y10.2872
G01 X21.7992 Y10.3083
G01 X21.7515 Y10.4987
G01 X21.7458 Y10.5195
G01 X21.7390 Y10.5400
G01 X21.6729 Y10.7248
G01 X21.6651 Y10.7449
G01 X21.6563 Y10.7647
G01 X21.5724 Y10.9421
G01 X21.5627 Y10.9614
G01 X21.5521 Y10.9802
G01 X21.4512 Y11.1485
G01 X21.4396 Y11.1668
G01 X21.4272 Y11.1844
G01 X21.3103 Y11.3421
G01 X21.2970 Y11.3591
G01 X21.2829 Y11.3755
G01 X21.1511 Y11.5209
G01 X21.1362 Y11.5365
G01 X21.1205 Y11.5514
G01 X20.9751 Y11.6832
G01 X20.9587 Y11.6973
G01 X20.9417 Y11.7106
G01 X20.7841 Y11.8276
G01 X20.7664 Y11.8400
G01 X20.7482 Y11.8515
G01 X20.5798 Y11.9524
G01 X20.5610 Y11.9631
G01 X20.5417 Y11.9728
G01 X20.3643 Y12.0567
G01 X20.3446 Y12.0655
G01 X20.3244 Y12.0732
G01 X20.1396 Y12.1394
G01 X20.1191 Y12.1461
G01 X20.0983 Y12.1519
G01 X19.9079 Y12.1996
G01 X19.8868 Y12.2043
G01 X19.8656 Y12.2080
G01 X19.6714 Y12.2368
G01 X19.6500 Y12.2395
G01 X19.6284 Y12.2410
G01 X19.4324 Y12.2507
G01 X19.4108 Y12.2512
G01 X19.3892 Y12.2507
G01 X19.1932 Y12.2410
G01 X19.1717 Y12.2395
G01 X19.1502 Y12.2368
G01 X18.9561 Y12.2080
G01 X18.9348 Y12.2043
G01 X18.9137 Y12.1996
G01 X18.7233 Y12.1519
G01 X18.7025 Y12.1461
G01 X18.6820 Y12.1394
G01 X18.4972 Y12.0732
G01 X18.4771 Y12.0655
G01 X18.4573 Y12.0567
G01 X18.2799 Y11.9728
G01 X18.2606 Y11.9631
G01 X18.2418 Y11.9524
G01 X18.0735 Y11.8515
G01 X18.0552 Y11.8400
G01 X18.0376 Y11.8276
G01 X17.8799 Y11.7106
G01 X17.8629 Y11.6973
G01 X17.8465 Y11.6832
G01 X17.7011 Y11.5514
G01 X17.6855 Y11.5365
G01 X17.6706 Y11.5209
G01 X17.5388 Y11.3755
G01 X17.5247 Y11.3591
G01 X17.5114 Y11.3421
G01 X17.3945 Y11.1844
G01 X17.3820 Y11.1668
G01 X17.3705 Y11.1485
G01 X17.2696 Y10.9802
G01 X17.2589 Y10.9614
G01 X17.2492 Y10.9421
G01 X17.1653 Y10.7647
G01 X17.1566 Y10.7449
G01 X17.1488 Y10.7248
G01 X17.0827 Y10.5400
G01 X17.0759 Y10.5195
G01 X17.0701 Y10.4987
G01 X17.0224 Y10.3083
G01 X17.0177 Y10.2872
G01 X17.0140 Y10.2659
G01 X16.9852 Y10.0718
G01 X16.9826 Y10.0504
G01 X16.9810 Y10.0288
G01 X16.9714 Y9.8328
G01 X16.9708 Y9.8112
G01 X16.9714 Y9.7896
G01 X16.9810 Y9.5936
G01 X16.9826 Y9.5720
G01 X16.9852 Y9.5506
G01 X17.0140 Y9.3565
G01 X17.0177 Y9.3352
G01 X17.0224 Y9.3141
G01 X17.0701 Y9.1237
G01 X17.0759 Y9.1029
G01 X17.0827 Y9.0824
G01 X17.1488 Y8.8976
G01 X17.1566 Y8.8775
G01 X17.1653 Y8.8577
G01 X17.2492 Y8.6803
G01 X17.2589 Y8.6610
G01 X17.2696 Y8.6422
G01 X17.3705 Y8.4739
G01 X17.3820 Y8.4556
G01 X17.3945 Y8.4380
G01 X17.5114 Y8.2803
G01 X17.5247 Y8.2633
G01 X17.5388 Y8.2469
G01 X17.6706 Y8.1015
G01 X17.6855 Y8.0859
G01 X17.7011 Y8.0710
G01 X17.8465 Y7.9392
G01 X17.8629 Y7.9251
G01 X17.8799 Y7.9118
G01 X18.0376 Y7.7948
G01 X18.0552 Y7.7824
G01 X18.0735 Y7.7709
G01 X18.2418 Y7.6700
G01 X18.2606 Y7.6593
G01 X18.2799 Y7.6496
G01 X18.4573 Y7.5657
G01 X18.4771 Y7.5569
G01 X18.4972 Y7.5492
G01 X18.6820 Y7.4830
G01 X18.7025 Y7.4763
G01 X18.7233 Y7.4705
G01 X18.9137 Y7.4228
G01 X18.9348 Y7.4181
G01 X18.9561 Y7.4144
G01 X19.1502 Y7.3856
G01 X19.1717 Y7.3829
G01 X19.1932 Y7.3814
G01 X19.3892 Y7.3717
G01 X19.4108 Y7.3712
G01 X19.4324 Y7.3717
G01 X19.6284 Y7.3814
G01 X19.6500 Y7.3829
G01 X19.6714 Y7.3856
G01 X19.8656 Y7.4144
G01 X19.8868 Y7.4181
G01 X19.9079 Y7.4228
G01 X20.0983 Y7.4705
G01 X20.1191 Y7.4763
G01 X20.1396 Y7.4830
G01 X20.3244 Y7.5492
G01 X20.3446 Y7.5569
G01 X20.3643 Y7.5657
G01 X20.5417 Y7.6496
G01 X20.5610 Y7.6593
G01 X20.5798 Y7.6700
G01 X20.7482 Y7.7709
G01 X20.7664 Y7.7824
G01 X20.7841 Y7.7948
G01 X20.9417 Y7.9118
G01 X20.9587 Y7.9251
G01 X20.9751 Y7.9392
G01 X21.1205 Y8.0710
G01 X21.1362 Y8.0859
G01 X21.1511 Y8.1015
G01 X21.2829 Y8.2469
G01 X21.2970 Y8.2633
G01 X21.3103 Y8.2803
G01 X21.4272 Y8.4380
G01 X21.4396 Y8.4556
G01 X21.4512 Y8.4739
G00 Z2.0000
G00 X21.5541 Y8.4122
G01 F60.00
G01 Z-0.0200
G01 F120.00
G01 X21.6550 Y8.5805
G01 X21.6685 Y8.6044
G01 X21.6809 Y8.6290
G01 X21.7648 Y8.8064
G01 X21.7760 Y8.8315
G01 X21.7858 Y8.8572
G01 X21.8520 Y9.0420
G01 X21.8606 Y9.0681
G01 X21.8679 Y9.0946
G01 X21.9156 Y9.2850
G01 X21.9216 Y9.3118
G01 X21.9263 Y9.3389
G01 X21.9551 Y9.5330
G01 X21.9585 Y9.5603
G01 X21.9605 Y9.5877
G01 X21.9701 Y9.7837
G01 X21.9708 Y9.8112
G01 X21.9701 Y9.8387
G01 X21.9605 Y10.0347
G01 X21.9585 Y10.0621
G01 X21.9551 Y10.0894
G01 X21.9263 Y10.2835
G01 X21.9216 Y10.3106
G01 X21.9156 Y10.3374
G01 X21.8679 Y10.5278
G01 X21.8606 Y10.5543
G01 X21.8520 Y10.5804
G01 X21.7858 Y10.7652
G01 X21.7760 Y10.7909
G01 X21.7648 Y10.8160
G01 X21.6809 Y10.9934
G01 X21.6685 Y11.0180
G01 X21.6550 Y11.0419
G01 X21.5541 Y11.2102
G01 X21.5394 Y11.2335
G01 X21.5236 Y11.2559
G01 X21.4066 Y11.4136
G01 X21.3897 Y11.4352
G01 X21.3718 Y11.4561
G01 X21.2400 Y11.6015
G01 X21.2210 Y11.6214
G01 X21.2011 Y11.6403
G01 X21.0557 Y11.7722
G01 X21.0349 Y11.7901
G01 X21.0132 Y11.8070
G01 X20.8556 Y11.9239
G01 X20.8331 Y11.9398
G01 X20.8099 Y11.9545
G01 X20.6415 Y12.0554
G01 X20.6176 Y12.0689
G01 X20.5930 Y12.0813
G01 X20.4156 Y12.1652
G01 X20.3905 Y12.1763
G01 X20.3648 Y12.1862
G01 X20.1800 Y12.2523
G01 X20.1539 Y12.2610
G01 X20.1275 Y12.2683
G01 X19.9371 Y12.3160
G01 X19.9103 Y12.3220
G01 X19.8832 Y12.3267
G01 X19.6890 Y12.3555
G01 X19.6617 Y12.3589
G01 X19.6343 Y12.3609
G01 X19.4383 Y12.3705
G01 X19.4108 Y12.3712
G01 X19.3833 Y12.3705
G01 X19.1873 Y12.3609
G01 X19.1599 Y12.3589
G01 X19.1326 Y12.3555
G01 X18.9385 Y12.3267
G01 X18.9114 Y12.3220
G01 X18.8846 Y12.3160
G01 X18.6942 Y12.2683
G01 X18.6677 Y12.2610
G01 X18.6416 Y12.2523
G01 X18.4568 Y12.1862
G01 X18.4312 Y12.1763
G01 X18.4060 Y12.1652
G01 X18.2286 Y12.0813
G01 X18.2040 Y12.0689
G01 X18.1801 Y12.0554
G01 X18.0118 Y11.9545
G01 X17.9886 Y11.9398
G01 X17.9661 Y11.9239
G01 X17.8084 Y11.8070
G01 X17.7868 Y11.7901
G01 X17.7660 Y11.7722
G01 X17.6205 Y11.6403
G01 X17.6006 Y11.6214
G01 X17.5817 Y11.6015
G01 X17.4499 Y11.4561
G01 X17.4319 Y11.4352
G01 X17.4150 Y11.4136
G01 X17.2981 Y11.2559
G01 X17.2823 Y11.2335
G01 X17.2676 Y11.2102
G01 X17.1666 Y11.0419
G01 X17.1531 Y11.0180
G01 X17.1407 Y10.9934
G01 X17.0568 Y10.8160
G01 X17.0457 Y10.7909
G01 X17.0358 Y10.7652
G01 X16.9697 Y10.5804
G01 X16.9611 Y10.5543
G01 X16.9537 Y10.5278
G01 X16.9060 Y10.3374
G01 X16.9000 Y10.3106
G01 X16.8953 Y10.2835
G01 X16.8665 Y10.0894
G01 X16.8631 Y10.0621
G01 X16.8611 Y10.0347
G01 X16.8515 Y9.8387
G01 X16.8508 Y9.8112
G01 X16.8515 Y9.7837
G01 X16.8611 Y9.5877
G01 X16.8631 Y9.5603
G01 X16.8665 Y9.5330
G01 X16.8953 Y9.3389
G01 X16.9000 Y9.3118
G01 X16.9060 Y9.2850
G01 X16.9537 Y9.0946
G01 X16.9611 Y9.0681
G01 X16.9697 Y9.0420
G01 X17.0358 Y8.8572
G01 X17.0457 Y8.8315
G01 X17.0568 Y8.8064
G01 X17.1407 Y8.6290
G01 X17.1531 Y8.6044
G01 X17.1666 Y8.5805
G01 X17.2676 Y8.4122
G01 X17.2823 Y8.3889
G01 X17.2981 Y8.3665
G01 X17.4150 Y8.2088
G01 X17.4319 Y8.1872
G01 X17.4499 Y8.1663
G01 X17.5817 Y8.0209
G01 X17.6006 Y8.0010
G01 X17.6205 Y7.9821
G01 X17.7660 Y7.8502
G01 X17.7868 Y7.8323
G01 X17.8084 Y7.8154
G01 X17.9661 Y7.6985
G01 X17.9886 Y7.6826
G01 X18.0118 Y7.6679
G01 X18.1801 Y7.5670
G01 X18.2040 Y7.5535
G01 X18.2286 Y7.5411
G01 X18.4060 Y7.4572
G01 X18.4312 Y7.4461
G01 X18.4568 Y7.4362
G01 X18.6416 Y7.3701
G01 X18.6677 Y7.3614
G01 X18.6942 Y7.3541
G01 X18.8846 Y7.3064
G01 X18.9114 Y7.3004
G01 X18.9385 Y7.2957
G01 X19.1326 Y7.2669
G01 X19.1599 Y7.2635
G01 X19.1873 Y7.2615
G01 X19.3833 Y7.2519
G01 X19.4108 Y7.2512
G01 X19.4383 Y7.2519
G01 X19.6343 Y7.2615
G01 X19.6617 Y7.2635
G01 X19.6890 Y7.2669
G01 X19.8832 Y7.2957
G01 X19.9103 Y7.3004
G01 X19.9371 Y7.3064
G01 X20.1275 Y7.3541
G01 X20.1539 Y7.3614
G01 X20.1800 Y7.3701
G01 X20.3648 Y7.4362
G01 X20.3905 Y7.4461
G01 X20.4156 Y7.4572
G01 X20.5930 Y7.5411
G01 X20.6176 Y7.5535
G01 X20.6415 Y7.5670
G01 X20.8099 Y7.6679
G01 X20.8331 Y7.6826
G01 X20.8556 Y7.6985
G01 X21.0132 Y7.8154
G01 X21.0349 Y7.8323
G01 X21.0557 Y7.8502
G01 X21.2011 Y7.9821
G01 X21.2210 Y8.0010
G01 X21.2400 Y8.0209
G01 X21.3718 Y8.1663
G01 X21.3897 Y8.1872
G01 X21.4066 Y8.2088
G01 X21.5236 Y8.3665
G01 X21.5394 Y8.3889
G01 X21.5541 Y8.4122
G00 Z2.0000
G00 X21.6566 Y16.1776
G01 F60.00
G01 Z-0.0200
G01 F120.00
G01 X21.6675 Y16.1939
G01 X21.7127 Y16.2698
G01 X21.7547 Y16.3585
G01 X21.7878 Y16.4509
G01 X21.8116 Y16.5461
G01 X21.8260 Y16.6432
G01 X21.8308 Y16.7412
G01 X21.8260 Y16.8392
G01 X21.8116 Y16.9363
G01 X21.7878 Y17.0315
G01 X21.7547 Y17.1239
G01 X21.7127 Y17.2126
G01 X21.6623 Y17.2968
G01 X21.6038 Y17.3756
G01 X21.5379 Y17.4483
G01 X21.4652 Y17.5142
G01 X21.3864 Y17.5727
G01 X21.3022 Y17.6231
G01 X21.2135 Y17.6651
G01 X21.1211 Y17.6981
G01 X21.0259 Y17.7220
G01 X20.9288 Y17.7364
G01 X20.8308 Y17.7412
G01 X20.7328 Y17.7364
G01 X20.6357 Y17.7220
G01 X20.5405 Y17.6981
G01 X20.4481 Y17.6651
G01 X20.3594 Y17.6231
G01 X20.2752 Y17.5727
G01 X20.1964 Y17.5142
G01 X20.1237 Y17.4483
G01 X20.0578 Y17.3756
G01 X19.9994 Y17.2968
G01 X19.9489 Y17.2126
G01 X19.9069 Y17.1239
G01 X19.8739 Y17.0315
G01 X19.8500 Y16.9363
G01 X19.8356 Y16.8392
G01 X19.8308 Y16.7412
G01 X19.8356 Y16.6432
G01 X19.8500 Y16.5461
G01 X19.8739 Y16.4509
G01 X19.9069 Y16.3585
G01 X19.9489 Y16.2698
G01 X19.9994 Y16.1856
G01 X20.0578 Y16.1068
G01 X20.1237 Y16.0341
G01 X20.1964 Y15.9682
G01 X20.2752 Y15.9097
G01 X20.3594 Y15.8593
G01 X20.4481 Y15.8173
G01 X20.5405 Y15.7843
G01 X20.6357 Y15.7604
G01 X20.7328 Y15.7460
G01 X20.8308 Y15.7412
G01 X20.9288 Y15.7460
G01 X21.0259 Y15.7604
G01 X21.1211 Y15.7843
G01 X21.2135 Y15.8173
G01 X21.3022 Y15.8593
G01 X21.3864 Y15.9097
G01 X21.4652 Y15.9682
G01 X21.5379 Y16.0341
G01 X21.6038 Y16.1068
G01 X21.6566 Y16.1776
G00 Z2.0000
G00 X23.2792 Y16.7637
G01 F60.00
G01 Z-0.0200
G01 F120.00
G01 X23.2792 Y17.8202
G01 X23.2281 Y17.8581
G01 X23.2097 Y17.8728
G01 X23.1544 Y17.9229
G01 X23.1433 Y17.9340
G01 X23.1191 Y17.9605
G01 X23.1191 Y16.6036
G01 X23.2792 Y16.7637
G00 Z2.0000
G00 X23.2995 Y17.9545
G01 F60.00
G01 Z-0.0200
G01 F120.00
G01 X23.3549 Y17.9137
G01 X23.3992 Y17.8869
G01 X23.3992 Y16.7140
G01 X20.5884 Y13.9032
G01 X15.7960 Y13.9032
G01 X15.7617 Y13.9017
G01 X15.7471 Y13.9001
G01 X15.7180 Y13.8955
G01 X15.6893 Y13.8886
G01 X15.6752 Y13.8845
G01 X15.6475 Y13.8746
G01 X15.6339 Y13.8688
G01 X15.6074 Y13.8560
G01 X15.5737 Y13.8358
G01 X15.5499 Y13.8184
G01 X15.5384 Y13.8092
G01 X15.5131 Y13.7860
G01 X9.8265 Y8.0994
G01 X9.0052 Y8.0994
G01 X4.9307 Y12.1739
G01 X4.9307 Y83.2825
G01 X6.0423 Y84.3941
G01 X26.2448 Y84.3941
G01 X27.9829 Y82.6560
G01 X27.9829 Y81.3009
G01 X27.3325 Y80.6505
G01 X27.3217 Y80.6548
G01 X27.2338 Y80.6860
G01 X27.1434 Y80.7089
G01 X27.1242 Y80.7127
G01 X27.0319 Y80.7261
G01 X26.9388 Y80.7310
G01 X26.9192 Y80.7310
G01 X26.8261 Y80.7261
G01 X26.7242 Y80.7110
G01 X26.6337 Y80.6886
G01 X26.6149 Y80.6829
G01 X26.5272 Y80.6513
G01 X26.4428 Y80.6116
G01 X26.4255 Y80.6024
G01 X26.3498 Y80.5569
G01 X26.3376 Y80.5486
G01 X26.2629 Y80.4929
G01 X26.1866 Y80.4237
G01 X26.1174 Y80.3473
G01 X26.0616 Y80.2726
G01 X26.0507 Y80.2563
G01 X26.0030 Y80.1762
G01 X25.9629 Y80.0920
G01 X25.9554 Y80.0739
G01 X25.9273 Y79.9953
G01 X25.9216 Y79.9765
G01 X25.8992 Y79.8860
G01 X25.8853 Y79.7939
G01 X25.8834 Y79.7743
G01 X25.8793 Y79.6910
G01 X25.8793 Y79.6714
G01 X25.8841 Y79.5783
G01 X25.8992 Y79.4764
G01 X25.9242 Y79.3764
G01 X25.9554 Y79.2885
G01 X25.9629 Y79.2704
G01 X25.9986 Y79.1950
G01 X26.0078 Y79.1777
G01 X26.0560 Y79.0979
G01 X26.1113 Y79.0228
G01 X26.1238 Y79.0077
G01 X26.1866 Y78.9387
G01 X26.2629 Y78.8695
G01 X26.3457 Y78.8082
G01 X26.4255 Y78.7600
G01 X26.4428 Y78.7508
G01 X26.5182 Y78.7151
G01 X26.5364 Y78.7076
G01 X26.6242 Y78.6764
G01 X26.7146 Y78.6535
G01 X26.7338 Y78.6497
G01 X26.8261 Y78.6363
G01 X26.9241 Y78.6313
G01 X26.9388 Y78.6314
G01 X27.0319 Y78.6363
G01 X27.1339 Y78.6514
G01 X27.2338 Y78.6764
G01 X27.3217 Y78.7076
G01 X27.3398 Y78.7151
G01 X27.4152 Y78.7508
G01 X27.4325 Y78.7600
G01 X27.5124 Y78.8082
G01 X27.5874 Y78.8635
G01 X27.6026 Y78.8760
G01 X27.6715 Y78.9387
G01 X27.7343 Y79.0077
G01 X27.7437 Y79.0189
G01 X27.8021 Y79.0979
G01 X27.8502 Y79.1777
G01 X27.8595 Y79.1950
G01 X27.8991 Y79.2794
G01 X27.9307 Y79.3671
G01 X27.9364 Y79.3859
G01 X27.9588 Y79.4764
G01 X27.9728 Y79.5685
G01 X27.9747 Y79.5881
G01 X27.9790 Y79.6812
G01 X27.9747 Y79.7743
G01 X27.9728 Y79.7939
G01 X27.9588 Y79.8860
G01 X27.9364 Y79.9765
G01 X27.9307 Y79.9953
G01 X27.9026 Y80.0739
G01 X27.8984 Y80.0847
G01 X28.6694 Y80.8558
G01 X28.6923 Y80.8814
G01 X28.7157 Y80.9129
G01 X28.7359 Y80.9466
G01 X28.7507 Y80.9776
G01 X28.7562 Y80.9912
G01 X28.7659 Y81.0191
G01 X28.7754 Y81.0571
G01 X28.7812 Y81.0960
G01 X28.7831 Y81.1352
G01 X28.7831 Y82.8217
G01 X28.7816 Y82.8560
G01 X28.7800 Y82.8707
G01 X28.7754 Y82.8998
G01 X28.7685 Y82.9284
G01 X28.7644 Y82.9425
G01 X28.7527 Y82.9748
G01 X28.7403 Y83.0015
G01 X28.7335 Y83.0146
G01 X28.7157 Y83.0440
G01 X28.6983 Y83.0678
G01 X28.6891 Y83.0793
G01 X28.6694 Y83.1011
G01 X26.6934 Y85.0771
G01 X26.6643 Y85.1035
G01 X26.6369 Y85.1241
G01 X26.6287 Y85.1295
G01 X26.6077 Y85.1422
G01 X26.5904 Y85.1515
G01 X26.5636 Y85.1638
G01 X26.5267 Y85.1771
G01 X26.4886 Y85.1866
G01 X26.4497 Y85.1924
G01 X26.4105 Y85.1943
G01 X5.8766 Y85.1943
G01 X5.8423 Y85.1928
G01 X5.8277 Y85.1912
G01 X5.7986 Y85.1866
G01 X5.7699 Y85.1797
G01 X5.7558 Y85.1756
G01 X5.7235 Y85.1638
G01 X5.6968 Y85.1515
G01 X5.6837 Y85.1447
G01 X5.6543 Y85.1269
G01 X5.6305 Y85.1095
G01 X5.6190 Y85.1003
G01 X5.5972 Y85.0805
G01 X4.2443 Y83.7276
G01 X4.2213 Y83.7020
G01 X4.1979 Y83.6705
G01 X4.1778 Y83.6368
G01 X4.1610 Y83.6013
G01 X4.1477 Y83.5643
G01 X4.1382 Y83.5263
G01 X4.1324 Y83.4874
G01 X4.1306 Y83.4531
G01 X4.1305 Y12.0082
G01 X4.1320 Y11.9739
G01 X4.1336 Y11.9592
G01 X4.1382 Y11.9301
G01 X4.1477 Y11.8921
G01 X4.1592 Y11.8596
G01 X4.1650 Y11.8461
G01 X4.1778 Y11.8196
G01 X4.1927 Y11.7942
G01 X4.2007 Y11.7819
G01 X4.2183 Y11.7582
G01 X4.2278 Y11.7469
G01 X4.2477 Y11.7253
G01 X8.5566 Y7.4164
G01 X8.5783 Y7.3964
G01 X8.5895 Y7.3870
G01 X8.6172 Y7.3666
G01 X8.6466 Y7.3488
G01 X8.6553 Y7.3442
G01 X8.6774 Y7.3336
G01 X8.6956 Y7.3261
G01 X8.7234 Y7.3164
G01 X8.7615 Y7.3069
G01 X8.8003 Y7.3011
G01 X8.8297 Y7.2994
G01 X9.9971 Y7.2993
G01 X10.0314 Y7.3011
G01 X10.0606 Y7.3052
G01 X10.0751 Y7.3079
G01 X10.1084 Y7.3164
G01 X10.1408 Y7.3278
G01 X10.1543 Y7.3336
G01 X10.1808 Y7.3464
G01 X10.2062 Y7.3614
G01 X10.2186 Y7.3694
G01 X10.2422 Y7.3870
G01 X10.2535 Y7.3964
G01 X10.2751 Y7.4164
G01 X15.9617 Y13.1030
G01 X20.7590 Y13.1031
G01 X20.7933 Y13.1049
G01 X20.8322 Y13.1107
G01 X20.8703 Y13.1202
G01 X20.8981 Y13.1299
G01 X20.9162 Y13.1374
G01 X20.9384 Y13.1480
G01 X20.9470 Y13.1526
G01 X20.9764 Y13.1704
G01 X21.0079 Y13.1938
G01 X21.0370 Y13.2202
G01 X24.0822 Y16.2654
G01 X24.1054 Y16.2907
G01 X24.1146 Y16.3022
G01 X24.1320 Y16.3260
G01 X24.1522 Y16.3597
G01 X24.1650 Y16.3862
G01 X24.1708 Y16.3997
G01 X24.1807 Y16.4275
G01 X24.1848 Y16.4416
G01 X24.1917 Y16.4702
G01 X24.1963 Y16.4993
G01 X24.1979 Y16.5140
G01 X24.1994 Y16.5434
G01 X24.1994 Y17.8869
G01 X24.2438 Y17.9137
G01 X24.2991 Y17.9545
G01 X24.3143 Y17.9669
G01 X24.3615 Y18.0098
G01 X24.3718 Y18.0203
G01 X24.4177 Y18.0714
G01 X24.4588 Y18.1264
G01 X24.4672 Y18.1386
G01 X24.5000 Y18.1932
G01 X24.5093 Y18.2106
G01 X24.5384 Y18.2728
G01 X24.5618 Y18.3374
G01 X24.5675 Y18.3561
G01 X24.5839 Y18.4228
G01 X24.5943 Y18.4907
G01 X24.5962 Y18.5103
G01 X24.5993 Y18.5789
G01 X24.5962 Y18.6475
G01 X24.5943 Y18.6671
G01 X24.5856 Y18.7253
G01 X24.5818 Y18.7446
G01 X24.5649 Y18.8111
G01 X24.5384 Y18.8850
G01 X24.5049 Y18.9560
G01 X24.4697 Y19.0151
G01 X24.4588 Y19.0314
G01 X24.4177 Y19.0864
G01 X24.3718 Y19.1375
G01 X24.3579 Y19.1514
G01 X24.3068 Y19.1973
G01 X24.2438 Y19.2441
G01 X24.1764 Y19.2844
G01 X24.1055 Y19.3180
G01 X24.0315 Y19.3445
G01 X23.9554 Y19.3635
G01 X23.8777 Y19.3750
G01 X23.7993 Y19.3789
G01 X23.7209 Y19.3750
G01 X23.6432 Y19.3635
G01 X23.5671 Y19.3445
G01 X23.4932 Y19.3180
G01 X23.4222 Y19.2844
G01 X23.3549 Y19.2441
G01 X23.2918 Y19.1973
G01 X23.2336 Y19.1446
G01 X23.1809 Y19.0864
G01 X23.1341 Y19.0234
G01 X23.0938 Y18.9560
G01 X23.0602 Y18.8850
G01 X23.0338 Y18.8111
G01 X23.0147 Y18.7350
G01 X23.0032 Y18.6573
G01 X22.9993 Y18.5789
G01 X23.0032 Y18.5005
G01 X23.0147 Y18.4228
G01 X23.0338 Y18.3467
G01 X23.0602 Y18.2728
G01 X23.0938 Y18.2018
G01 X23.1341 Y18.1344
G01 X23.1809 Y18.0714
G01 X23.2336 Y18.0132
G01 X23.2844 Y17.9669
G01 X23.2995 Y17.9545
G00 Z2.0000
G00 X23.2398 Y19.4552
G01 F60.00
G01 Z-0.0200
G01 F120.00
G01 X23.2391 Y19.4548
G01 X23.2391 Y19.4633
G01 X29.7511 Y25.9754
G01 X29.7716 Y25.9979
G01 X29.7857 Y26.0142
G01 X29.7990 Y26.0313
G01 X29.8170 Y26.0558
G01 X29.8231 Y26.0647
G01 X29.8347 Y26.0829
G01 X29.8502 Y26.1091
G01 X29.8604 Y26.1281
G01 X29.8735 Y26.1556
G01 X29.8823 Y26.1753
G01 X29.8901 Y26.1955
G01 X29.9002 Y26.2242
G01 X29.9065 Y26.2449
G01 X29.9140 Y26.2744
G01 X29.9187 Y26.2954
G01 X29.9207 Y26.3060
G01 X29.9253 Y26.3361
G01 X29.9279 Y26.3576
G01 X29.9295 Y26.3791
G01 X29.9309 Y26.4095
G01 X29.9310 Y26.4203
G01 X29.9310 Y72.2393
G01 X29.9309 Y72.2501
G01 X29.9295 Y72.2805
G01 X29.9279 Y72.3020
G01 X29.9253 Y72.3235
G01 X29.9207 Y72.3536
G01 X29.9165 Y72.3747
G01 X29.9092 Y72.4043
G01 X29.9035 Y72.4251
G01 X29.8967 Y72.4456
G01 X29.8863 Y72.4742
G01 X29.8823 Y72.4843
G01 X29.8780 Y72.4942
G01 X29.8651 Y72.5218
G01 X29.8554 Y72.5410
G01 X29.8448 Y72.5598
G01 X29.8290 Y72.5859
G01 X29.8170 Y72.6038
G01 X29.7990 Y72.6283
G01 X29.7857 Y72.6454
G01 X29.7716 Y72.6617
G01 X29.7511 Y72.6842
G01 X29.7435 Y72.6919
G01 X28.1730 Y74.2625
G01 X28.1895 Y74.3285
G01 X28.1942 Y74.3495
G01 X28.1979 Y74.3708
G01 X28.2102 Y74.4533
G01 X28.2116 Y74.4640
G01 X28.2137 Y74.4855
G01 X28.2189 Y74.5904
G01 X28.2190 Y74.6012
G01 X28.2185 Y74.6228
G01 X28.2144 Y74.7061
G01 X28.2128 Y74.7276
G01 X28.2102 Y74.7491
G01 X28.1979 Y74.8316
G01 X28.1942 Y74.8529
G01 X28.1895 Y74.8739
G01 X28.1692 Y74.9549
G01 X28.1635 Y74.9757
G01 X28.1567 Y74.9962
G01 X28.1286 Y75.0747
G01 X28.1208 Y75.0949
G01 X28.1121 Y75.1146
G01 X28.0764 Y75.1900
G01 X28.0667 Y75.2093
G01 X28.0561 Y75.2281
G01 X28.0132 Y75.2996
G01 X28.0016 Y75.3179
G01 X27.9955 Y75.3268
G01 X27.9330 Y75.4111
G01 X27.9262 Y75.4196
G01 X27.9121 Y75.4359
G01 X27.8561 Y75.4977
G01 X27.8412 Y75.5134
G01 X27.8255 Y75.5283
G01 X27.7637 Y75.5843
G01 X27.7474 Y75.5984
G01 X27.7304 Y75.6117
G01 X27.6634 Y75.6614
G01 X27.6457 Y75.6738
G01 X27.6275 Y75.6853
G01 X27.5559 Y75.7282
G01 X27.5371 Y75.7389
G01 X27.5275 Y75.7439
G01 X27.4326 Y75.7887
G01 X27.4227 Y75.7930
G01 X27.4025 Y75.8008
G01 X27.3240 Y75.8289
G01 X27.3138 Y75.8324
G01 X27.2931 Y75.8387
G01 X27.2018 Y75.8617
G01 X27.1807 Y75.8664
G01 X27.1520 Y75.8712
G01 X27.1701 Y75.8740
G01 X27.1913 Y75.8782
G01 X27.2827 Y75.9010
G01 X27.3035 Y75.9067
G01 X27.3240 Y75.9135
G01 X27.4025 Y75.9416
G01 X27.4227 Y75.9494
G01 X27.4424 Y75.9581
G01 X27.5178 Y75.9938
G01 X27.5371 Y76.0035
G01 X27.5559 Y76.0142
G01 X27.6367 Y76.0627
G01 X27.6546 Y76.0747
G01 X27.6634 Y76.0810
G01 X27.7304 Y76.1307
G01 X27.7474 Y76.1440
G01 X27.7637 Y76.1581
G01 X27.8255 Y76.2141
G01 X27.8412 Y76.2290
G01 X27.8561 Y76.2447
G01 X27.9121 Y76.3065
G01 X27.9262 Y76.3228
G01 X27.9395 Y76.3399
G01 X27.9892 Y76.4069
G01 X27.9955 Y76.4156
G01 X28.0075 Y76.4336
G01 X28.0561 Y76.5143
G01 X28.0667 Y76.5331
G01 X28.0764 Y76.5524
G01 X28.1166 Y76.6376
G01 X28.1208 Y76.6475
G01 X28.1286 Y76.6677
G01 X28.1567 Y76.7462
G01 X28.1635 Y76.7667
G01 X28.1692 Y76.7875
G01 X28.1895 Y76.8685
G01 X28.1942 Y76.8895
G01 X28.1979 Y76.9108
G01 X28.2102 Y76.9933
G01 X28.2116 Y77.0040
G01 X28.2137 Y77.0255
G01 X28.2185 Y77.1196
G01 X28.2190 Y77.1412
G01 X28.2189 Y77.1520
G01 X28.2137 Y77.2569
G01 X28.2128 Y77.2676
G01 X28.2102 Y77.2891
G01 X28.1979 Y77.3716
G01 X28.1942 Y77.3929
G01 X28.1920 Y77.4034
G01 X28.1665 Y77.5053
G01 X28.1635 Y77.5157
G01 X28.1567 Y77.5362
G01 X28.1248 Y77.6248
G01 X28.1208 Y77.6349
G01 X28.1121 Y77.6546
G01 X28.0764 Y77.7300
G01 X28.0667 Y77.7493
G01 X28.0561 Y77.7681
G01 X28.0075 Y77.8488
G01 X27.9955 Y77.8668
G01 X27.9892 Y77.8755
G01 X27.9395 Y77.9425
G01 X27.9262 Y77.9596
G01 X27.9121 Y77.9759
G01 X27.8561 Y78.0377
G01 X27.8412 Y78.0534
G01 X27.8255 Y78.0683
G01 X27.7637 Y78.1243
G01 X27.7474 Y78.1384
G01 X27.7304 Y78.1517
G01 X27.6634 Y78.2014
G01 X27.6457 Y78.2138
G01 X27.6275 Y78.2253
G01 X27.5559 Y78.2682
G01 X27.5371 Y78.2789
G01 X27.5178 Y78.2886
G01 X27.4424 Y78.3243
G01 X27.4227 Y78.3330
G01 X27.4127 Y78.3370
G01 X27.3240 Y78.3689
G01 X27.3138 Y78.3724
G01 X27.2931 Y78.3787
G01 X27.1913 Y78.4042
G01 X27.1701 Y78.4084
G01 X27.1520 Y78.4112
G01 X27.1701 Y78.4140
G01 X27.1913 Y78.4182
G01 X27.2931 Y78.4437
G01 X27.3035 Y78.4467
G01 X27.3240 Y78.4535
G01 X27.4127 Y78.4854
G01 X27.4227 Y78.4894
G01 X27.4424 Y78.4981
G01 X27.5178 Y78.5338
G01 X27.5371 Y78.5435
G01 X27.5559 Y78.5542
G01 X27.6367 Y78.6027
G01 X27.6546 Y78.6147
G01 X27.6634 Y78.6210
G01 X27.7304 Y78.6707
G01 X27.7474 Y78.6840
G01 X27.7637 Y78.6981
G01 X27.8255 Y78.7541
G01 X27.8412 Y78.7690
G01 X27.8561 Y78.7847
G01 X27.9121 Y78.8465
G01 X27.9262 Y78.8628
G01 X27.9395 Y78.8799
G01 X27.9892 Y78.9469
G01 X28.0016 Y78.9645
G01 X28.0132 Y78.9828
G01 X28.0561 Y79.0543
G01 X28.0667 Y79.0731
G01 X28.0764 Y79.0924
G01 X28.1121 Y79.1678
G01 X28.1208 Y79.1875
G01 X28.1286 Y79.2077
G01 X28.1567 Y79.2862
G01 X28.1635 Y79.3067
G01 X28.1692 Y79.3275
G01 X28.1895 Y79.4085
G01 X28.1920 Y79.4190
G01 X28.1962 Y79.4402
G01 X28.2102 Y79.5333
G01 X28.2116 Y79.5440
G01 X28.2137 Y79.5655
G01 X28.2189 Y79.6704
G01 X28.2190 Y79.6812
G01 X28.2185 Y79.7028
G01 X28.2137 Y79.7969
G01 X28.2128 Y79.8076
G01 X28.2102 Y79.8291
G01 X28.1979 Y79.9116
G01 X28.1942 Y79.9329
G01 X28.1895 Y79.9539
G01 X28.1730 Y80.0199
G01 X28.8356 Y80.6826
G01 X28.8505 Y80.6982
G01 X28.8709 Y80.7209
G01 X28.8846 Y80.7376
G01 X28.9091 Y80.7707
G01 X28.9211 Y80.7886
G01 X28.9369 Y80.8147
G01 X28.9475 Y80.8335
G01 X28.9572 Y80.8527
G01 X28.9701 Y80.8803
G01 X28.9744 Y80.8902
G01 X28.9784 Y80.9003
G01 X28.9888 Y80.9289
G01 X28.9956 Y80.9494
G01 X29.0013 Y80.9702
G01 X29.0086 Y80.9998
G01 X29.0108 Y81.0103
G01 X29.0128 Y81.0209
G01 X29.0174 Y81.0510
G01 X29.0200 Y81.0725
G01 X29.0216 Y81.0940
G01 X29.0230 Y81.1244
G01 X29.0231 Y81.1352
G01 X29.0230 Y82.8325
G01 X29.0210 Y82.8737
G01 X29.0188 Y82.8952
G01 X29.0174 Y82.9059
G01 X29.0128 Y82.9360
G01 X29.0108 Y82.9466
G01 X29.0061 Y82.9676
G01 X28.9986 Y82.9971
G01 X28.9956 Y83.0075
G01 X28.9888 Y83.0280
G01 X28.9784 Y83.0566
G01 X28.9744 Y83.0667
G01 X28.9701 Y83.0766
G01 X28.9572 Y83.1042
G01 X28.9525 Y83.1139
G01 X28.9423 Y83.1329
G01 X28.9268 Y83.1591
G01 X28.9152 Y83.1773
G01 X28.9091 Y83.1862
G01 X28.8911 Y83.2107
G01 X28.8846 Y83.2193
G01 X28.8709 Y83.2360
G01 X28.8432 Y83.2666
G01 X26.8554 Y85.2544
G01 X26.8329 Y85.2749
G01 X26.8166 Y85.2890
G01 X26.7996 Y85.3023
G01 X26.7750 Y85.3203
G01 X26.7661 Y85.3264
G01 X26.7479 Y85.3380
G01 X26.7217 Y85.3535
G01 X26.7027 Y85.3637
G01 X26.6752 Y85.3768
G01 X26.6555 Y85.3856
G01 X26.6353 Y85.3933
G01 X26.6066 Y85.4035
G01 X26.5860 Y85.4097
G01 X26.5565 Y85.4173
G01 X26.5354 Y85.4220
G01 X26.5248 Y85.4240
G01 X26.4947 Y85.4286
G01 X26.4733 Y85.4312
G01 X26.4517 Y85.4328
G01 X26.4213 Y85.4342
G01 X26.4105 Y85.4343
G01 X5.8766 Y85.4343
G01 X5.8550 Y85.4338
G01 X5.8246 Y85.4321
G01 X5.8139 Y85.4312
G01 X5.7924 Y85.4286
G01 X5.7624 Y85.4240
G01 X5.7517 Y85.4220
G01 X5.7307 Y85.4173
G01 X5.7012 Y85.4097
G01 X5.6908 Y85.4067
G01 X5.6703 Y85.4000
G01 X5.6417 Y85.3896
G01 X5.6317 Y85.3856
G01 X5.6217 Y85.3813
G01 X5.5942 Y85.3684
G01 X5.5845 Y85.3637
G01 X5.5654 Y85.3535
G01 X5.5392 Y85.3380
G01 X5.5210 Y85.3264
G01 X5.5121 Y85.3203
G01 X5.4876 Y85.3023
G01 X5.4790 Y85.2958
G01 X5.4623 Y85.2821
G01 X5.4317 Y85.2544
G01 X4.0780 Y83.9008
G01 X4.0631 Y83.8852
G01 X4.0428 Y83.8625
G01 X4.0291 Y83.8458
G01 X4.0045 Y83.8127
G01 X3.9925 Y83.7948
G01 X3.9767 Y83.7687
G01 X3.9661 Y83.7499
G01 X3.9564 Y83.7307
G01 X3.9435 Y83.7031
G01 X3.9392 Y83.6932
G01 X3.9352 Y83.6831
G01 X3.9249 Y83.6545
G01 X3.9181 Y83.6340
G01 X3.9123 Y83.6132
G01 X3.9051 Y83.5836
G01 X3.9028 Y83.5731
G01 X3.9008 Y83.5625
G01 X3.8962 Y83.5324
G01 X3.8936 Y83.5109
G01 X3.8920 Y83.4894
G01 X3.8907 Y83.4590
G01 X3.8905 Y12.0082
G01 X3.8907 Y11.9974
G01 X3.8920 Y11.9670
G01 X3.8936 Y11.9455
G01 X3.8948 Y11.9347
G01 X3.8991 Y11.9046
G01 X3.9028 Y11.8833
G01 X3.9051 Y11.8728
G01 X3.9123 Y11.8432
G01 X3.9181 Y11.8224
G01 X3.9249 Y11.8019
G01 X3.9352 Y11.7733
G01 X3.9392 Y11.7632
G01 X3.9480 Y11.7435
G01 X3.9611 Y11.7160
G01 X3.9661 Y11.7065
G01 X3.9767 Y11.6877
G01 X3.9925 Y11.6616
G01 X3.9984 Y11.6526
G01 X4.0045 Y11.6437
G01 X4.0225 Y11.6192
G01 X4.0358 Y11.6021
G01 X4.0428 Y11.5939
G01 X4.0631 Y11.5712
G01 X4.0780 Y11.5556
G01 X8.3869 Y7.2467
G01 X8.4025 Y7.2318
G01 X8.4252 Y7.2114
G01 X8.4334 Y7.2045
G01 X8.4505 Y7.1912
G01 X8.4750 Y7.1732
G01 X8.4839 Y7.1671
G01 X8.5021 Y7.1555
G01 X8.5283 Y7.1400
G01 X8.5474 Y7.1298
G01 X8.5571 Y7.1251
G01 X8.5846 Y7.1122
G01 X8.6046 Y7.1039
G01 X8.6332 Y7.0935
G01 X8.6537 Y7.0868
G01 X8.6745 Y7.0810
G01 X8.7041 Y7.0737
G01 X8.7253 Y7.0695
G01 X8.7553 Y7.0649
G01 X8.7768 Y7.0623
G01 X8.7983 Y7.0607
G01 X8.8287 Y7.0593
G01 X8.8395 Y7.0592
G01 X10.0030 Y7.0593
G01 X10.0334 Y7.0607
G01 X10.0550 Y7.0623
G01 X10.0657 Y7.0635
G01 X10.0958 Y7.0678
G01 X10.1171 Y7.0715
G01 X10.1277 Y7.0737
G01 X10.1572 Y7.0810
G01 X10.1780 Y7.0868
G01 X10.1985 Y7.0935
G01 X10.2271 Y7.1039
G01 X10.2471 Y7.1122
G01 X10.2569 Y7.1167
G01 X10.2844 Y7.1298
G01 X10.2940 Y7.1348
G01 X10.3128 Y7.1454
G01 X10.3388 Y7.1612
G01 X10.3478 Y7.1671
G01 X10.3567 Y7.1732
G01 X10.3813 Y7.1912
G01 X10.3983 Y7.2045
G01 X10.4066 Y7.2114
G01 X10.4292 Y7.2318
G01 X10.4448 Y7.2467
G01 X16.0612 Y12.8630
G01 X20.7649 Y12.8631
G01 X20.7953 Y12.8645
G01 X20.8169 Y12.8661
G01 X20.8276 Y12.8673
G01 X20.8577 Y12.8716
G01 X20.8790 Y12.8753
G01 X20.8896 Y12.8775
G01 X20.9191 Y12.8848
G01 X20.9399 Y12.8906
G01 X20.9604 Y12.8973
G01 X20.9890 Y12.9077
G01 X20.9991 Y12.9117
G01 X21.0090 Y12.9160
G01 X21.0366 Y12.9289
G01 X21.0559 Y12.9386
G01 X21.0747 Y12.9492
G01 X21.1007 Y12.9650
G01 X21.1097 Y12.9709
G01 X21.1186 Y12.9770
G01 X21.1432 Y12.9950
G01 X21.1602 Y13.0083
G01 X21.1765 Y13.0224
G01 X21.1990 Y13.0429
G01 X24.2595 Y16.1034
G01 X24.2872 Y16.1340
G01 X24.3009 Y16.1507
G01 X24.3254 Y16.1838
G01 X24.3315 Y16.1927
G01 X24.3431 Y16.2109
G01 X24.3586 Y16.2371
G01 X24.3638 Y16.2466
G01 X24.3688 Y16.2561
G01 X24.3819 Y16.2836
G01 X24.3907 Y16.3033
G01 X24.3947 Y16.3134
G01 X24.4086 Y16.3522
G01 X24.4119 Y16.3625
G01 X24.4176 Y16.3833
G01 X24.4249 Y16.4129
G01 X24.4291 Y16.4340
G01 X24.4337 Y16.4641
G01 X24.4363 Y16.4856
G01 X24.4379 Y16.5071
G01 X24.4393 Y16.5375
G01 X24.4394 Y17.7597
G01 X24.4591 Y17.7750
G01 X24.4754 Y17.7891
G01 X24.5270 Y17.8360
G01 X24.5423 Y17.8512
G01 X24.5891 Y17.9028
G01 X24.6033 Y17.9191
G01 X24.6165 Y17.9362
G01 X24.6516 Y17.9835
G01 X24.6640 Y18.0011
G01 X24.6756 Y18.0194
G01 X24.7059 Y18.0699
G01 X24.7165 Y18.0886
G01 X24.7262 Y18.1079
G01 X24.7514 Y18.1612
G01 X24.7602 Y18.1809
G01 X24.7679 Y18.2011
G01 X24.7913 Y18.2667
G01 X24.7975 Y18.2874
G01 X24.8146 Y18.3549
G01 X24.8193 Y18.3760
G01 X24.8230 Y18.3973
G01 X24.8331 Y18.4662
G01 X24.8352 Y18.4877
G01 X24.8388 Y18.5573
G01 X24.8393 Y18.5789
G01 X24.8388 Y18.6005
G01 X24.8359 Y18.6593
G01 X24.8343 Y18.6808
G01 X24.8317 Y18.7023
G01 X24.8230 Y18.7605
G01 X24.8193 Y18.7818
G01 X24.8146 Y18.8029
G01 X24.8003 Y18.8600
G01 X24.7945 Y18.8808
G01 X24.7878 Y18.9013
G01 X24.7642 Y18.9669
G01 X24.7602 Y18.9769
G01 X24.7514 Y18.9966
G01 X24.7262 Y19.0499
G01 X24.7165 Y19.0692
G01 X24.7059 Y19.0879
G01 X24.6756 Y19.1384
G01 X24.6640 Y19.1567
G01 X24.6516 Y19.1743
G01 X24.6165 Y19.2216
G01 X24.6033 Y19.2387
G01 X24.5891 Y19.2550
G01 X24.5423 Y19.3066
G01 X24.5270 Y19.3218
G01 X24.5191 Y19.3292
G01 X24.4754 Y19.3687
G01 X24.4591 Y19.3828
G01 X24.4421 Y19.3961
G01 X24.3948 Y19.4312
G01 X24.3771 Y19.4436
G01 X24.3681 Y19.4495
G01 X24.3084 Y19.4855
G01 X24.2990 Y19.4909
G01 X24.2800 Y19.5011
G01 X24.2072 Y19.5355
G01 X24.1873 Y19.5437
G01 X24.1772 Y19.5475
G01 X24.1115 Y19.5709
G01 X24.0908 Y19.5771
G01 X24.0804 Y19.5799
G01 X24.0233 Y19.5942
G01 X24.0022 Y19.5989
G01 X23.9809 Y19.6026
G01 X23.9227 Y19.6112
G01 X23.9013 Y19.6139
G01 X23.8797 Y19.6155
G01 X23.8209 Y19.6184
G01 X23.7993 Y19.6189
G01 X23.7777 Y19.6184
G01 X23.7189 Y19.6155
G01 X23.6974 Y19.6139
G01 X23.6866 Y19.6127
G01 X23.6177 Y19.6026
G01 X23.6070 Y19.6009
G01 X23.5859 Y19.5967
G01 X23.5078 Y19.5771
G01 X23.4871 Y19.5709
G01 X23.4769 Y19.5673
G01 X23.4114 Y19.5437
G01 X23.4013 Y19.5397
G01 X23.3816 Y19.5310
G01 X23.3284 Y19.5058
G01 X23.3091 Y19.4961
G01 X23.2903 Y19.4855
G01 X23.2398 Y19.4552
G00 Z2.0000
G00 X23.6856 Y19.7333
G01 F60.00
G01 Z-0.0200
G01 F120.00
G01 X23.6780 Y19.7325
G01 X29.8380 Y25.8927
G01 X29.8605 Y25.9173
G01 X29.8785 Y25.9381
G01 X29.8954 Y25.9598
G01 X29.9151 Y25.9867
G01 X29.9229 Y25.9980
G01 X29.9304 Y26.0095
G01 X29.9477 Y26.0381
G01 X29.9613 Y26.0620
G01 X29.9736 Y26.0865
G01 X29.9877 Y26.1168
G01 X29.9983 Y26.1422
G01 X30.0097 Y26.1736
G01 X30.0183 Y26.1997
G01 X30.0256 Y26.2261
G01 X30.0336 Y26.2586
G01 X30.0389 Y26.2855
G01 X30.0458 Y26.3321
G01 X30.0485 Y26.3595
G01 X30.0503 Y26.3928
G01 X30.0510 Y26.4203
G01 X30.0510 Y72.2393
G01 X30.0509 Y72.2530
G01 X30.0494 Y72.2864
G01 X30.0474 Y72.3138
G01 X30.0440 Y72.3411
G01 X30.0389 Y72.3741
G01 X30.0336 Y72.4010
G01 X30.0256 Y72.4335
G01 X30.0183 Y72.4599
G01 X30.0097 Y72.4860
G01 X29.9983 Y72.5174
G01 X29.9932 Y72.5302
G01 X29.9820 Y72.5553
G01 X29.9676 Y72.5854
G01 X29.9546 Y72.6096
G01 X29.9376 Y72.6384
G01 X29.9229 Y72.6616
G01 X29.9071 Y72.6841
G01 X29.8871 Y72.7108
G01 X29.8696 Y72.7320
G01 X29.8473 Y72.7569
G01 X29.8284 Y72.7768
G01 X28.3059 Y74.2993
G01 X28.3119 Y74.3261
G01 X28.3166 Y74.3532
G01 X28.3307 Y74.4493
G01 X28.3322 Y74.4630
G01 X28.3343 Y74.4904
G01 X28.3383 Y74.5737
G01 X28.3390 Y74.6012
G01 X28.3389 Y74.6149
G01 X28.3343 Y74.7120
G01 X28.3334 Y74.7257
G01 X28.3307 Y74.7531
G01 X28.3166 Y74.8492
G01 X28.3119 Y74.8763
G01 X28.3059 Y74.9031
G01 X28.2856 Y74.9840
G01 X28.2783 Y75.0105
G01 X28.2697 Y75.0366
G01 X28.2416 Y75.1151
G01 X28.2317 Y75.1408
G01 X28.2206 Y75.1659
G01 X28.1849 Y75.2413
G01 X28.1725 Y75.2659
G01 X28.1590 Y75.2898
G01 X28.1089 Y75.3730
G01 X28.0936 Y75.3959
G01 X28.0856 Y75.4070
G01 X28.0359 Y75.4740
G01 X28.0190 Y75.4957
G01 X28.0101 Y75.5062
G01 X27.9450 Y75.5783
G01 X27.9356 Y75.5884
G01 X27.9162 Y75.6078
G01 X27.8443 Y75.6732
G01 X27.8235 Y75.6911
G01 X27.8018 Y75.7081
G01 X27.7237 Y75.7658
G01 X27.7124 Y75.7736
G01 X27.6892 Y75.7883
G01 X27.6057 Y75.8381
G01 X27.5815 Y75.8510
G01 X27.5393 Y75.8712
G01 X27.5815 Y75.8914
G01 X27.6057 Y75.9043
G01 X27.7009 Y75.9613
G01 X27.7124 Y75.9688
G01 X27.7348 Y75.9847
G01 X27.8018 Y76.0343
G01 X27.8235 Y76.0513
G01 X27.8340 Y76.0601
G01 X27.9061 Y76.1252
G01 X27.9260 Y76.1442
G01 X27.9450 Y76.1641
G01 X28.0010 Y76.2259
G01 X28.0190 Y76.2467
G01 X28.0359 Y76.2684
G01 X28.0856 Y76.3354
G01 X28.0936 Y76.3465
G01 X28.1089 Y76.3694
G01 X28.1590 Y76.4526
G01 X28.1725 Y76.4765
G01 X28.1849 Y76.5011
G01 X28.2206 Y76.5765
G01 X28.2317 Y76.6016
G01 X28.2416 Y76.6273
G01 X28.2697 Y76.7058
G01 X28.2783 Y76.7319
G01 X28.2856 Y76.7584
G01 X28.3059 Y76.8393
G01 X28.3119 Y76.8661
G01 X28.3166 Y76.8932
G01 X28.3289 Y76.9757
G01 X28.3322 Y77.0030
G01 X28.3343 Y77.0304
G01 X28.3383 Y77.1137
G01 X28.3390 Y77.1412
G01 X28.3383 Y77.1687
G01 X28.3343 Y77.2520
G01 X28.3322 Y77.2794
G01 X28.3289 Y77.3067
G01 X28.3166 Y77.3892
G01 X28.3119 Y77.4163
G01 X28.3059 Y77.4431
G01 X28.2856 Y77.5240
G01 X28.2783 Y77.5505
G01 X28.2697 Y77.5766
G01 X28.2416 Y77.6551
G01 X28.2317 Y77.6808
G01 X28.2206 Y77.7059
G01 X28.1849 Y77.7813
G01 X28.1725 Y77.8059
G01 X28.1590 Y77.8298
G01 X28.1089 Y77.9130
G01 X28.0936 Y77.9359
G01 X28.0856 Y77.9470
G01 X28.0359 Y78.0140
G01 X28.0190 Y78.0357
G01 X28.0010 Y78.0565
G01 X27.9450 Y78.1183
G01 X27.9260 Y78.1382
G01 X27.9061 Y78.1572
G01 X27.8340 Y78.2223
G01 X27.8235 Y78.2311
G01 X27.8018 Y78.2481
G01 X27.7348 Y78.2977
G01 X27.7237 Y78.3058
G01 X27.7009 Y78.3211
G01 X27.6057 Y78.3781
G01 X27.5815 Y78.3910
G01 X27.5393 Y78.4112
G01 X27.5815 Y78.4314
G01 X27.6057 Y78.4443
G01 X27.7009 Y78.5013
G01 X27.7237 Y78.5166
G01 X27.7348 Y78.5247
G01 X27.8018 Y78.5743
G01 X27.8128 Y78.5827
G01 X27.8340 Y78.6001
G01 X27.9061 Y78.6652
G01 X27.9260 Y78.6842
G01 X27.9450 Y78.7041
G01 X28.0010 Y78.7659
G01 X28.0190 Y78.7867
G01 X28.0359 Y78.8084
G01 X28.0856 Y78.8754
G01 X28.0936 Y78.8865
G01 X28.1089 Y78.9094
G01 X28.1590 Y78.9926
G01 X28.1725 Y79.0165
G01 X28.1849 Y79.0411
G01 X28.2206 Y79.1165
G01 X28.2317 Y79.1416
G01 X28.2416 Y79.1673
G01 X28.2697 Y79.2458
G01 X28.2783 Y79.2719
G01 X28.2856 Y79.2984
G01 X28.3059 Y79.3793
G01 X28.3091 Y79.3927
G01 X28.3144 Y79.4196
G01 X28.3289 Y79.5157
G01 X28.3322 Y79.5430
G01 X28.3343 Y79.5704
G01 X28.3383 Y79.6537
G01 X28.3390 Y79.6812
G01 X28.3389 Y79.6949
G01 X28.3343 Y79.7920
G01 X28.3322 Y79.8194
G01 X28.3307 Y79.8331
G01 X28.3144 Y79.9428
G01 X28.3091 Y79.9697
G01 X28.3059 Y79.9831
G01 X28.9205 Y80.5977
G01 X28.9394 Y80.6176
G01 X28.9617 Y80.6425
G01 X28.9792 Y80.6637
G01 X29.0072 Y80.7016
G01 X29.0225 Y80.7244
G01 X29.0467 Y80.7649
G01 X29.0597 Y80.7891
G01 X29.0798 Y80.8317
G01 X29.0904 Y80.8571
G01 X29.1062 Y80.9015
G01 X29.1142 Y80.9278
G01 X29.1225 Y80.9601
G01 X29.1285 Y80.9869
G01 X29.1332 Y81.0140
G01 X29.1379 Y81.0470
G01 X29.1406 Y81.0744
G01 X29.1424 Y81.1077
G01 X29.1431 Y81.1352
G01 X29.1430 Y82.8354
G01 X29.1406 Y82.8825
G01 X29.1379 Y82.9099
G01 X29.1361 Y82.9235
G01 X29.1310 Y82.9565
G01 X29.1285 Y82.9700
G01 X29.1225 Y82.9968
G01 X29.1142 Y83.0291
G01 X29.1104 Y83.0423
G01 X29.1018 Y83.0684
G01 X29.0904 Y83.0998
G01 X29.0853 Y83.1126
G01 X29.0798 Y83.1252
G01 X29.0657 Y83.1555
G01 X29.0597 Y83.1678
G01 X29.0467 Y83.1920
G01 X29.0297 Y83.2208
G01 X29.0150 Y83.2440
G01 X29.0072 Y83.2553
G01 X28.9875 Y83.2822
G01 X28.9792 Y83.2932
G01 X28.9617 Y83.3144
G01 X28.9301 Y83.3493
G01 X26.9382 Y85.3413
G01 X26.9135 Y85.3638
G01 X26.8927 Y85.3818
G01 X26.8711 Y85.3987
G01 X26.8441 Y85.4184
G01 X26.8328 Y85.4262
G01 X26.8096 Y85.4409
G01 X26.7809 Y85.4579
G01 X26.7566 Y85.4709
G01 X26.7265 Y85.4853
G01 X26.7014 Y85.4964
G01 X26.6758 Y85.5063
G01 X26.6443 Y85.5174
G01 X26.6180 Y85.5254
G01 X26.5856 Y85.5337
G01 X26.5588 Y85.5397
G01 X26.5453 Y85.5422
G01 X26.5123 Y85.5473
G01 X26.4850 Y85.5506
G01 X26.4576 Y85.5527
G01 X26.4243 Y85.5541
G01 X26.4105 Y85.5543
G01 X5.8766 Y85.5543
G01 X5.8491 Y85.5536
G01 X5.8158 Y85.5518
G01 X5.8021 Y85.5506
G01 X5.7748 Y85.5473
G01 X5.7418 Y85.5422
G01 X5.7283 Y85.5397
G01 X5.7015 Y85.5337
G01 X5.6692 Y85.5254
G01 X5.6429 Y85.5174
G01 X5.6299 Y85.5129
G01 X5.5985 Y85.5015
G01 X5.5857 Y85.4964
G01 X5.5731 Y85.4910
G01 X5.5429 Y85.4769
G01 X5.5183 Y85.4645
G01 X5.5063 Y85.4579
G01 X5.4659 Y85.4337
G01 X5.4430 Y85.4184
G01 X5.4319 Y85.4104
G01 X5.4051 Y85.3904
G01 X5.3944 Y85.3818
G01 X5.3839 Y85.3729
G01 X5.3591 Y85.3506
G01 X5.3391 Y85.3317
G01 X3.9931 Y83.9857
G01 X3.9742 Y83.9658
G01 X3.9519 Y83.9409
G01 X3.9345 Y83.9197
G01 X3.9064 Y83.8818
G01 X3.8911 Y83.8590
G01 X3.8738 Y83.8304
G01 X3.8603 Y83.8065
G01 X3.8479 Y83.7820
G01 X3.8338 Y83.7517
G01 X3.8284 Y83.7391
G01 X3.8233 Y83.7263
G01 X3.8119 Y83.6949
G01 X3.8032 Y83.6688
G01 X3.7959 Y83.6424
G01 X3.7880 Y83.6099
G01 X3.7851 Y83.5965
G01 X3.7826 Y83.5830
G01 X3.7775 Y83.5500
G01 X3.7742 Y83.5227
G01 X3.7722 Y83.4953
G01 X3.7707 Y83.4619
G01 X3.7705 Y12.0082
G01 X3.7707 Y11.9945
G01 X3.7722 Y11.9611
G01 X3.7742 Y11.9337
G01 X3.7757 Y11.9200
G01 X3.7804 Y11.8870
G01 X3.7851 Y11.8599
G01 X3.7880 Y11.8465
G01 X3.7959 Y11.8140
G01 X3.8032 Y11.7876
G01 X3.8119 Y11.7615
G01 X3.8233 Y11.7301
G01 X3.8284 Y11.7173
G01 X3.8338 Y11.7047
G01 X3.8479 Y11.6744
G01 X3.8603 Y11.6499
G01 X3.8738 Y11.6260
G01 X3.8911 Y11.5974
G01 X3.8986 Y11.5859
G01 X3.9064 Y11.5746
G01 X3.9261 Y11.5477
G01 X3.9431 Y11.5260
G01 X3.9519 Y11.5155
G01 X3.9742 Y11.4906
G01 X3.9931 Y11.4707
G01 X8.3020 Y7.1618
G01 X8.3220 Y7.1429
G01 X8.3468 Y7.1206
G01 X8.3680 Y7.1031
G01 X8.3948 Y7.0831
G01 X8.4172 Y7.0673
G01 X8.4405 Y7.0526
G01 X8.4692 Y7.0356
G01 X8.4934 Y7.0226
G01 X8.5235 Y7.0082
G01 X8.5486 Y6.9971
G01 X8.5743 Y6.9872
G01 X8.6058 Y6.9761
G01 X8.6321 Y6.9681
G01 X8.6454 Y6.9646
G01 X8.6778 Y6.9567
G01 X8.7047 Y6.9513
G01 X8.7377 Y6.9462
G01 X8.7650 Y6.9429
G01 X8.7787 Y6.9417
G01 X8.8120 Y6.9399
G01 X8.8395 Y6.9392
G01 X9.9922 Y6.9392
G01 X10.0197 Y6.9399
G01 X10.0530 Y6.9417
G01 X10.0804 Y6.9444
G01 X10.1270 Y6.9513
G01 X10.1540 Y6.9567
G01 X10.1864 Y6.9646
G01 X10.2129 Y6.9719
G01 X10.2390 Y6.9806
G01 X10.2703 Y6.9920
G01 X10.2831 Y6.9971
G01 X10.2957 Y7.0025
G01 X10.3260 Y7.0166
G01 X10.3505 Y7.0290
G01 X10.3744 Y7.0425
G01 X10.4030 Y7.0598
G01 X10.4145 Y7.0673
G01 X10.4258 Y7.0751
G01 X10.4528 Y7.0948
G01 X10.4744 Y7.1117
G01 X10.4849 Y7.1206
G01 X10.5098 Y7.1429
G01 X10.5297 Y7.1618
G01 X16.1109 Y12.7430
G01 X20.7541 Y12.7430
G01 X20.7816 Y12.7437
G01 X20.8149 Y12.7455
G01 X20.8423 Y12.7482
G01 X20.8889 Y12.7551
G01 X20.9159 Y12.7605
G01 X20.9483 Y12.7684
G01 X20.9748 Y12.7757
G01 X21.0009 Y12.7844
G01 X21.0322 Y12.7958
G01 X21.0450 Y12.8009
G01 X21.0576 Y12.8063
G01 X21.0879 Y12.8204
G01 X21.1124 Y12.8328
G01 X21.1363 Y12.8463
G01 X21.1649 Y12.8636
G01 X21.1764 Y12.8711
G01 X21.1877 Y12.8789
G01 X21.2147 Y12.8986
G01 X21.2363 Y12.9155
G01 X21.2571 Y12.9335
G01 X21.2818 Y12.9560
G01 X24.3464 Y16.0207
G01 X24.3780 Y16.0556
G01 X24.3955 Y16.0768
G01 X24.4235 Y16.1147
G01 X24.4313 Y16.1260
G01 X24.4460 Y16.1492
G01 X24.4630 Y16.1780
G01 X24.4760 Y16.2022
G01 X24.4820 Y16.2145
G01 X24.4961 Y16.2448
G01 X24.5016 Y16.2574
G01 X24.5067 Y16.2702
G01 X24.5181 Y16.3016
G01 X24.5267 Y16.3277
G01 X24.5340 Y16.3541
G01 X24.5420 Y16.3866
G01 X24.5473 Y16.4135
G01 X24.5524 Y16.4465
G01 X24.5558 Y16.4738
G01 X24.5578 Y16.5012
G01 X24.5593 Y16.5346
G01 X24.5594 Y17.7032
G01 X24.5997 Y17.7397
G01 X24.6196 Y17.7587
G01 X24.6385 Y17.7786
G01 X24.6872 Y17.8325
G01 X24.7046 Y17.8537
G01 X24.7129 Y17.8647
G01 X24.7480 Y17.9120
G01 X24.7638 Y17.9344
G01 X24.7785 Y17.9577
G01 X24.8157 Y18.0200
G01 X24.8223 Y18.0321
G01 X24.8347 Y18.0566
G01 X24.8599 Y18.1099
G01 X24.8710 Y18.1350
G01 X24.8809 Y18.1606
G01 X24.9052 Y18.2291
G01 X24.9094 Y18.2422
G01 X24.9167 Y18.2687
G01 X24.9342 Y18.3391
G01 X24.9395 Y18.3661
G01 X24.9504 Y18.4379
G01 X24.9537 Y18.4652
G01 X24.9558 Y18.4926
G01 X24.9586 Y18.5514
G01 X24.9592 Y18.5652
G01 X24.9592 Y18.5926
G01 X24.9558 Y18.6652
G01 X24.9537 Y18.6926
G01 X24.9504 Y18.7199
G01 X24.9395 Y18.7917
G01 X24.9370 Y18.8052
G01 X24.9310 Y18.8320
G01 X24.9167 Y18.8891
G01 X24.9094 Y18.9156
G01 X24.9007 Y18.9417
G01 X24.8809 Y18.9972
G01 X24.8710 Y19.0228
G01 X24.8599 Y19.0479
G01 X24.8347 Y19.1012
G01 X24.8223 Y19.1257
G01 X24.8088 Y19.1496
G01 X24.7785 Y19.2001
G01 X24.7638 Y19.2234
G01 X24.7480 Y19.2458
G01 X24.7129 Y19.2931
G01 X24.6960 Y19.3148
G01 X24.6781 Y19.3356
G01 X24.6385 Y19.3792
G01 X24.6196 Y19.3991
G01 X24.5997 Y19.4181
G01 X24.5560 Y19.4576
G01 X24.5352 Y19.4756
G01 X24.5135 Y19.4925
G01 X24.4663 Y19.5276
G01 X24.4438 Y19.5434
G01 X24.4206 Y19.5581
G01 X24.3582 Y19.5953
G01 X24.3339 Y19.6083
G01 X24.3216 Y19.6143
G01 X24.2559 Y19.6452
G01 X24.2305 Y19.6557
G01 X24.1492 Y19.6848
G01 X24.1228 Y19.6928
G01 X24.1096 Y19.6963
G01 X24.0524 Y19.7106
G01 X24.0256 Y19.7166
G01 X23.9985 Y19.7213
G01 X23.9403 Y19.7299
G01 X23.9130 Y19.7333
G01 X23.8856 Y19.7353
G01 X23.8268 Y19.7382
G01 X23.7993 Y19.7389
G01 X23.7718 Y19.7382
G01 X23.7130 Y19.7353
G01 X23.6856 Y19.7333
G00 Z2.0000
G00 X21.1991 Y20.9724
G01 F60.00
G01 Z-0.0200
G01 F120.00
G01 X21.1096 Y20.9502
G01 X21.0826 Y20.9448
G01 X20.9914 Y20.9311
G01 X20.9778 Y20.9293
G01 X20.9504 Y20.9266
G01 X20.8583 Y20.9219
G01 X20.8308 Y20.9212
G01 X20.8033 Y20.9219
G01 X20.7249 Y20.9257
G01 X20.7112 Y20.9266
G01 X20.6839 Y20.9293
G01 X20.5926 Y20.9426
G01 X20.5655 Y20.9473
G01 X20.5387 Y20.9534
G01 X20.4625 Y20.9724
G01 X20.4492 Y20.9759
G01 X20.4229 Y20.9839
G01 X20.3360 Y21.0148
G01 X20.3104 Y21.0247
G01 X20.2977 Y21.0301
G01 X20.2019 Y21.0755
G01 X20.1777 Y21.0884
G01 X20.1513 Y21.1040
G01 X20.1513 Y20.6884
G01 X20.1777 Y20.7040
G01 X20.2019 Y20.7169
G01 X20.2852 Y20.7565
G01 X20.2977 Y20.7623
G01 X20.3231 Y20.7728
G01 X20.4099 Y20.8040
G01 X20.4360 Y20.8126
G01 X20.4625 Y20.8200
G01 X20.5387 Y20.8390
G01 X20.5521 Y20.8422
G01 X20.5790 Y20.8476
G01 X20.6702 Y20.8613
G01 X20.6975 Y20.8647
G01 X20.7249 Y20.8667
G01 X20.8033 Y20.8705
G01 X20.8308 Y20.8712
G01 X20.8583 Y20.8705
G01 X20.9367 Y20.8667
G01 X20.9641 Y20.8647
G01 X20.9914 Y20.8613
G01 X21.0691 Y20.8498
G01 X21.0907 Y20.8461
G01 X21.2240 Y20.9793
G01 X21.1991 Y20.9724
G00 Z2.0000
G00 X18.7699 Y20.2695
G01 F60.00
G01 Z-0.0200
G01 F120.00
G01 X18.8223 Y20.3406
G01 X18.8727 Y20.4248
G01 X18.9147 Y20.5135
G01 X18.9478 Y20.6059
G01 X18.9716 Y20.7011
G01 X18.9860 Y20.7982
G01 X18.9908 Y20.8962
G01 X18.9860 Y20.9942
G01 X18.9716 Y21.0913
G01 X18.9478 Y21.1865
G01 X18.9147 Y21.2789
G01 X18.8727 Y21.3676
G01 X18.8223 Y21.4518
G01 X18.7638 Y21.5306
G01 X18.6979 Y21.6033
G01 X18.6252 Y21.6692
G01 X18.5464 Y21.7277
G01 X18.4622 Y21.7781
G01 X18.3735 Y21.8201
G01 X18.2811 Y21.8531
G01 X18.1859 Y21.8770
G01 X18.0888 Y21.8914
G01 X17.9908 Y21.8962
G01 X17.8928 Y21.8914
G01 X17.7957 Y21.8770
G01 X17.7005 Y21.8531
G01 X17.6081 Y21.8201
G01 X17.5194 Y21.7781
G01 X17.4352 Y21.7277
G01 X17.3564 Y21.6692
G01 X17.2837 Y21.6033
G01 X17.2178 Y21.5306
G01 X17.1594 Y21.4518
G01 X17.1089 Y21.3676
G01 X17.0669 Y21.2789
G01 X17.0339 Y21.1865
G01 X17.0100 Y21.0913
G01 X16.9956 Y20.9942
G01 X16.9908 Y20.8962
G01 X16.9956 Y20.7982
G01 X17.0100 Y20.7011
G01 X17.0339 Y20.6059
G01 X17.0669 Y20.5135
G01 X17.1089 Y20.4248
G01 X17.1594 Y20.3406
G01 X17.2178 Y20.2618
G01 X17.2837 Y20.1891
G01 X17.3564 Y20.1232
G01 X17.4352 Y20.0647
G01 X17.5194 Y20.0143
G01 X17.6081 Y19.9723
G01 X17.7005 Y19.9393
G01 X17.7957 Y19.9154
G01 X17.8928 Y19.9010
G01 X17.9908 Y19.8962
G01 X18.0888 Y19.9010
G01 X18.1859 Y19.9154
G01 X18.2811 Y19.9393
G01 X18.3735 Y19.9723
G01 X18.4622 Y20.0143
G01 X18.5464 Y20.0647
G01 X18.6252 Y20.1232
G01 X18.6979 Y20.1891
G01 X18.7574 Y20.2544
G01 X18.7699 Y20.2695
G00 Z2.0000
G00 X20.1658 Y17.9271
G01 F60.00
G01 Z-0.0200
G01 F120.00
G01 X20.1777 Y17.9340
G01 X20.2019 Y17.9469
G01 X20.2852 Y17.9865
G01 X20.3104 Y17.9977
G01 X20.3360 Y18.0076
G01 X20.4229 Y18.0385
G01 X20.4492 Y18.0465
G01 X20.5387 Y18.0690
G01 X20.5655 Y18.0751
G01 X20.5790 Y18.0776
G01 X20.6702 Y18.0913
G01 X20.6975 Y18.0947
G01 X20.7249 Y18.0967
G01 X20.8033 Y18.1005
G01 X20.8308 Y18.1012
G01 X20.8583 Y18.1005
G01 X20.9367 Y18.0967
G01 X20.9641 Y18.0947
G01 X20.9914 Y18.0913
G01 X21.0826 Y18.0776
G01 X21.1096 Y18.0722
G01 X21.1991 Y18.0500
G01 X21.2256 Y18.0426
G01 X21.2517 Y18.0340
G01 X21.3385 Y18.0028
G01 X21.3639 Y17.9923
G01 X21.4474 Y17.9530
G01 X21.4597 Y17.9469
G01 X21.4840 Y17.9340
G01 X21.5632 Y17.8867
G01 X21.5864 Y17.8720
G01 X21.6089 Y17.8562
G01 X21.6829 Y17.8011
G01 X21.7041 Y17.7836
G01 X21.7144 Y17.7745
G01 X21.7826 Y17.7125
G01 X21.8021 Y17.6930
G01 X21.8389 Y17.6526
G01 X21.8389 Y18.5998
G01 X21.8021 Y18.5594
G01 X21.7826 Y18.5399
G01 X21.7144 Y18.4779
G01 X21.6936 Y18.4599
G01 X21.6829 Y18.4513
G01 X21.6089 Y18.3962
G01 X21.5864 Y18.3804
G01 X21.5632 Y18.3657
G01 X21.4840 Y18.3184
G01 X21.4719 Y18.3118
G01 X21.4474 Y18.2994
G01 X21.3639 Y18.2601
G01 X21.3385 Y18.2496
G01 X21.2517 Y18.2184
G01 X21.2256 Y18.2098
G01 X21.1991 Y18.2024
G01 X21.1096 Y18.1802
G01 X21.0961 Y18.1773
G01 X21.0691 Y18.1726
G01 X20.9914 Y18.1611
G01 X20.9641 Y18.1577
G01 X20.9367 Y18.1557
G01 X20.8583 Y18.1519
G01 X20.8308 Y18.1512
G01 X20.8033 Y18.1519
G01 X20.7249 Y18.1557
G01 X20.6975 Y18.1577
G01 X20.6702 Y18.1611
G01 X20.5790 Y18.1748
G01 X20.5521 Y18.1802
G01 X20.5387 Y18.1834
G01 X20.4625 Y18.2024
G01 X20.4360 Y18.2098
G01 X20.4099 Y18.2184
G01 X20.3231 Y18.2496
G01 X20.3104 Y18.2547
G01 X20.2852 Y18.2659
G01 X20.2019 Y18.3055
G01 X20.1777 Y18.3184
G01 X20.1513 Y18.3340
G01 X20.1513 Y17.9184
G01 X20.1658 Y17.9271
G00 Z2.0000
G00 X20.0359 Y17.6928
G01 F60.00
G01 Z-0.0200
G01 F120.00
G01 X20.0526 Y17.7065
G01 X20.0612 Y17.7130
G01 X20.1243 Y17.7598
G01 X20.1419 Y17.7722
G01 X20.1602 Y17.7838
G01 X20.2275 Y17.8241
G01 X20.2463 Y17.8348
G01 X20.2656 Y17.8445
G01 X20.3365 Y17.8781
G01 X20.3563 Y17.8868
G01 X20.3764 Y17.8946
G01 X20.4504 Y17.9210
G01 X20.4709 Y17.9278
G01 X20.4917 Y17.9336
G01 X20.5678 Y17.9526
G01 X20.5889 Y17.9574
G01 X20.6102 Y17.9611
G01 X20.6878 Y17.9726
G01 X20.6985 Y17.9740
G01 X20.7200 Y17.9762
G01 X20.8200 Y17.9811
G01 X20.8308 Y17.9812
G01 X20.8524 Y17.9807
G01 X20.9308 Y17.9768
G01 X20.9524 Y17.9752
G01 X20.9738 Y17.9726
G01 X21.0515 Y17.9611
G01 X21.0727 Y17.9574
G01 X21.0833 Y17.9551
G01 X21.1804 Y17.9308
G01 X21.2011 Y17.9245
G01 X21.2113 Y17.9210
G01 X21.2852 Y17.8946
G01 X21.3053 Y17.8868
G01 X21.3251 Y17.8781
G01 X21.3961 Y17.8445
G01 X21.4154 Y17.8348
G01 X21.4341 Y17.8241
G01 X21.5015 Y17.7838
G01 X21.5197 Y17.7722
G01 X21.5374 Y17.7598
G01 X21.6004 Y17.7130
G01 X21.6175 Y17.6997
G01 X21.6338 Y17.6856
G01 X21.6920 Y17.6329
G01 X21.7076 Y17.6180
G01 X21.7225 Y17.6024
G01 X21.7752 Y17.5442
G01 X21.7894 Y17.5278
G01 X21.7961 Y17.5194
G01 X21.8557 Y17.4390
G01 X21.8618 Y17.4301
G01 X21.8734 Y17.4119
G01 X21.9138 Y17.3445
G01 X21.9244 Y17.3257
G01 X21.9341 Y17.3064
G01 X21.9589 Y17.2540
G01 X21.9589 Y18.9984
G01 X21.9341 Y18.9460
G01 X21.9244 Y18.9267
G01 X21.9138 Y18.9079
G01 X21.8734 Y18.8405
G01 X21.8618 Y18.8223
G01 X21.8557 Y18.8134
G01 X21.7961 Y18.7330
G01 X21.7894 Y18.7246
G01 X21.7752 Y18.7082
G01 X21.7225 Y18.6500
G01 X21.7076 Y18.6344
G01 X21.6920 Y18.6195
G01 X21.6338 Y18.5668
G01 X21.6175 Y18.5527
G01 X21.6004 Y18.5394
G01 X21.5374 Y18.4926
G01 X21.5197 Y18.4802
G01 X21.5015 Y18.4686
G01 X21.4341 Y18.4283
G01 X21.4154 Y18.4176
G01 X21.3961 Y18.4079
G01 X21.3251 Y18.3743
G01 X21.3053 Y18.3656
G01 X21.2852 Y18.3578
G01 X21.2113 Y18.3314
G01 X21.2011 Y18.3279
G01 X21.1804 Y18.3216
G01 X21.0833 Y18.2973
G01 X21.0727 Y18.2950
G01 X21.0515 Y18.2913
G01 X20.9738 Y18.2798
G01 X20.9524 Y18.2772
G01 X20.9308 Y18.2756
G01 X20.8524 Y18.2717
G01 X20.8308 Y18.2712
G01 X20.8200 Y18.2713
G01 X20.7200 Y18.2762
G01 X20.7093 Y18.2772
G01 X20.6878 Y18.2798
G01 X20.6102 Y18.2913
G01 X20.5889 Y18.2950
G01 X20.5678 Y18.2998
G01 X20.4917 Y18.3188
G01 X20.4709 Y18.3246
G01 X20.4504 Y18.3314
G01 X20.3764 Y18.3578
G01 X20.3563 Y18.3656
G01 X20.3365 Y18.3743
G01 X20.2656 Y18.4079
G01 X20.2463 Y18.4176
G01 X20.2275 Y18.4283
G01 X20.1602 Y18.4686
G01 X20.1419 Y18.4802
G01 X20.1243 Y18.4926
G01 X20.0612 Y18.5394
G01 X20.0442 Y18.5527
G01 X20.0313 Y18.5637
G01 X20.0313 Y17.6887
G01 X20.0359 Y17.6928
G00 Z2.0000
G00 X19.9554 Y17.4393
G01 F60.00
G01 Z-0.0200
G01 F120.00
G01 X19.9701 Y17.4577
G01 X20.0280 Y17.5218
G01 X20.0389 Y17.5332
G01 X20.0502 Y17.5440
G01 X20.1084 Y17.5967
G01 X20.1203 Y17.6070
G01 X20.1327 Y17.6166
G01 X20.1957 Y17.6634
G01 X20.2086 Y17.6724
G01 X20.2219 Y17.6808
G01 X20.2892 Y17.7212
G01 X20.3029 Y17.7290
G01 X20.3169 Y17.7360
G01 X20.3879 Y17.7696
G01 X20.4022 Y17.7759
G01 X20.4169 Y17.7816
G01 X20.4908 Y17.8080
G01 X20.5057 Y17.8130
G01 X20.5208 Y17.8172
G01 X20.5970 Y17.8362
G01 X20.6123 Y17.8397
G01 X20.6278 Y17.8424
G01 X20.7055 Y17.8539
G01 X20.7210 Y17.8558
G01 X20.7367 Y17.8570
G01 X20.8151 Y17.8608
G01 X20.8308 Y17.8612
G01 X20.8465 Y17.8608
G01 X20.9249 Y17.8570
G01 X20.9406 Y17.8558
G01 X20.9562 Y17.8539
G01 X21.0338 Y17.8424
G01 X21.0570 Y17.8381
G01 X21.1408 Y17.8172
G01 X21.1559 Y17.8130
G01 X21.1709 Y17.8080
G01 X21.2448 Y17.7816
G01 X21.2594 Y17.7759
G01 X21.2738 Y17.7696
G01 X21.3448 Y17.7360
G01 X21.3588 Y17.7290
G01 X21.3725 Y17.7212
G01 X21.4398 Y17.6808
G01 X21.4531 Y17.6724
G01 X21.4659 Y17.6634
G01 X21.5352 Y17.6119
G01 X21.5532 Y17.5967
G01 X21.6114 Y17.5440
G01 X21.6228 Y17.5332
G01 X21.6336 Y17.5218
G01 X21.6863 Y17.4636
G01 X21.7015 Y17.4456
G01 X21.7530 Y17.3763
G01 X21.7621 Y17.3634
G01 X21.7705 Y17.3502
G01 X21.8108 Y17.2828
G01 X21.8186 Y17.2692
G01 X21.8256 Y17.2551
G01 X21.8592 Y17.1842
G01 X21.8656 Y17.1698
G01 X21.8712 Y17.1552
G01 X21.8977 Y17.0812
G01 X21.9026 Y17.0663
G01 X21.9068 Y17.0512
G01 X21.9259 Y16.9750
G01 X21.9293 Y16.9597
G01 X21.9320 Y16.9442
G01 X21.9435 Y16.8666
G01 X21.9454 Y16.8510
G01 X21.9466 Y16.8353
G01 X21.9504 Y16.7569
G01 X21.9508 Y16.7412
G01 X21.9504 Y16.7255
G01 X21.9466 Y16.6471
G01 X21.9454 Y16.6314
G01 X21.9435 Y16.6158
G01 X21.9340 Y16.5519
G01 X22.0789 Y16.6968
G01 X22.0790 Y19.7363
G01 X22.0803 Y19.7637
G01 X22.0814 Y19.7794
G01 X22.0862 Y19.8144
G01 X22.0905 Y19.8375
G01 X22.0971 Y19.8642
G01 X22.1013 Y19.8794
G01 X22.1062 Y19.8943
G01 X22.1156 Y19.9201
G01 X22.1216 Y19.9347
G01 X22.1333 Y19.9595
G01 X22.1441 Y19.9805
G01 X22.1582 Y20.0041
G01 X22.1666 Y20.0174
G01 X22.1873 Y20.0460
G01 X22.1970 Y20.0583
G01 X22.2072 Y20.0702
G01 X22.2313 Y20.0962
G01 X28.7708 Y26.6357
G01 X28.7708 Y26.7157
G01 X21.8999 Y19.8447
G01 X21.9068 Y19.8212
G01 X21.9259 Y19.7450
G01 X21.9293 Y19.7297
G01 X21.9320 Y19.7142
G01 X21.9435 Y19.6366
G01 X21.9454 Y19.6210
G01 X21.9466 Y19.6053
G01 X21.9504 Y19.5269
G01 X21.9508 Y19.5112
G01 X21.9504 Y19.4955
G01 X21.9466 Y19.4171
G01 X21.9454 Y19.4014
G01 X21.9435 Y19.3858
G01 X21.9320 Y19.3082
G01 X21.9293 Y19.2927
G01 X21.9259 Y19.2774
G01 X21.9068 Y19.2012
G01 X21.9026 Y19.1861
G01 X21.8977 Y19.1712
G01 X21.8712 Y19.0972
G01 X21.8656 Y19.0826
G01 X21.8592 Y19.0682
G01 X21.8256 Y18.9973
G01 X21.8186 Y18.9832
G01 X21.8108 Y18.9696
G01 X21.7705 Y18.9022
G01 X21.7621 Y18.8890
G01 X21.7530 Y18.8761
G01 X21.7063 Y18.8131
G01 X21.6966 Y18.8007
G01 X21.6863 Y18.7888
G01 X21.6336 Y18.7306
G01 X21.6228 Y18.7192
G01 X21.6114 Y18.7084
G01 X21.5532 Y18.6557
G01 X21.5413 Y18.6454
G01 X21.5290 Y18.6358
G01 X21.4659 Y18.5890
G01 X21.4531 Y18.5800
G01 X21.4398 Y18.5716
G01 X21.3725 Y18.5312
G01 X21.3588 Y18.5234
G01 X21.3448 Y18.5164
G01 X21.2738 Y18.4828
G01 X21.2594 Y18.4765
G01 X21.2448 Y18.4708
G01 X21.1709 Y18.4444
G01 X21.1559 Y18.4394
G01 X21.1408 Y18.4352
G01 X21.0646 Y18.4162
G01 X21.0493 Y18.4127
G01 X21.0338 Y18.4100
G01 X20.9562 Y18.3985
G01 X20.9406 Y18.3966
G01 X20.9249 Y18.3954
G01 X20.8465 Y18.3916
G01 X20.8308 Y18.3912
G01 X20.8151 Y18.3916
G01 X20.7367 Y18.3954
G01 X20.7132 Y18.3975
G01 X20.6278 Y18.4100
G01 X20.6123 Y18.4127
G01 X20.5970 Y18.4162
G01 X20.5208 Y18.4352
G01 X20.5057 Y18.4394
G01 X20.4908 Y18.4444
G01 X20.4169 Y18.4708
G01 X20.4022 Y18.4765
G01 X20.3879 Y18.4828
G01 X20.3169 Y18.5164
G01 X20.3029 Y18.5234
G01 X20.2892 Y18.5312
G01 X20.2219 Y18.5716
G01 X20.2021 Y18.5844
G01 X20.1327 Y18.6358
G01 X20.1203 Y18.6454
G01 X20.1084 Y18.6557
G01 X20.0445 Y18.7138
G01 X20.0280 Y18.7306
G01 X19.9753 Y18.7888
G01 X19.9650 Y18.8007
G01 X19.9554 Y18.8131
G01 X19.9113 Y18.8725
G01 X19.9113 Y17.3799
G01 X19.9554 Y17.4393
G00 Z2.0000
G00 X18.8663 Y17.4281
G01 F60.00
G01 Z-0.0200
G01 F120.00
G01 X18.8566 Y17.4157
G01 X18.8463 Y17.4038
G01 X18.7936 Y17.3456
G01 X18.7828 Y17.3342
G01 X18.7714 Y17.3234
G01 X18.7132 Y17.2707
G01 X18.7013 Y17.2604
G01 X18.6890 Y17.2508
G01 X18.6259 Y17.2040
G01 X18.6131 Y17.1950
G01 X18.5998 Y17.1866
G01 X18.5325 Y17.1462
G01 X18.5188 Y17.1384
G01 X18.5048 Y17.1314
G01 X18.4338 Y17.0978
G01 X18.4194 Y17.0915
G01 X18.4048 Y17.0858
G01 X18.3309 Y17.0594
G01 X18.3159 Y17.0544
G01 X18.3008 Y17.0502
G01 X18.2246 Y17.0312
G01 X18.2093 Y17.0277
G01 X18.1938 Y17.0250
G01 X18.1095 Y17.0126
G01 X10.2032 Y9.1063
G01 X10.2126 Y9.0434
G01 X10.2145 Y9.0278
G01 X10.2156 Y9.0121
G01 X10.2185 Y8.9533
G01 X10.2189 Y8.9376
G01 X10.2185 Y8.9219
G01 X10.2156 Y8.8631
G01 X10.2145 Y8.8474
G01 X10.2126 Y8.8318
G01 X10.2039 Y8.7736
G01 X10.2012 Y8.7581
G01 X10.1978 Y8.7428
G01 X10.1835 Y8.6857
G01 X10.1793 Y8.6705
G01 X10.1744 Y8.6556
G01 X10.1527 Y8.5954
G01 X15.4283 Y13.8709
G01 X15.4396 Y13.8817
G01 X15.4601 Y13.9001
G01 X15.4785 Y13.9148
G01 X15.5071 Y13.9355
G01 X15.5203 Y13.9440
G01 X15.5440 Y13.9580
G01 X15.5649 Y13.9688
G01 X15.5970 Y13.9836
G01 X15.6301 Y13.9959
G01 X15.6526 Y14.0030
G01 X15.6869 Y14.0116
G01 X15.7100 Y14.0159
G01 X15.7450 Y14.0207
G01 X15.7607 Y14.0219
G01 X15.7882 Y14.0231
G01 X20.5387 Y14.0232
G01 X21.3220 Y14.8065
G01 X20.2572 Y14.8066
G01 X20.2219 Y14.8083
G01 X20.2062 Y14.8099
G01 X20.1713 Y14.8151
G01 X20.1559 Y14.8181
G01 X20.1216 Y14.8267
G01 X20.1066 Y14.8313
G01 X20.0733 Y14.8432
G01 X20.0588 Y14.8492
G01 X20.0339 Y14.8609
G01 X20.0198 Y14.8679
G01 X20.0062 Y14.8757
G01 X19.9761 Y14.8942
G01 X19.9475 Y14.9149
G01 X19.9351 Y14.9246
G01 X19.9232 Y14.9348
G01 X19.9029 Y14.9533
G01 X19.0180 Y15.8383
G01 X18.9994 Y15.8586
G01 X18.9892 Y15.8705
G01 X18.9795 Y15.8828
G01 X18.9588 Y15.9114
G01 X18.9504 Y15.9247
G01 X18.9363 Y15.9483
G01 X18.9289 Y15.9622
G01 X18.9171 Y15.9870
G01 X18.9107 Y16.0014
G01 X18.9051 Y16.0160
G01 X18.8959 Y16.0419
G01 X18.8913 Y16.0570
G01 X18.8846 Y16.0836
G01 X18.8811 Y16.0989
G01 X18.8784 Y16.1144
G01 X18.8736 Y16.1494
G01 X18.8725 Y16.1651
G01 X18.8711 Y16.2004
G01 X18.8711 Y17.4346
G01 X18.8663 Y17.4281
G00 Z2.0000
G00 X18.6974 Y17.1076
G01 F60.00
G01 Z-0.0200
G01 F120.00
G01 X18.6797 Y17.0952
G01 X18.6615 Y17.0836
G01 X18.5941 Y17.0433
G01 X18.5754 Y17.0326
G01 X18.5561 Y17.0229
G01 X18.4851 Y16.9893
G01 X18.4653 Y16.9806
G01 X18.4553 Y16.9766
G01 X18.3713 Y16.9464
G01 X18.3611 Y16.9429
G01 X18.3404 Y16.9366
G01 X18.2433 Y16.9123
G01 X18.2221 Y16.9080
G01 X18.1662 Y16.8996
G01 X10.3308 Y9.0642
G01 X10.3327 Y9.0503
G01 X10.3348 Y9.0288
G01 X10.3387 Y8.9510
G01 X15.3434 Y13.9557
G01 X15.3590 Y13.9706
G01 X15.3817 Y13.9910
G01 X15.3984 Y14.0047
G01 X15.4227 Y14.0229
G01 X15.4404 Y14.0353
G01 X15.4586 Y14.0469
G01 X15.4848 Y14.0624
G01 X15.5039 Y14.0726
G01 X15.5411 Y14.0902
G01 X15.5611 Y14.0985
G01 X15.5999 Y14.1124
G01 X15.6206 Y14.1186
G01 X15.6310 Y14.1214
G01 X15.6606 Y14.1287
G01 X15.6711 Y14.1309
G01 X15.6818 Y14.1329
G01 X15.7118 Y14.1375
G01 X15.7225 Y14.1389
G01 X15.7440 Y14.1410
G01 X15.7852 Y14.1431
G01 X20.4890 Y14.1432
G01 X21.0323 Y14.6865
G01 X20.2650 Y14.6865
G01 X20.2434 Y14.6870
G01 X20.2130 Y14.6887
G01 X20.1915 Y14.6908
G01 X20.1508 Y14.6968
G01 X20.1296 Y14.7010
G01 X20.0896 Y14.7111
G01 X20.0689 Y14.7173
G01 X20.0301 Y14.7312
G01 X20.0101 Y14.7395
G01 X19.9729 Y14.7571
G01 X19.9538 Y14.7673
G01 X19.9445 Y14.7727
G01 X19.9185 Y14.7885
G01 X19.9005 Y14.8005
G01 X19.8760 Y14.8185
G01 X19.8589 Y14.8318
G01 X19.8426 Y14.8459
G01 X19.8201 Y14.8664
G01 X18.9311 Y15.7555
G01 X18.9105 Y15.7780
G01 X18.8964 Y15.7943
G01 X18.8831 Y15.8114
G01 X18.8651 Y15.8359
G01 X18.8531 Y15.8538
G01 X18.8373 Y15.8799
G01 X18.8267 Y15.8987
G01 X18.8217 Y15.9082
G01 X18.8086 Y15.9357
G01 X18.7998 Y15.9554
G01 X18.7921 Y15.9756
G01 X18.7819 Y16.0043
G01 X18.7787 Y16.0146
G01 X18.7729 Y16.0354
G01 X18.7657 Y16.0650
G01 X18.7614 Y16.0861
G01 X18.7568 Y16.1162
G01 X18.7542 Y16.1377
G01 X18.7526 Y16.1592
G01 X18.7513 Y16.1896
G01 X18.7511 Y16.2004
G01 X18.7511 Y17.1475
G01 X18.6974 Y17.1076
G00 Z2.0000
G00 X18.6197 Y16.9205
G01 F60.00
G01 Z-0.0200
G01 F120.00
G01 X18.5364 Y16.8809
G01 X18.5113 Y16.8697
G01 X18.4856 Y16.8598
G01 X18.3987 Y16.8289
G01 X18.3724 Y16.8209
G01 X18.2830 Y16.7984
G01 X18.2561 Y16.7923
G01 X18.2230 Y16.7867
G01 X15.6921 Y14.2559
G01 X15.7079 Y14.2580
G01 X15.7352 Y14.2607
G01 X15.7685 Y14.2625
G01 X15.7960 Y14.2632
G01 X20.4393 Y14.2632
G01 X20.7426 Y14.5665
G01 X20.2650 Y14.5665
G01 X20.2513 Y14.5667
G01 X20.2179 Y14.5681
G01 X20.1905 Y14.5702
G01 X20.1769 Y14.5717
G01 X20.1302 Y14.5786
G01 X20.1033 Y14.5840
G01 X20.0576 Y14.5954
G01 X20.0313 Y14.6034
G01 X20.0183 Y14.6079
G01 X19.9869 Y14.6193
G01 X19.9741 Y14.6244
G01 X19.9615 Y14.6298
G01 X19.9313 Y14.6439
G01 X19.9067 Y14.6563
G01 X19.8947 Y14.6629
G01 X19.8660 Y14.6799
G01 X19.8427 Y14.6946
G01 X19.8314 Y14.7024
G01 X19.7935 Y14.7304
G01 X19.7723 Y14.7479
G01 X19.7620 Y14.7570
G01 X19.7374 Y14.7795
G01 X19.7275 Y14.7891
G01 X18.8537 Y15.6629
G01 X18.8348 Y15.6828
G01 X18.8125 Y15.7077
G01 X18.8037 Y15.7182
G01 X18.7867 Y15.7399
G01 X18.7670 Y15.7668
G01 X18.7592 Y15.7781
G01 X18.7517 Y15.7896
G01 X18.7344 Y15.8182
G01 X18.7275 Y15.8301
G01 X18.7145 Y15.8543
G01 X18.6944 Y15.8969
G01 X18.6890 Y15.9095
G01 X18.6791 Y15.9352
G01 X18.6680 Y15.9667
G01 X18.6638 Y15.9798
G01 X18.6600 Y15.9930
G01 X18.6517 Y16.0253
G01 X18.6486 Y16.0387
G01 X18.6432 Y16.0656
G01 X18.6363 Y16.1122
G01 X18.6336 Y16.1396
G01 X18.6328 Y16.1533
G01 X18.6313 Y16.1867
G01 X18.6311 Y16.2004
G01 X18.6311 Y16.9264
G01 X18.6197 Y16.9205
G00 Z2.0000
G00 X17.2118 Y17.4995
G01 F60.00
G01 Z-0.0200
G01 F120.00
G01 X17.2210 Y17.4881
G01 X17.2507 Y17.4552
G01 X9.5054 Y9.7099
G01 X9.4550 Y9.7222
G01 X9.3822 Y9.7332
G01 X9.3675 Y9.7345
G01 X9.3087 Y9.7374
G01 X9.2940 Y9.7375
G01 X9.2303 Y9.7345
G01 X9.2108 Y9.7325
G01 X9.1428 Y9.7222
G01 X9.0714 Y9.7045
G01 X9.0574 Y9.7001
G01 X9.0019 Y9.6802
G01 X8.9838 Y9.6727
G01 X8.9218 Y9.6431
G01 X8.8628 Y9.6080
G01 X8.8464 Y9.5971
G01 X8.7914 Y9.5560
G01 X8.7403 Y9.5101
G01 X8.7265 Y9.4962
G01 X8.6805 Y9.4451
G01 X8.6337 Y9.3821
G01 X8.5934 Y9.3147
G01 X8.5598 Y9.2437
G01 X8.5334 Y9.1698
G01 X8.5143 Y9.0937
G01 X8.5028 Y9.0160
G01 X8.4989 Y8.9376
G01 X8.5028 Y8.8592
G01 X8.5143 Y8.7815
G01 X8.5334 Y8.7054
G01 X8.5598 Y8.6315
G01 X8.5934 Y8.5605
G01 X8.6337 Y8.4931
G01 X8.6805 Y8.4301
G01 X8.7265 Y8.3790
G01 X8.7403 Y8.3651
G01 X8.7914 Y8.3192
G01 X8.8545 Y8.2724
G01 X8.9218 Y8.2321
G01 X8.9928 Y8.1985
G01 X9.0667 Y8.1720
G01 X9.1428 Y8.1530
G01 X9.2205 Y8.1415
G01 X9.2989 Y8.1376
G01 X9.3773 Y8.1415
G01 X9.4550 Y8.1530
G01 X9.5311 Y8.1720
G01 X9.6051 Y8.1985
G01 X9.6760 Y8.2321
G01 X9.7434 Y8.2724
G01 X9.8064 Y8.3192
G01 X9.8575 Y8.3651
G01 X9.8714 Y8.3790
G01 X9.9173 Y8.4301
G01 X9.9584 Y8.4851
G01 X9.9693 Y8.5014
G01 X10.0045 Y8.5605
G01 X10.0340 Y8.6225
G01 X10.0416 Y8.6406
G01 X10.0614 Y8.6961
G01 X10.0658 Y8.7101
G01 X10.0835 Y8.7815
G01 X10.0939 Y8.8494
G01 X10.0958 Y8.8690
G01 X10.0989 Y8.9327
G01 X10.0987 Y8.9474
G01 X10.0958 Y9.0062
G01 X10.0945 Y9.0209
G01 X10.0835 Y9.0937
G01 X10.0712 Y9.1440
G01 X18.0563 Y17.1292
G01 X18.0839 Y17.1306
G01 X18.0937 Y17.1316
G01 X18.1762 Y17.1437
G01 X18.1907 Y17.1464
G01 X18.2811 Y17.1693
G01 X18.3643 Y17.1988
G01 X18.3780 Y17.2043
G01 X18.4622 Y17.2443
G01 X18.5464 Y17.2947
G01 X18.6252 Y17.3532
G01 X18.6908 Y17.4123
G01 X18.7014 Y17.4226
G01 X18.7638 Y17.4918
G01 X18.8223 Y17.5706
G01 X18.8727 Y17.6548
G01 X18.9147 Y17.7435
G01 X18.9478 Y17.8359
G01 X18.9716 Y17.9311
G01 X18.9860 Y18.0282
G01 X18.9906 Y18.1164
G01 X18.9906 Y18.1360
G01 X18.9860 Y18.2242
G01 X18.9733 Y18.3116
G01 X18.9695 Y18.3309
G01 X18.9504 Y18.4070
G01 X18.9447 Y18.4258
G01 X18.9147 Y18.5089
G01 X18.8727 Y18.5976
G01 X18.8223 Y18.6818
G01 X18.7638 Y18.7606
G01 X18.6979 Y18.8333
G01 X18.6252 Y18.8992
G01 X18.5464 Y18.9577
G01 X18.4622 Y19.0081
G01 X18.3735 Y19.0501
G01 X18.2811 Y19.0831
G01 X18.1859 Y19.1070
G01 X18.0888 Y19.1214
G01 X17.9908 Y19.1262
G01 X17.8928 Y19.1214
G01 X17.7957 Y19.1070
G01 X17.7005 Y19.0831
G01 X17.6081 Y19.0501
G01 X17.5194 Y19.0081
G01 X17.4352 Y18.9577
G01 X17.3564 Y18.8992
G01 X17.2837 Y18.8333
G01 X17.2178 Y18.7606
G01 X17.1594 Y18.6818
G01 X17.1089 Y18.5976
G01 X17.0669 Y18.5089
G01 X17.0339 Y18.4165
G01 X17.0100 Y18.3213
G01 X16.9956 Y18.2242
G01 X16.9908 Y18.1262
G01 X16.9956 Y18.0282
G01 X17.0100 Y17.9311
G01 X17.0339 Y17.8359
G01 X17.0669 Y17.7435
G01 X17.1089 Y17.6548
G01 X17.1594 Y17.5706
G01 X17.2118 Y17.4995
G00 Z2.0000
G00 X17.0512 Y17.5172
G01 F60.00
G01 Z-0.0200
G01 F120.00
G01 X17.0640 Y17.4975
G01 X17.0892 Y17.4634
G01 X9.4676 Y9.8418
G01 X9.3969 Y9.8523
G01 X9.3734 Y9.8543
G01 X9.3146 Y9.8572
G01 X9.2989 Y9.8576
G01 X9.2832 Y9.8572
G01 X9.2244 Y9.8543
G01 X9.2087 Y9.8532
G01 X9.1932 Y9.8512
G01 X9.1349 Y9.8426
G01 X9.1194 Y9.8399
G01 X9.1041 Y9.8365
G01 X9.0470 Y9.8222
G01 X9.0319 Y9.8180
G01 X9.0169 Y9.8131
G01 X8.9615 Y9.7932
G01 X8.9469 Y9.7876
G01 X8.9325 Y9.7812
G01 X8.8793 Y9.7560
G01 X8.8652 Y9.7490
G01 X8.8516 Y9.7412
G01 X8.8011 Y9.7110
G01 X8.7878 Y9.7026
G01 X8.7750 Y9.6935
G01 X8.7277 Y9.6584
G01 X8.7153 Y9.6488
G01 X8.7034 Y9.6385
G01 X8.6598 Y9.5990
G01 X8.6484 Y9.5881
G01 X8.6376 Y9.5768
G01 X8.5980 Y9.5331
G01 X8.5878 Y9.5212
G01 X8.5781 Y9.5089
G01 X8.5430 Y9.4616
G01 X8.5340 Y9.4487
G01 X8.5256 Y9.4355
G01 X8.4953 Y9.3850
G01 X8.4876 Y9.3713
G01 X8.4805 Y9.3573
G01 X8.4553 Y9.3040
G01 X8.4460 Y9.2824
G01 X8.4235 Y9.2196
G01 X8.4185 Y9.2047
G01 X8.4143 Y9.1895
G01 X8.4000 Y9.1324
G01 X8.3952 Y9.1094
G01 X8.3853 Y9.0434
G01 X8.3827 Y9.0200
G01 X8.3790 Y8.9455
G01 X8.3790 Y8.9297
G01 X8.3807 Y8.8937
G01 X5.0507 Y12.2236
G01 X5.0507 Y57.9489
G01 X6.5783 Y56.4213
G01 X6.5689 Y56.3584
G01 X6.5670 Y56.3428
G01 X6.5658 Y56.3271
G01 X6.5629 Y56.2683
G01 X6.5625 Y56.2526
G01 X6.5629 Y56.2369
G01 X6.5658 Y56.1781
G01 X6.5670 Y56.1624
G01 X6.5689 Y56.1468
G01 X6.5775 Y56.0886
G01 X6.5802 Y56.0731
G01 X6.5836 Y56.0578
G01 X6.5979 Y56.0007
G01 X6.6021 Y55.9855
G01 X6.6071 Y55.9706
G01 X6.6269 Y55.9152
G01 X6.6326 Y55.9005
G01 X6.6389 Y55.8862
G01 X6.6641 Y55.8329
G01 X6.6712 Y55.8189
G01 X6.6789 Y55.8052
G01 X6.7092 Y55.7547
G01 X6.7176 Y55.7415
G01 X6.7266 Y55.7286
G01 X6.7617 Y55.6813
G01 X6.7714 Y55.6690
G01 X6.7816 Y55.6571
G01 X6.8212 Y55.6134
G01 X6.8320 Y55.6021
G01 X6.8434 Y55.5912
G01 X6.8870 Y55.5517
G01 X6.8989 Y55.5414
G01 X6.9113 Y55.5318
G01 X6.9586 Y55.4967
G01 X6.9714 Y55.4876
G01 X6.9847 Y55.4792
G01 X7.0420 Y55.4450
G01 X7.0629 Y55.4342
G01 X7.1161 Y55.4090
G01 X7.1377 Y55.3997
G01 X7.2080 Y55.3746
G01 X7.2306 Y55.3680
G01 X7.2877 Y55.3537
G01 X7.3030 Y55.3503
G01 X7.3185 Y55.3476
G01 X7.3768 Y55.3390
G01 X7.4002 Y55.3364
G01 X7.4668 Y55.3330
G01 X7.4825 Y55.3326
G01 X7.4982 Y55.3330
G01 X7.5570 Y55.3359
G01 X7.5805 Y55.3379
G01 X7.6465 Y55.3476
G01 X7.6620 Y55.3503
G01 X7.6773 Y55.3537
G01 X7.7344 Y55.3680
G01 X7.7496 Y55.3722
G01 X7.7645 Y55.3771
G01 X7.8199 Y55.3970
G01 X7.8346 Y55.4026
G01 X7.8489 Y55.4090
G01 X7.9092 Y55.4376
G01 X7.9299 Y55.4490
G01 X7.9804 Y55.4792
G01 X7.9936 Y55.4876
G01 X8.0065 Y55.4967
G01 X8.0600 Y55.5365
G01 X8.0781 Y55.5517
G01 X8.1274 Y55.5966
G01 X8.1385 Y55.6077
G01 X8.1716 Y55.6440
G01 X8.1716 Y43.9832
G01 X8.1205 Y43.9453
G01 X8.1081 Y43.9357
G01 X8.0962 Y43.9254
G01 X8.0526 Y43.8859
G01 X8.0357 Y43.8694
G01 X7.9856 Y43.8142
G01 X7.9709 Y43.7958
G01 X7.9358 Y43.7485
G01 X7.9268 Y43.7356
G01 X7.9184 Y43.7224
G01 X7.8881 Y43.6719
G01 X7.8804 Y43.6582
G01 X7.8733 Y43.6442
G01 X7.8481 Y43.5909
G01 X7.8418 Y43.5766
G01 X7.8361 Y43.5619
G01 X7.8163 Y43.5065
G01 X7.8113 Y43.4916
G01 X7.8071 Y43.4764
G01 X7.7928 Y43.4193
G01 X7.7894 Y43.4040
G01 X7.7867 Y43.3885
G01 X7.7781 Y43.3303
G01 X7.7762 Y43.3147
G01 X7.7750 Y43.2990
G01 X7.7721 Y43.2402
G01 X7.7717 Y43.2245
G01 X7.7721 Y43.2088
G01 X7.7750 Y43.1500
G01 X7.7762 Y43.1343
G01 X7.7781 Y43.1187
G01 X7.7867 Y43.0605
G01 X7.7894 Y43.0450
G01 X7.7928 Y43.0297
G01 X7.8071 Y42.9726
G01 X7.8113 Y42.9574
G01 X7.8163 Y42.9425
G01 X7.8361 Y42.8871
G01 X7.8418 Y42.8724
G01 X7.8481 Y42.8581
G01 X7.8733 Y42.8048
G01 X7.8841 Y42.7839
G01 X7.9184 Y42.7266
G01 X7.9312 Y42.7069
G01 X7.9756 Y42.6470
G01 X7.9908 Y42.6290
G01 X8.0304 Y42.5853
G01 X8.0412 Y42.5740
G01 X8.0526 Y42.5631
G01 X8.0962 Y42.5236
G01 X8.1142 Y42.5084
G01 X8.1678 Y42.4686
G01 X8.1806 Y42.4595
G01 X8.1939 Y42.4511
G01 X8.2444 Y42.4209
G01 X8.2580 Y42.4131
G01 X8.2721 Y42.4061
G01 X8.3253 Y42.3809
G01 X8.3397 Y42.3745
G01 X8.3543 Y42.3689
G01 X8.4097 Y42.3490
G01 X8.4247 Y42.3441
G01 X8.4398 Y42.3399
G01 X8.4969 Y42.3256
G01 X8.5122 Y42.3222
G01 X8.5277 Y42.3195
G01 X8.5860 Y42.3109
G01 X8.6015 Y42.3089
G01 X8.6172 Y42.3078
G01 X8.6760 Y42.3049
G01 X8.6917 Y42.3045
G01 X8.7074 Y42.3049
G01 X8.7662 Y42.3078
G01 X8.7819 Y42.3089
G01 X8.7975 Y42.3109
G01 X8.8557 Y42.3195
G01 X8.8712 Y42.3222
G01 X8.8865 Y42.3256
G01 X8.9436 Y42.3399
G01 X8.9588 Y42.3441
G01 X8.9737 Y42.3490
G01 X9.0291 Y42.3689
G01 X9.0438 Y42.3745
G01 X9.0581 Y42.3809
G01 X9.1114 Y42.4061
G01 X9.1254 Y42.4131
G01 X9.1391 Y42.4209
G01 X9.1896 Y42.4511
G01 X9.2028 Y42.4595
G01 X9.2157 Y42.4686
G01 X9.2692 Y42.5084
G01 X9.2873 Y42.5236
G01 X9.3309 Y42.5631
G01 X9.3423 Y42.5740
G01 X9.3531 Y42.5853
G01 X9.3926 Y42.6290
G01 X9.4029 Y42.6409
G01 X9.4126 Y42.6532
G01 X9.4476 Y42.7005
G01 X9.4567 Y42.7134
G01 X9.4651 Y42.7266
G01 X9.4953 Y42.7771
G01 X9.5031 Y42.7908
G01 X9.5101 Y42.8048
G01 X9.5353 Y42.8581
G01 X9.5417 Y42.8724
G01 X9.5473 Y42.8871
G01 X9.5672 Y42.9425
G01 X9.5721 Y42.9574
G01 X9.5763 Y42.9726
G01 X9.5924 Y43.0373
G01 X9.5967 Y43.0605
G01 X9.6054 Y43.1187
G01 X9.6073 Y43.1343
G01 X9.6084 Y43.1500
G01 X9.6113 Y43.2088
G01 X9.6117 Y43.2245
G01 X9.6113 Y43.2402
G01 X9.6084 Y43.2990
G01 X9.6073 Y43.3147
G01 X9.6054 Y43.3303
G01 X9.5967 Y43.3885
G01 X9.5940 Y43.4040
G01 X9.5906 Y43.4193
G01 X9.5763 Y43.4764
G01 X9.5721 Y43.4916
G01 X9.5672 Y43.5065
G01 X9.5473 Y43.5619
G01 X9.5417 Y43.5766
G01 X9.5353 Y43.5909
G01 X9.5101 Y43.6442
G01 X9.5031 Y43.6582
G01 X9.4953 Y43.6719
G01 X9.4651 Y43.7224
G01 X9.4567 Y43.7356
G01 X9.4476 Y43.7485
G01 X9.4126 Y43.7958
G01 X9.4029 Y43.8081
G01 X9.3926 Y43.8200
G01 X9.3531 Y43.8637
G01 X9.3423 Y43.8750
G01 X9.3309 Y43.8859
G01 X9.2873 Y43.9254
G01 X9.2692 Y43.9406
G01 X9.2118 Y43.9832
G01 X9.2118 Y73.1955
G01 X12.0531 Y73.1955
G01 X12.0884 Y73.1968
G01 X12.1041 Y73.1980
G01 X12.1391 Y73.2028
G01 X12.1623 Y73.2071
G01 X12.1966 Y73.2157
G01 X12.2190 Y73.2228
G01 X12.2522 Y73.2351
G01 X12.2665 Y73.2415
G01 X12.2913 Y73.2533
G01 X12.3120 Y73.2647
G01 X12.3421 Y73.2832
G01 X12.3707 Y73.3039
G01 X12.3891 Y73.3186
G01 X12.4095 Y73.3370
G01 X12.4209 Y73.3478
G01 X13.1542 Y74.0811
G01 X13.3419 Y74.0811
G01 X13.3536 Y74.0566
G01 X13.3610 Y74.0428
G01 X13.4078 Y73.9645
G01 X13.4206 Y73.9447
G01 X13.4749 Y73.8713
G01 X13.4846 Y73.8590
G01 X13.4949 Y73.8471
G01 X13.5509 Y73.7853
G01 X13.5673 Y73.7684
G01 X13.6349 Y73.7070
G01 X13.6468 Y73.6968
G01 X13.6592 Y73.6871
G01 X13.7262 Y73.6374
G01 X13.7390 Y73.6284
G01 X13.7523 Y73.6200
G01 X13.8238 Y73.5771
G01 X13.8375 Y73.5694
G01 X13.8515 Y73.5623
G01 X13.9269 Y73.5266
G01 X13.9413 Y73.5203
G01 X13.9559 Y73.5146
G01 X14.0345 Y73.4865
G01 X14.0494 Y73.4816
G01 X14.0645 Y73.4774
G01 X14.1454 Y73.4571
G01 X14.1608 Y73.4537
G01 X14.1762 Y73.4510
G01 X14.2588 Y73.4388
G01 X14.2743 Y73.4368
G01 X14.2900 Y73.4357
G01 X14.3733 Y73.4316
G01 X14.3890 Y73.4312
G01 X14.4047 Y73.4316
G01 X14.4880 Y73.4357
G01 X14.5037 Y73.4368
G01 X14.5193 Y73.4388
G01 X14.6018 Y73.4510
G01 X14.6250 Y73.4553
G01 X14.7135 Y73.4774
G01 X14.7287 Y73.4816
G01 X14.7436 Y73.4865
G01 X14.8221 Y73.5146
G01 X14.8368 Y73.5203
G01 X14.8511 Y73.5266
G01 X14.9265 Y73.5623
G01 X14.9406 Y73.5694
G01 X14.9542 Y73.5771
G01 X15.0258 Y73.6200
G01 X15.0455 Y73.6328
G01 X15.1189 Y73.6871
G01 X15.1313 Y73.6968
G01 X15.1432 Y73.7070
G01 X15.2050 Y73.7631
G01 X15.2163 Y73.7739
G01 X15.2272 Y73.7853
G01 X15.2832 Y73.8471
G01 X15.2934 Y73.8590
G01 X15.3031 Y73.8713
G01 X15.3528 Y73.9383
G01 X15.3618 Y73.9512
G01 X15.3702 Y73.9645
G01 X15.4131 Y74.0360
G01 X15.4245 Y74.0566
G01 X15.4636 Y74.1391
G01 X15.4700 Y74.1535
G01 X15.4756 Y74.1681
G01 X15.5037 Y74.2467
G01 X15.5086 Y74.2616
G01 X15.5128 Y74.2767
G01 X15.5331 Y74.3576
G01 X15.5365 Y74.3729
G01 X15.5392 Y74.3884
G01 X15.5515 Y74.4709
G01 X15.5534 Y74.4865
G01 X15.5545 Y74.5022
G01 X15.5586 Y74.5855
G01 X15.5590 Y74.6012
G01 X15.5586 Y74.6169
G01 X15.5545 Y74.7002
G01 X15.5534 Y74.7159
G01 X15.5515 Y74.7315
G01 X15.5392 Y74.8140
G01 X15.5365 Y74.8295
G01 X15.5331 Y74.8448
G01 X15.5128 Y74.9257
G01 X15.5086 Y74.9408
G01 X15.5037 Y74.9557
G01 X15.4756 Y75.0343
G01 X15.4700 Y75.0489
G01 X15.4636 Y75.0633
G01 X15.4279 Y75.1387
G01 X15.4209 Y75.1527
G01 X15.4131 Y75.1664
G01 X15.3702 Y75.2379
G01 X15.3618 Y75.2512
G01 X15.3528 Y75.2641
G01 X15.3031 Y75.3311
G01 X15.2934 Y75.3434
G01 X15.2832 Y75.3553
G01 X15.2272 Y75.4171
G01 X15.2163 Y75.4285
G01 X15.2050 Y75.4393
G01 X15.1432 Y75.4954
G01 X15.1313 Y75.5056
G01 X15.1189 Y75.5153
G01 X15.0519 Y75.5650
G01 X15.0325 Y75.5783
G01 X14.9542 Y75.6253
G01 X14.9406 Y75.6330
G01 X14.9265 Y75.6401
G01 X14.8511 Y75.6758
G01 X14.8368 Y75.6821
G01 X14.8221 Y75.6878
G01 X14.7361 Y75.7184
G01 X14.7135 Y75.7250
G01 X14.6326 Y75.7453
G01 X14.6173 Y75.7487
G01 X14.6018 Y75.7514
G01 X14.5193 Y75.7636
G01 X14.5037 Y75.7656
G01 X14.4880 Y75.7667
G01 X14.3969 Y75.7711
G01 X14.3733 Y75.7708
G01 X14.2900 Y75.7667
G01 X14.2743 Y75.7656
G01 X14.2588 Y75.7636
G01 X14.1762 Y75.7514
G01 X14.1608 Y75.7487
G01 X14.1454 Y75.7453
G01 X14.0645 Y75.7250
G01 X14.0494 Y75.7208
G01 X14.0345 Y75.7159
G01 X13.9559 Y75.6878
G01 X13.9413 Y75.6821
G01 X13.9269 Y75.6758
G01 X13.8515 Y75.6401
G01 X13.8375 Y75.6330
G01 X13.8238 Y75.6253
G01 X13.7523 Y75.5824
G01 X13.7390 Y75.5740
G01 X13.7262 Y75.5650
G01 X13.6592 Y75.5153
G01 X13.6468 Y75.5056
G01 X13.6349 Y75.4954
G01 X13.5731 Y75.4393
G01 X13.5617 Y75.4285
G01 X13.5509 Y75.4171
G01 X13.4897 Y75.3494
G01 X13.4749 Y75.3311
G01 X13.4252 Y75.2641
G01 X13.4119 Y75.2446
G01 X13.3610 Y75.1596
G01 X13.3536 Y75.1458
G01 X13.3419 Y75.1213
G01 X12.9387 Y75.1213
G01 X12.9034 Y75.1200
G01 X12.8799 Y75.1179
G01 X12.8450 Y75.1127
G01 X12.8296 Y75.1097
G01 X12.7953 Y75.1011
G01 X12.7728 Y75.0940
G01 X12.7397 Y75.0817
G01 X12.7076 Y75.0669
G01 X12.6867 Y75.0561
G01 X12.6564 Y75.0379
G01 X12.6369 Y75.0246
G01 X12.6088 Y75.0032
G01 X12.5823 Y74.9798
G01 X12.5710 Y74.9690
G01 X11.8377 Y74.2357
G01 X8.4101 Y74.2357
G01 X8.2240 Y74.4217
G01 X8.2240 Y75.5812
G01 X8.2224 Y75.6214
G01 X8.2204 Y75.6449
G01 X8.2145 Y75.6847
G01 X8.2096 Y75.7077
G01 X8.2017 Y75.7391
G01 X8.1971 Y75.7541
G01 X8.1835 Y75.7920
G01 X8.1775 Y75.8065
G01 X8.1638 Y75.8359
G01 X8.1567 Y75.8499
G01 X8.1364 Y75.8846
G01 X8.1280 Y75.8979
G01 X8.1043 Y75.9304
G01 X8.0946 Y75.9428
G01 X8.0844 Y75.9547
G01 X8.0571 Y75.9843
G01 X8.0275 Y76.0116
G01 X8.0156 Y76.0218
G01 X8.0032 Y76.0315
G01 X7.9772 Y76.0507
G01 X7.9641 Y76.0594
G01 X7.9364 Y76.0762
G01 X7.9157 Y76.0875
G01 X7.8865 Y76.1014
G01 X7.8721 Y76.1078
G01 X7.8344 Y76.1217
G01 X7.8119 Y76.1288
G01 X7.7805 Y76.1368
G01 X7.7652 Y76.1402
G01 X7.7497 Y76.1429
G01 X7.7177 Y76.1476
G01 X7.6942 Y76.1496
G01 X7.6540 Y76.1512
G01 X6.2040 Y76.1512
G01 X6.1638 Y76.1496
G01 X6.1482 Y76.1485
G01 X6.1083 Y76.1429
G01 X6.0928 Y76.1402
G01 X6.0775 Y76.1368
G01 X6.0461 Y76.1288
G01 X6.0311 Y76.1243
G01 X6.0005 Y76.1135
G01 X5.9859 Y76.1078
G01 X5.9715 Y76.1014
G01 X5.9423 Y76.0875
G01 X5.9284 Y76.0801
G01 X5.8939 Y76.0594
G01 X5.8809 Y76.0507
G01 X5.8661 Y76.0399
G01 X5.8661 Y76.7835
G01 X5.8947 Y76.7451
G01 X5.9047 Y76.7330
G01 X5.9712 Y76.6595
G01 X5.9881 Y76.6431
G01 X6.0499 Y76.5870
G01 X6.0679 Y76.5719
G01 X6.1412 Y76.5174
G01 X6.1540 Y76.5084
G01 X6.1673 Y76.5000
G01 X6.2388 Y76.4571
G01 X6.2595 Y76.4457
G01 X6.3419 Y76.4066
G01 X6.3563 Y76.4003
G01 X6.3709 Y76.3946
G01 X6.4495 Y76.3665
G01 X6.4644 Y76.3616
G01 X6.4795 Y76.3574
G01 X6.5604 Y76.3371
G01 X6.5758 Y76.3337
G01 X6.5912 Y76.3310
G01 X6.6738 Y76.3188
G01 X6.6893 Y76.3168
G01 X6.7050 Y76.3157
G01 X6.7883 Y76.3116
G01 X6.8040 Y76.3112
G01 X7.0619 Y76.3113
G01 X7.1609 Y76.3162
G01 X7.1843 Y76.3188
G01 X7.2668 Y76.3310
G01 X7.2823 Y76.3337
G01 X7.2976 Y76.3371
G01 X7.3785 Y76.3574
G01 X7.3937 Y76.3616
G01 X7.4086 Y76.3665
G01 X7.4871 Y76.3946
G01 X7.5018 Y76.4003
G01 X7.5161 Y76.4066
G01 X7.5915 Y76.4423
G01 X7.6056 Y76.4494
G01 X7.6192 Y76.4571
G01 X7.6908 Y76.5000
G01 X7.7040 Y76.5084
G01 X7.7169 Y76.5174
G01 X7.7839 Y76.5671
G01 X7.7963 Y76.5768
G01 X7.8082 Y76.5870
G01 X7.8700 Y76.6431
G01 X7.8813 Y76.6539
G01 X7.8922 Y76.6653
G01 X7.9534 Y76.7330
G01 X7.9681 Y76.7513
G01 X8.0178 Y76.8183
G01 X8.0311 Y76.8378
G01 X8.0821 Y76.9228
G01 X8.0895 Y76.9366
G01 X8.1012 Y76.9611
G01 X12.3833 Y76.9611
G01 X12.5710 Y76.7734
G01 X12.5969 Y76.7494
G01 X12.6088 Y76.7392
G01 X12.6212 Y76.7295
G01 X12.6498 Y76.7088
G01 X12.6630 Y76.7003
G01 X12.6867 Y76.6863
G01 X12.7005 Y76.6789
G01 X12.7325 Y76.6638
G01 X12.7470 Y76.6578
G01 X12.7728 Y76.6484
G01 X12.7877 Y76.6435
G01 X12.8029 Y76.6393
G01 X12.8296 Y76.6327
G01 X12.8450 Y76.6297
G01 X12.8722 Y76.6255
G01 X12.8877 Y76.6236
G01 X12.9230 Y76.6215
G01 X12.9387 Y76.6211
G01 X13.3419 Y76.6211
G01 X13.3536 Y76.5966
G01 X13.3649 Y76.5760
G01 X13.4119 Y76.4978
G01 X13.4252 Y76.4783
G01 X13.4749 Y76.4113
G01 X13.4897 Y76.3930
G01 X13.5509 Y76.3253
G01 X13.5617 Y76.3139
G01 X13.5731 Y76.3031
G01 X13.6349 Y76.2470
G01 X13.6468 Y76.2368
G01 X13.6592 Y76.2271
G01 X13.7262 Y76.1774
G01 X13.7456 Y76.1641
G01 X13.8238 Y76.1171
G01 X13.8375 Y76.1094
G01 X13.8515 Y76.1023
G01 X13.9269 Y76.0666
G01 X13.9413 Y76.0603
G01 X13.9559 Y76.0546
G01 X14.0345 Y76.0265
G01 X14.0494 Y76.0216
G01 X14.0645 Y76.0174
G01 X14.1454 Y75.9971
G01 X14.1608 Y75.9937
G01 X14.1762 Y75.9910
G01 X14.2588 Y75.9788
G01 X14.2743 Y75.9768
G01 X14.2900 Y75.9757
G01 X14.3733 Y75.9716
G01 X14.3890 Y75.9712
G01 X14.4047 Y75.9716
G01 X14.4880 Y75.9757
G01 X14.5037 Y75.9768
G01 X14.5193 Y75.9788
G01 X14.6018 Y75.9910
G01 X14.6173 Y75.9937
G01 X14.6326 Y75.9971
G01 X14.7135 Y76.0174
G01 X14.7287 Y76.0216
G01 X14.7436 Y76.0265
G01 X14.8295 Y76.0573
G01 X14.8511 Y76.0666
G01 X14.9265 Y76.1023
G01 X14.9406 Y76.1094
G01 X14.9542 Y76.1171
G01 X15.0258 Y76.1600
G01 X15.0390 Y76.1684
G01 X15.0519 Y76.1774
G01 X15.1189 Y76.2271
G01 X15.1313 Y76.2368
G01 X15.1432 Y76.2470
G01 X15.2050 Y76.3031
G01 X15.2163 Y76.3139
G01 X15.2272 Y76.3253
G01 X15.2832 Y76.3871
G01 X15.2934 Y76.3990
G01 X15.3031 Y76.4113
G01 X15.3528 Y76.4783
G01 X15.3618 Y76.4912
G01 X15.3702 Y76.5045
G01 X15.4131 Y76.5760
G01 X15.4209 Y76.5897
G01 X15.4279 Y76.6037
G01 X15.4636 Y76.6791
G01 X15.4700 Y76.6935
G01 X15.4756 Y76.7081
G01 X15.5037 Y76.7867
G01 X15.5086 Y76.8016
G01 X15.5128 Y76.8167
G01 X15.5331 Y76.8976
G01 X15.5365 Y76.9129
G01 X15.5392 Y76.9284
G01 X15.5515 Y77.0109
G01 X15.5534 Y77.0265
G01 X15.5545 Y77.0422
G01 X15.5586 Y77.1255
G01 X15.5590 Y77.1412
G01 X15.5586 Y77.1569
G01 X15.5545 Y77.2402
G01 X15.5534 Y77.2559
G01 X15.5515 Y77.2715
G01 X15.5392 Y77.3540
G01 X15.5365 Y77.3695
G01 X15.5331 Y77.3848
G01 X15.5128 Y77.4657
G01 X15.5086 Y77.4808
G01 X15.5037 Y77.4957
G01 X15.4756 Y77.5743
G01 X15.4700 Y77.5889
G01 X15.4636 Y77.6033
G01 X15.4279 Y77.6787
G01 X15.4209 Y77.6927
G01 X15.4131 Y77.7064
G01 X15.3702 Y77.7779
G01 X15.3618 Y77.7912
G01 X15.3528 Y77.8041
G01 X15.3031 Y77.8711
G01 X15.2934 Y77.8834
G01 X15.2832 Y77.8953
G01 X15.2272 Y77.9571
G01 X15.2163 Y77.9685
G01 X15.2050 Y77.9793
G01 X15.1432 Y78.0354
G01 X15.1313 Y78.0456
G01 X15.1189 Y78.0553
G01 X15.0519 Y78.1050
G01 X15.0390 Y78.1140
G01 X15.0258 Y78.1224
G01 X14.9542 Y78.1653
G01 X14.9336 Y78.1767
G01 X14.8511 Y78.2158
G01 X14.8368 Y78.2221
G01 X14.8221 Y78.2278
G01 X14.7436 Y78.2559
G01 X14.7287 Y78.2608
G01 X14.7135 Y78.2650
G01 X14.6326 Y78.2853
G01 X14.6173 Y78.2887
G01 X14.6018 Y78.2914
G01 X14.5193 Y78.3036
G01 X14.5037 Y78.3056
G01 X14.4880 Y78.3067
G01 X14.4047 Y78.3108
G01 X14.3890 Y78.3112
G01 X14.3733 Y78.3108
G01 X14.2900 Y78.3067
G01 X14.2743 Y78.3056
G01 X14.2588 Y78.3036
G01 X14.1762 Y78.2914
G01 X14.1608 Y78.2887
G01 X14.1454 Y78.2853
G01 X14.0645 Y78.2650
G01 X14.0494 Y78.2608
G01 X14.0345 Y78.2559
G01 X13.9486 Y78.2251
G01 X13.9269 Y78.2158
G01 X13.8515 Y78.1801
G01 X13.8375 Y78.1730
G01 X13.8238 Y78.1653
G01 X13.7523 Y78.1224
G01 X13.7390 Y78.1140
G01 X13.7262 Y78.1050
G01 X13.6592 Y78.0553
G01 X13.6468 Y78.0456
G01 X13.6349 Y78.0354
G01 X13.5673 Y77.9740
G01 X13.5509 Y77.9571
G01 X13.4949 Y77.8953
G01 X13.4846 Y77.8834
G01 X13.4749 Y77.8711
G01 X13.4206 Y77.7977
G01 X13.4078 Y77.7779
G01 X13.3610 Y77.6996
G01 X13.3536 Y77.6858
G01 X13.3419 Y77.6613
G01 X13.1542 Y77.6613
G01 X12.9609 Y77.8545
G01 X12.9406 Y77.8730
G01 X12.9287 Y77.8832
G01 X12.9163 Y77.8929
G01 X12.8877 Y77.9136
G01 X12.8576 Y77.9321
G01 X12.8369 Y77.9435
G01 X12.8121 Y77.9553
G01 X12.7978 Y77.9617
G01 X12.7646 Y77.9740
G01 X12.7422 Y77.9811
G01 X12.7155 Y77.9879
G01 X12.7002 Y77.9913
G01 X12.6653 Y77.9969
G01 X12.6419 Y77.9995
G01 X12.6144 Y78.0009
G01 X12.5987 Y78.0013
G01 X8.1012 Y78.0013
G01 X8.0895 Y78.0258
G01 X8.0821 Y78.0396
G01 X8.0311 Y78.1246
G01 X8.0178 Y78.1441
G01 X7.9681 Y78.2111
G01 X7.9534 Y78.2294
G01 X7.8922 Y78.2971
G01 X7.8813 Y78.3085
G01 X7.8700 Y78.3193
G01 X7.8082 Y78.3754
G01 X7.7963 Y78.3856
G01 X7.7839 Y78.3953
G01 X7.7169 Y78.4450
G01 X7.7040 Y78.4540
G01 X7.6908 Y78.4624
G01 X7.6192 Y78.5053
G01 X7.6056 Y78.5130
G01 X7.5915 Y78.5201
G01 X7.5161 Y78.5558
G01 X7.5018 Y78.5621
G01 X7.4871 Y78.5678
G01 X7.4086 Y78.5959
G01 X7.3937 Y78.6008
G01 X7.3785 Y78.6050
G01 X7.2976 Y78.6253
G01 X7.2823 Y78.6287
G01 X7.2668 Y78.6314
G01 X7.1843 Y78.6436
G01 X7.1609 Y78.6462
G01 X7.0619 Y78.6511
G01 X6.8040 Y78.6512
G01 X6.7883 Y78.6508
G01 X6.7050 Y78.6467
G01 X6.6893 Y78.6456
G01 X6.6738 Y78.6436
G01 X6.5912 Y78.6314
G01 X6.5758 Y78.6287
G01 X6.5604 Y78.6253
G01 X6.4795 Y78.6050
G01 X6.4644 Y78.6008
G01 X6.4495 Y78.5959
G01 X6.3709 Y78.5678
G01 X6.3563 Y78.5621
G01 X6.3419 Y78.5558
G01 X6.2595 Y78.5167
G01 X6.2388 Y78.5053
G01 X6.1673 Y78.4624
G01 X6.1540 Y78.4540
G01 X6.1412 Y78.4450
G01 X6.0679 Y78.3905
G01 X6.0499 Y78.3754
G01 X5.9881 Y78.3193
G01 X5.9712 Y78.3029
G01 X5.9047 Y78.2294
G01 X5.8947 Y78.2173
G01 X5.8661 Y78.1789
G01 X5.8661 Y79.2835
G01 X5.8947 Y79.2451
G01 X5.9047 Y79.2330
G01 X5.9712 Y79.1595
G01 X5.9881 Y79.1431
G01 X6.0558 Y79.0818
G01 X6.0742 Y79.0671
G01 X6.1412 Y79.0174
G01 X6.1540 Y79.0084
G01 X6.1673 Y79.0000
G01 X6.2388 Y78.9571
G01 X6.2595 Y78.9457
G01 X6.3419 Y78.9066
G01 X6.3563 Y78.9003
G01 X6.3709 Y78.8946
G01 X6.4495 Y78.8665
G01 X6.4644 Y78.8616
G01 X6.4795 Y78.8574
G01 X6.5604 Y78.8371
G01 X6.5758 Y78.8337
G01 X6.5912 Y78.8310
G01 X6.6738 Y78.8188
G01 X6.6893 Y78.8168
G01 X6.7050 Y78.8157
G01 X6.7962 Y78.8113
G01 X7.0540 Y78.8112
G01 X7.0697 Y78.8116
G01 X7.1530 Y78.8157
G01 X7.1687 Y78.8168
G01 X7.1843 Y78.8188
G01 X7.2746 Y78.8322
G01 X7.2976 Y78.8371
G01 X7.3785 Y78.8574
G01 X7.3937 Y78.8616
G01 X7.4086 Y78.8665
G01 X7.4871 Y78.8946
G01 X7.5018 Y78.9003
G01 X7.5161 Y78.9066
G01 X7.5986 Y78.9457
G01 X7.6192 Y78.9571
G01 X7.6908 Y79.0000
G01 X7.7040 Y79.0084
G01 X7.7169 Y79.0174
G01 X7.7839 Y79.0671
G01 X7.7963 Y79.0768
G01 X7.8082 Y79.0870
G01 X7.8700 Y79.1431
G01 X7.8868 Y79.1595
G01 X7.9482 Y79.2271
G01 X7.9584 Y79.2390
G01 X7.9681 Y79.2513
G01 X8.0224 Y79.3247
G01 X8.0352 Y79.3445
G01 X8.0821 Y79.4228
G01 X8.0895 Y79.4366
G01 X8.1012 Y79.4611
G01 X8.2889 Y79.4611
G01 X8.4422 Y79.3079
G01 X8.4684 Y79.2842
G01 X8.4805 Y79.2742
G01 X8.5089 Y79.2532
G01 X8.5220 Y79.2445
G01 X8.5523 Y79.2263
G01 X8.5732 Y79.2155
G01 X8.6053 Y79.2007
G01 X8.6199 Y79.1950
G01 X8.6459 Y79.1859
G01 X8.6685 Y79.1793
G01 X8.7029 Y79.1711
G01 X8.7183 Y79.1684
G01 X8.7455 Y79.1645
G01 X8.7690 Y79.1624
G01 X8.8043 Y79.1611
G01 X13.3419 Y79.1611
G01 X13.3536 Y79.1366
G01 X13.3610 Y79.1228
G01 X13.4078 Y79.0445
G01 X13.4162 Y79.0312
G01 X13.4252 Y79.0183
G01 X13.4749 Y78.9513
G01 X13.4846 Y78.9390
G01 X13.4949 Y78.9271
G01 X13.5509 Y78.8653
G01 X13.5617 Y78.8539
G01 X13.5731 Y78.8431
G01 X13.6408 Y78.7818
G01 X13.6592 Y78.7671
G01 X13.7262 Y78.7174
G01 X13.7390 Y78.7084
G01 X13.7523 Y78.7000
G01 X13.8238 Y78.6571
G01 X13.8375 Y78.6494
G01 X13.8515 Y78.6423
G01 X13.9269 Y78.6066
G01 X13.9413 Y78.6003
G01 X13.9559 Y78.5946
G01 X14.0345 Y78.5665
G01 X14.0569 Y78.5594
G01 X14.1454 Y78.5371
G01 X14.1608 Y78.5337
G01 X14.1762 Y78.5310
G01 X14.2588 Y78.5188
G01 X14.2743 Y78.5168
G01 X14.2900 Y78.5157
G01 X14.3812 Y78.5113
G01 X14.4047 Y78.5116
G01 X14.4880 Y78.5157
G01 X14.5037 Y78.5168
G01 X14.5193 Y78.5188
G01 X14.6018 Y78.5310
G01 X14.6173 Y78.5337
G01 X14.6326 Y78.5371
G01 X14.7135 Y78.5574
G01 X14.7287 Y78.5616
G01 X14.7436 Y78.5665
G01 X14.8221 Y78.5946
G01 X14.8368 Y78.6003
G01 X14.8511 Y78.6066
G01 X14.9265 Y78.6423
G01 X14.9406 Y78.6494
G01 X14.9542 Y78.6571
G01 X15.0258 Y78.7000
G01 X15.0390 Y78.7084
G01 X15.0519 Y78.7174
