(G-CODE GENERATED BY FLATCAM v8.994 - www.flatcam.org - Version Date: 2020/11/7)

(Name: interface_up_left_side_arm-Edge_Cuts.gbr_conv_cnc)
(Type: G-code from Geometry)
(Units: MM)

(Created on jeudi, 09 juin 2022 at 21:11)

(This preprocessor is the default preprocessor used by FlatCAM.)
(It is made to work with MACH3 compatible motion controllers.)

(TOOL DIAMETER: 2.4 mm)
(Feedrate_XY: 60.0 mm/min)
(Feedrate_Z: 60.0 mm/min)
(Feedrate rapids 1500.0 mm/min)

(Z_Cut: -2.4 mm)
(DepthPerCut: 0.8 mm <=>3 passes)
(Z_Move: 2.0 mm)
(Z Start: None mm)
(Z End: 15.0 mm)
(X,Y End: None mm)
(Steps per circle: 64)
(Preprocessor Geometry: default)

(X range:   -0.5748 ...   30.6258  mm)
(Y range:   -0.6191 ...   90.5815  mm)

(Spindle Speed: 1000.0 RPM)
G21
G90
G94

G01 F60.00

M5
G00 Z15.0000
G00 X0.0000 Y0.0000
T1
M6    
(MSG, Change to Tool Dia = 2.4000)
M0
G00 Z15.0000

M03 S1000.0
G01 F60.00
G00 X-0.5748 Y89.9812
G01 F60.00
G01 Z-0.8000
G01 F60.00
G01 X-0.5748 Y-0.0188
G01 X-0.5719 Y-0.0776
G01 X-0.5632 Y-0.1359
G01 X-0.5489 Y-0.1931
G01 X-0.5291 Y-0.2485
G01 X-0.5039 Y-0.3018
G01 X-0.4736 Y-0.3523
G01 X-0.4385 Y-0.3996
G01 X-0.3990 Y-0.4433
G01 X-0.3553 Y-0.4828
G01 X-0.3080 Y-0.5179
G01 X-0.2575 Y-0.5482
G01 X-0.2342 Y-0.5592
G01 X-0.2042 Y-0.5734
G01 X-0.1487 Y-0.5933
G01 X-0.0916 Y-0.6076
G01 X-0.0333 Y-0.6162
G01 X0.0255 Y-0.6191
G01 X30.0255 Y-0.6191
G01 X30.0844 Y-0.6162
G01 X30.1426 Y-0.6076
G01 X30.1998 Y-0.5933
G01 X30.2552 Y-0.5734
G01 X30.3085 Y-0.5482
G01 X30.3590 Y-0.5179
G01 X30.4063 Y-0.4828
G01 X30.4500 Y-0.4433
G01 X30.4896 Y-0.3996
G01 X30.5247 Y-0.3523
G01 X30.5549 Y-0.3018
G01 X30.5801 Y-0.2485
G01 X30.6000 Y-0.1931
G01 X30.6143 Y-0.1359
G01 X30.6229 Y-0.0776
G01 X30.6258 Y-0.0188
G01 X30.6258 Y89.9812
G01 X30.6229 Y90.0400
G01 X30.6143 Y90.0983
G01 X30.6000 Y90.1555
G01 X30.5801 Y90.2109
G01 X30.5549 Y90.2642
G01 X30.5247 Y90.3147
G01 X30.4896 Y90.3620
G01 X30.4500 Y90.4057
G01 X30.4063 Y90.4452
G01 X30.3590 Y90.4803
G01 X30.3085 Y90.5106
G01 X30.2552 Y90.5358
G01 X30.1998 Y90.5557
G01 X30.1426 Y90.5700
G01 X30.0844 Y90.5786
G01 X30.0255 Y90.5815
G01 X0.0255 Y90.5815
G01 X-0.0333 Y90.5786
G01 X-0.0916 Y90.5700
G01 X-0.1487 Y90.5557
G01 X-0.2042 Y90.5358
G01 X-0.2575 Y90.5106
G01 X-0.3080 Y90.4803
G01 X-0.3553 Y90.4452
G01 X-0.3990 Y90.4057
G01 X-0.4385 Y90.3620
G01 X-0.4736 Y90.3147
G01 X-0.5039 Y90.2642
G01 X-0.5291 Y90.2109
G01 X-0.5489 Y90.1555
G01 X-0.5632 Y90.0983
G01 X-0.5719 Y90.0400
G01 X-0.5748 Y89.9812
G00 X-0.5748 Y89.9812
G01 F60.00
G01 Z-1.6000
G01 F60.00
G01 X-0.5748 Y-0.0188
G01 X-0.5719 Y-0.0776
G01 X-0.5632 Y-0.1359
G01 X-0.5489 Y-0.1931
G01 X-0.5291 Y-0.2485
G01 X-0.5039 Y-0.3018
G01 X-0.4736 Y-0.3523
G01 X-0.4385 Y-0.3996
G01 X-0.3990 Y-0.4433
G01 X-0.3553 Y-0.4828
G01 X-0.3080 Y-0.5179
G01 X-0.2575 Y-0.5482
G01 X-0.2342 Y-0.5592
G01 X-0.2042 Y-0.5734
G01 X-0.1487 Y-0.5933
G01 X-0.0916 Y-0.6076
G01 X-0.0333 Y-0.6162
G01 X0.0255 Y-0.6191
G01 X30.0255 Y-0.6191
G01 X30.0844 Y-0.6162
G01 X30.1426 Y-0.6076
G01 X30.1998 Y-0.5933
G01 X30.2552 Y-0.5734
G01 X30.3085 Y-0.5482
G01 X30.3590 Y-0.5179
G01 X30.4063 Y-0.4828
G01 X30.4500 Y-0.4433
G01 X30.4896 Y-0.3996
G01 X30.5247 Y-0.3523
G01 X30.5549 Y-0.3018
G01 X30.5801 Y-0.2485
G01 X30.6000 Y-0.1931
G01 X30.6143 Y-0.1359
G01 X30.6229 Y-0.0776
G01 X30.6258 Y-0.0188
G01 X30.6258 Y89.9812
G01 X30.6229 Y90.0400
G01 X30.6143 Y90.0983
G01 X30.6000 Y90.1555
G01 X30.5801 Y90.2109
G01 X30.5549 Y90.2642
G01 X30.5247 Y90.3147
G01 X30.4896 Y90.3620
G01 X30.4500 Y90.4057
G01 X30.4063 Y90.4452
G01 X30.3590 Y90.4803
G01 X30.3085 Y90.5106
G01 X30.2552 Y90.5358
G01 X30.1998 Y90.5557
G01 X30.1426 Y90.5700
G01 X30.0844 Y90.5786
G01 X30.0255 Y90.5815
G01 X0.0255 Y90.5815
G01 X-0.0333 Y90.5786
G01 X-0.0916 Y90.5700
G01 X-0.1487 Y90.5557
G01 X-0.2042 Y90.5358
G01 X-0.2575 Y90.5106
G01 X-0.3080 Y90.4803
G01 X-0.3553 Y90.4452
G01 X-0.3990 Y90.4057
G01 X-0.4385 Y90.3620
G01 X-0.4736 Y90.3147
G01 X-0.5039 Y90.2642
G01 X-0.5291 Y90.2109
G01 X-0.5489 Y90.1555
G01 X-0.5632 Y90.0983
G01 X-0.5719 Y90.0400
G01 X-0.5748 Y89.9812
G00 X-0.5748 Y89.9812
G01 F60.00
G01 Z-2.4000
G01 F60.00
G01 X-0.5748 Y-0.0188
G01 X-0.5719 Y-0.0776
G01 X-0.5632 Y-0.1359
G01 X-0.5489 Y-0.1931
G01 X-0.5291 Y-0.2485
G01 X-0.5039 Y-0.3018
G01 X-0.4736 Y-0.3523
G01 X-0.4385 Y-0.3996
G01 X-0.3990 Y-0.4433
G01 X-0.3553 Y-0.4828
G01 X-0.3080 Y-0.5179
G01 X-0.2575 Y-0.5482
G01 X-0.2342 Y-0.5592
G01 X-0.2042 Y-0.5734
G01 X-0.1487 Y-0.5933
G01 X-0.0916 Y-0.6076
G01 X-0.0333 Y-0.6162
G01 X0.0255 Y-0.6191
G01 X30.0255 Y-0.6191
G01 X30.0844 Y-0.6162
G01 X30.1426 Y-0.6076
G01 X30.1998 Y-0.5933
G01 X30.2552 Y-0.5734
G01 X30.3085 Y-0.5482
G01 X30.3590 Y-0.5179
G01 X30.4063 Y-0.4828
G01 X30.4500 Y-0.4433
G01 X30.4896 Y-0.3996
G01 X30.5247 Y-0.3523
G01 X30.5549 Y-0.3018
G01 X30.5801 Y-0.2485
G01 X30.6000 Y-0.1931
G01 X30.6143 Y-0.1359
G01 X30.6229 Y-0.0776
G01 X30.6258 Y-0.0188
G01 X30.6258 Y89.9812
G01 X30.6229 Y90.0400
G01 X30.6143 Y90.0983
G01 X30.6000 Y90.1555
G01 X30.5801 Y90.2109
G01 X30.5549 Y90.2642
G01 X30.5247 Y90.3147
G01 X30.4896 Y90.3620
G01 X30.4500 Y90.4057
G01 X30.4063 Y90.4452
G01 X30.3590 Y90.4803
G01 X30.3085 Y90.5106
G01 X30.2552 Y90.5358
G01 X30.1998 Y90.5557
G01 X30.1426 Y90.5700
G01 X30.0844 Y90.5786
G01 X30.0255 Y90.5815
G01 X0.0255 Y90.5815
G01 X-0.0333 Y90.5786
G01 X-0.0916 Y90.5700
G01 X-0.1487 Y90.5557
G01 X-0.2042 Y90.5358
G01 X-0.2575 Y90.5106
G01 X-0.3080 Y90.4803
G01 X-0.3553 Y90.4452
G01 X-0.3990 Y90.4057
G01 X-0.4385 Y90.3620
G01 X-0.4736 Y90.3147
G01 X-0.5039 Y90.2642
G01 X-0.5291 Y90.2109
G01 X-0.5489 Y90.1555
G01 X-0.5632 Y90.0983
G01 X-0.5719 Y90.0400
G01 X-0.5748 Y89.9812
G00 Z2.0000
M05
G00 Z2.0000
G00 Z15.00


