(G-CODE GENERATED BY FLATCAM v8.994 - www.flatcam.org - Version Date: 2020/11/7)

(Name: interface_up_left_side_arm-F_Cu.gbr_iso_combined_cnc)
(Type: G-code from Geometry)
(Units: MM)

(Created on mardi, 07 juin 2022 at 20:13)

(This preprocessor is the default preprocessor used by FlatCAM.)
(It is made to work with MACH3 compatible motion controllers.)

(TOOL DIAMETER: 0.4 mm)
(Feedrate_XY: 120.0 mm/min)
(Feedrate_Z: 60.0 mm/min)
(Feedrate rapids 1500.0 mm/min)

(Z_Cut: -0.02 mm)
(Z_Move: 2.0 mm)
(Z Start: None mm)
(Z End: 15.0 mm)
(X,Y End: None mm)
(Steps per circle: 64)
(Preprocessor Geometry: default)

(X range:   -0.0503 ...   30.0048  mm)
(Y range:    0.3112 ...   89.6512  mm)

(Spindle Speed: 1000.0 RPM)
G21
G90
G94

G01 F120.00

M5
G00 Z15.0000
G00 X0.0000 Y0.0000
T1
M6    
(MSG, Change to Tool Dia = 0.4000)
M0
G00 Z15.0000

M03 S1000.0
G01 F120.00
G00 X3.2699 Y1.8636
G01 F60.00
G01 Z-0.0200
G01 F120.00
G01 X3.2755 Y1.9812
G01 X3.2695 Y2.1037
G01 X3.2515 Y2.2251
G01 X3.2217 Y2.3441
G01 X3.1804 Y2.4596
G01 X3.1279 Y2.5704
G01 X3.0649 Y2.6757
G01 X2.9918 Y2.7742
G01 X2.9094 Y2.8651
G01 X2.8185 Y2.9475
G01 X2.7200 Y3.0205
G01 X2.6148 Y3.0836
G01 X2.5039 Y3.1360
G01 X2.3884 Y3.1774
G01 X2.2694 Y3.2072
G01 X2.1480 Y3.2252
G01 X2.0255 Y3.2312
G01 X1.9030 Y3.2252
G01 X1.7817 Y3.2072
G01 X1.6627 Y3.1774
G01 X1.5472 Y3.1360
G01 X1.4363 Y3.0836
G01 X1.3311 Y3.0205
G01 X1.2325 Y2.9475
G01 X1.1416 Y2.8651
G01 X1.0593 Y2.7742
G01 X0.9862 Y2.6757
G01 X0.9231 Y2.5704
G01 X0.8707 Y2.4596
G01 X0.8293 Y2.3441
G01 X0.7995 Y2.2251
G01 X0.7815 Y2.1037
G01 X0.7755 Y1.9812
G01 X0.7815 Y1.8587
G01 X0.7995 Y1.7373
G01 X0.8293 Y1.6183
G01 X0.8707 Y1.5028
G01 X0.9231 Y1.3920
G01 X0.9862 Y1.2867
G01 X1.0593 Y1.1882
G01 X1.1416 Y1.0973
G01 X1.2325 Y1.0149
G01 X1.3311 Y0.9419
G01 X1.4363 Y0.8788
G01 X1.5472 Y0.8264
G01 X1.6627 Y0.7850
G01 X1.7817 Y0.7552
G01 X1.9030 Y0.7372
G01 X2.0255 Y0.7312
G01 X2.1480 Y0.7372
G01 X2.2694 Y0.7552
G01 X2.3884 Y0.7850
G01 X2.5039 Y0.8264
G01 X2.6148 Y0.8788
G01 X2.7200 Y0.9419
G01 X2.8185 Y1.0149
G01 X2.9094 Y1.0973
G01 X2.9918 Y1.1882
G01 X3.0649 Y1.2867
G01 X3.1279 Y1.3920
G01 X3.1804 Y1.5028
G01 X3.2217 Y1.6183
G01 X3.2515 Y1.7373
G01 X3.2683 Y1.8489
G01 X3.2699 Y1.8636
G00 Z2.0000
G00 X3.4095 Y1.8533
G01 F60.00
G01 Z-0.0200
G01 F120.00
G01 X3.4151 Y1.9645
G01 X3.4155 Y1.9812
G01 X3.4151 Y1.9979
G01 X3.4101 Y2.1008
G01 X3.4088 Y2.1174
G01 X3.4068 Y2.1340
G01 X3.3917 Y2.2359
G01 X3.3888 Y2.2524
G01 X3.3852 Y2.2687
G01 X3.3601 Y2.3686
G01 X3.3557 Y2.3847
G01 X3.3504 Y2.4005
G01 X3.3157 Y2.4976
G01 X3.3097 Y2.5131
G01 X3.3029 Y2.5284
G01 X3.2589 Y2.6215
G01 X3.2514 Y2.6364
G01 X3.2432 Y2.6510
G01 X3.1902 Y2.7393
G01 X3.1813 Y2.7534
G01 X3.1717 Y2.7671
G01 X3.1103 Y2.8499
G01 X3.1000 Y2.8630
G01 X3.0891 Y2.8756
G01 X3.0199 Y2.9520
G01 X3.0084 Y2.9641
G01 X2.9963 Y2.9756
G01 X2.9200 Y3.0448
G01 X2.9073 Y3.0557
G01 X2.8942 Y3.0660
G01 X2.8114 Y3.1273
G01 X2.7978 Y3.1369
G01 X2.7837 Y3.1459
G01 X2.6953 Y3.1988
G01 X2.6808 Y3.2071
G01 X2.6659 Y3.2146
G01 X2.5727 Y3.2586
G01 X2.5574 Y3.2654
G01 X2.5419 Y3.2714
G01 X2.4449 Y3.3061
G01 X2.4290 Y3.3113
G01 X2.4129 Y3.3158
G01 X2.3130 Y3.3408
G01 X2.2967 Y3.3445
G01 X2.2803 Y3.3473
G01 X2.1783 Y3.3625
G01 X2.1618 Y3.3645
G01 X2.1451 Y3.3657
G01 X2.0422 Y3.3708
G01 X2.0255 Y3.3712
G01 X2.0088 Y3.3708
G01 X1.9059 Y3.3657
G01 X1.8893 Y3.3645
G01 X1.8727 Y3.3625
G01 X1.7708 Y3.3473
G01 X1.7543 Y3.3445
G01 X1.7381 Y3.3408
G01 X1.6381 Y3.3158
G01 X1.6220 Y3.3113
G01 X1.6062 Y3.3061
G01 X1.5092 Y3.2714
G01 X1.4936 Y3.2654
G01 X1.4783 Y3.2586
G01 X1.3852 Y3.2146
G01 X1.3703 Y3.2071
G01 X1.3558 Y3.1988
G01 X1.2674 Y3.1459
G01 X1.2533 Y3.1369
G01 X1.2396 Y3.1273
G01 X1.1569 Y3.0660
G01 X1.1437 Y3.0557
G01 X1.1311 Y3.0448
G01 X1.0547 Y2.9756
G01 X1.0426 Y2.9641
G01 X1.0311 Y2.9520
G01 X0.9619 Y2.8756
G01 X0.9510 Y2.8630
G01 X0.9408 Y2.8499
G01 X0.8794 Y2.7671
G01 X0.8698 Y2.7534
G01 X0.8608 Y2.7393
G01 X0.8079 Y2.6510
G01 X0.7996 Y2.6364
G01 X0.7921 Y2.6215
G01 X0.7481 Y2.5284
G01 X0.7413 Y2.5131
G01 X0.7353 Y2.4976
G01 X0.7006 Y2.4005
G01 X0.6954 Y2.3847
G01 X0.6909 Y2.3686
G01 X0.6659 Y2.2687
G01 X0.6622 Y2.2524
G01 X0.6594 Y2.2359
G01 X0.6443 Y2.1340
G01 X0.6422 Y2.1174
G01 X0.6410 Y2.1008
G01 X0.6359 Y1.9979
G01 X0.6355 Y1.9812
G01 X0.6359 Y1.9645
G01 X0.6410 Y1.8616
G01 X0.6422 Y1.8450
G01 X0.6443 Y1.8284
G01 X0.6594 Y1.7265
G01 X0.6622 Y1.7100
G01 X0.6659 Y1.6937
G01 X0.6909 Y1.5938
G01 X0.6954 Y1.5777
G01 X0.7006 Y1.5619
G01 X0.7353 Y1.4648
G01 X0.7413 Y1.4493
G01 X0.7481 Y1.4340
G01 X0.7921 Y1.3409
G01 X0.7996 Y1.3260
G01 X0.8079 Y1.3114
G01 X0.8608 Y1.2231
G01 X0.8698 Y1.2090
G01 X0.8794 Y1.1953
G01 X0.9408 Y1.1125
G01 X0.9510 Y1.0994
G01 X0.9619 Y1.0868
G01 X1.0311 Y1.0104
G01 X1.0426 Y0.9983
G01 X1.0547 Y0.9868
G01 X1.1311 Y0.9176
G01 X1.1437 Y0.9067
G01 X1.1569 Y0.8964
G01 X1.2396 Y0.8351
G01 X1.2533 Y0.8255
G01 X1.2674 Y0.8165
G01 X1.3558 Y0.7636
G01 X1.3703 Y0.7553
G01 X1.3852 Y0.7478
G01 X1.4783 Y0.7038
G01 X1.4936 Y0.6970
G01 X1.5092 Y0.6910
G01 X1.6062 Y0.6563
G01 X1.6220 Y0.6511
G01 X1.6381 Y0.6466
G01 X1.7381 Y0.6216
G01 X1.7543 Y0.6179
G01 X1.7708 Y0.6151
G01 X1.8727 Y0.5999
G01 X1.8893 Y0.5979
G01 X1.9059 Y0.5967
G01 X2.0088 Y0.5916
G01 X2.0255 Y0.5912
G01 X2.0422 Y0.5916
G01 X2.1451 Y0.5967
G01 X2.1618 Y0.5979
G01 X2.1783 Y0.5999
G01 X2.2803 Y0.6151
G01 X2.2967 Y0.6179
G01 X2.3130 Y0.6216
G01 X2.4129 Y0.6466
G01 X2.4290 Y0.6511
G01 X2.4449 Y0.6563
G01 X2.5419 Y0.6910
G01 X2.5574 Y0.6970
G01 X2.5727 Y0.7038
G01 X2.6659 Y0.7478
G01 X2.6808 Y0.7553
G01 X2.6953 Y0.7636
G01 X2.7837 Y0.8165
G01 X2.7978 Y0.8255
G01 X2.8114 Y0.8351
G01 X2.8942 Y0.8964
G01 X2.9073 Y0.9067
G01 X2.9200 Y0.9176
G01 X2.9963 Y0.9868
G01 X3.0084 Y0.9983
G01 X3.0199 Y1.0104
G01 X3.0891 Y1.0868
G01 X3.1000 Y1.0994
G01 X3.1103 Y1.1125
G01 X3.1717 Y1.1953
G01 X3.1813 Y1.2090
G01 X3.1902 Y1.2231
G01 X3.2432 Y1.3114
G01 X3.2514 Y1.3260
G01 X3.2589 Y1.3409
G01 X3.3029 Y1.4340
G01 X3.3097 Y1.4493
G01 X3.3157 Y1.4648
G01 X3.3504 Y1.5619
G01 X3.3557 Y1.5777
G01 X3.3601 Y1.5938
G01 X3.3852 Y1.6937
G01 X3.3888 Y1.7100
G01 X3.3917 Y1.7265
G01 X3.4068 Y1.8284
G01 X3.4095 Y1.8533
G00 Z2.0000
G00 X3.5492 Y1.8430
G01 F60.00
G01 Z-0.0200
G01 F120.00
G01 X3.5549 Y1.9576
G01 X3.5555 Y1.9812
G01 X3.5549 Y2.0048
G01 X3.5499 Y2.1077
G01 X3.5482 Y2.1312
G01 X3.5453 Y2.1545
G01 X3.5301 Y2.2565
G01 X3.5261 Y2.2797
G01 X3.5210 Y2.3027
G01 X3.4959 Y2.4026
G01 X3.4896 Y2.4253
G01 X3.4822 Y2.4477
G01 X3.4475 Y2.5447
G01 X3.4391 Y2.5667
G01 X3.4295 Y2.5882
G01 X3.3855 Y2.6814
G01 X3.3749 Y2.7024
G01 X3.3632 Y2.7229
G01 X3.3103 Y2.8113
G01 X3.2977 Y2.8312
G01 X3.2841 Y2.8505
G01 X3.2227 Y2.9332
G01 X3.2082 Y2.9518
G01 X3.1928 Y2.9697
G01 X3.1236 Y3.0460
G01 X3.1074 Y3.0631
G01 X3.0903 Y3.0793
G01 X3.0140 Y3.1485
G01 X2.9961 Y3.1639
G01 X2.9776 Y3.1784
G01 X2.8948 Y3.2398
G01 X2.8755 Y3.2533
G01 X2.8556 Y3.2660
G01 X2.7673 Y3.3189
G01 X2.7468 Y3.3305
G01 X2.7257 Y3.3411
G01 X2.6326 Y3.3852
G01 X2.6110 Y3.3947
G01 X2.5890 Y3.4032
G01 X2.4920 Y3.4379
G01 X2.4697 Y3.4453
G01 X2.4469 Y3.4516
G01 X2.3470 Y3.4766
G01 X2.3240 Y3.4818
G01 X2.3008 Y3.4858
G01 X2.1989 Y3.5009
G01 X2.1755 Y3.5038
G01 X2.1520 Y3.5056
G01 X2.0491 Y3.5106
G01 X2.0255 Y3.5112
G01 X2.0020 Y3.5106
G01 X1.8990 Y3.5056
G01 X1.8756 Y3.5038
G01 X1.8522 Y3.5009
G01 X1.7502 Y3.4858
G01 X1.7270 Y3.4818
G01 X1.7040 Y3.4766
G01 X1.6041 Y3.4516
G01 X1.5814 Y3.4453
G01 X1.5590 Y3.4379
G01 X1.4620 Y3.4032
G01 X1.4400 Y3.3947
G01 X1.4185 Y3.3852
G01 X1.3253 Y3.3411
G01 X1.3043 Y3.3305
G01 X1.2838 Y3.3189
G01 X1.1954 Y3.2660
G01 X1.1755 Y3.2533
G01 X1.1562 Y3.2398
G01 X1.0735 Y3.1784
G01 X1.0549 Y3.1639
G01 X1.0371 Y3.1485
G01 X0.9607 Y3.0793
G01 X0.9436 Y3.0631
G01 X0.9274 Y3.0460
G01 X0.8582 Y2.9697
G01 X0.8428 Y2.9518
G01 X0.8283 Y2.9332
G01 X0.7669 Y2.8505
G01 X0.7534 Y2.8312
G01 X0.7408 Y2.8113
G01 X0.6878 Y2.7229
G01 X0.6762 Y2.7024
G01 X0.6656 Y2.6814
G01 X0.6215 Y2.5882
G01 X0.6120 Y2.5667
G01 X0.6035 Y2.5447
G01 X0.5688 Y2.4477
G01 X0.5614 Y2.4253
G01 X0.5551 Y2.4026
G01 X0.5301 Y2.3027
G01 X0.5249 Y2.2797
G01 X0.5209 Y2.2565
G01 X0.5058 Y2.1545
G01 X0.5029 Y2.1312
G01 X0.5012 Y2.1077
G01 X0.4961 Y2.0048
G01 X0.4955 Y1.9812
G01 X0.4961 Y1.9576
G01 X0.5012 Y1.8547
G01 X0.5029 Y1.8312
G01 X0.5058 Y1.8079
G01 X0.5209 Y1.7059
G01 X0.5249 Y1.6827
G01 X0.5301 Y1.6597
G01 X0.5551 Y1.5598
G01 X0.5614 Y1.5371
G01 X0.5688 Y1.5147
G01 X0.6035 Y1.4177
G01 X0.6120 Y1.3957
G01 X0.6215 Y1.3742
G01 X0.6656 Y1.2810
G01 X0.6762 Y1.2600
G01 X0.6878 Y1.2395
G01 X0.7408 Y1.1511
G01 X0.7534 Y1.1312
G01 X0.7669 Y1.1119
G01 X0.8283 Y1.0292
G01 X0.8428 Y1.0106
G01 X0.8582 Y0.9927
G01 X0.9274 Y0.9164
G01 X0.9436 Y0.8993
G01 X0.9607 Y0.8831
G01 X1.0371 Y0.8139
G01 X1.0549 Y0.7985
G01 X1.0735 Y0.7840
G01 X1.1562 Y0.7226
G01 X1.1755 Y0.7091
G01 X1.1954 Y0.6964
G01 X1.2838 Y0.6435
G01 X1.3043 Y0.6319
G01 X1.3253 Y0.6213
G01 X1.4185 Y0.5772
G01 X1.4400 Y0.5677
G01 X1.4620 Y0.5592
G01 X1.5590 Y0.5245
G01 X1.5814 Y0.5171
G01 X1.6041 Y0.5108
G01 X1.7040 Y0.4858
G01 X1.7270 Y0.4806
G01 X1.7502 Y0.4766
G01 X1.8522 Y0.4615
G01 X1.8756 Y0.4586
G01 X1.8990 Y0.4568
G01 X2.0020 Y0.4518
G01 X2.0255 Y0.4512
G01 X2.0491 Y0.4518
G01 X2.1520 Y0.4568
G01 X2.1755 Y0.4586
G01 X2.1989 Y0.4615
G01 X2.3008 Y0.4766
G01 X2.3240 Y0.4806
G01 X2.3470 Y0.4858
G01 X2.4469 Y0.5108
G01 X2.4697 Y0.5171
G01 X2.4920 Y0.5245
G01 X2.5890 Y0.5592
G01 X2.6110 Y0.5677
G01 X2.6326 Y0.5772
G01 X2.7257 Y0.6213
G01 X2.7468 Y0.6319
G01 X2.7673 Y0.6435
G01 X2.8556 Y0.6964
G01 X2.8755 Y0.7091
G01 X2.8948 Y0.7226
G01 X2.9776 Y0.7840
G01 X2.9961 Y0.7985
G01 X3.0140 Y0.8139
G01 X3.0903 Y0.8831
G01 X3.1074 Y0.8993
G01 X3.1236 Y0.9164
G01 X3.1928 Y0.9927
G01 X3.2082 Y1.0106
G01 X3.2227 Y1.0292
G01 X3.2841 Y1.1119
G01 X3.2977 Y1.1312
G01 X3.3103 Y1.1511
G01 X3.3632 Y1.2395
G01 X3.3749 Y1.2600
G01 X3.3855 Y1.2810
G01 X3.4295 Y1.3742
G01 X3.4391 Y1.3957
G01 X3.4475 Y1.4177
G01 X3.4822 Y1.5147
G01 X3.4896 Y1.5371
G01 X3.4959 Y1.5598
G01 X3.5210 Y1.6597
G01 X3.5261 Y1.6827
G01 X3.5301 Y1.7059
G01 X3.5453 Y1.8079
G01 X3.5469 Y1.8195
G01 X3.5492 Y1.8430
G00 Z2.0000
G00 X3.6888 Y1.8327
G01 F60.00
G01 Z-0.0200
G01 F120.00
G01 X3.6948 Y1.9508
G01 X3.6955 Y1.9812
G01 X3.6948 Y2.0116
G01 X3.6897 Y2.1145
G01 X3.6875 Y2.1449
G01 X3.6838 Y2.1751
G01 X3.6686 Y2.2770
G01 X3.6634 Y2.3070
G01 X3.6568 Y2.3367
G01 X3.6317 Y2.4366
G01 X3.6236 Y2.4660
G01 X3.6141 Y2.4949
G01 X3.5794 Y2.5919
G01 X3.5684 Y2.6203
G01 X3.5561 Y2.6481
G01 X3.5120 Y2.7413
G01 X3.4983 Y2.7684
G01 X3.4833 Y2.7949
G01 X3.4304 Y2.8833
G01 X3.4141 Y2.9090
G01 X3.3966 Y2.9339
G01 X3.3352 Y3.0166
G01 X3.3164 Y3.0406
G01 X3.2966 Y3.0637
G01 X3.2274 Y3.1400
G01 X3.2064 Y3.1621
G01 X3.1843 Y3.1831
G01 X3.1080 Y3.2523
G01 X3.0850 Y3.2721
G01 X3.0610 Y3.2908
G01 X2.9782 Y3.3522
G01 X2.9533 Y3.3698
G01 X2.9276 Y3.3860
G01 X2.8392 Y3.4390
G01 X2.8128 Y3.4540
G01 X2.7856 Y3.4677
G01 X2.6924 Y3.5117
G01 X2.6646 Y3.5241
G01 X2.6362 Y3.5350
G01 X2.5392 Y3.5697
G01 X2.5103 Y3.5793
G01 X2.4810 Y3.5874
G01 X2.3810 Y3.6124
G01 X2.3513 Y3.6191
G01 X2.3213 Y3.6243
G01 X2.2194 Y3.6394
G01 X2.1892 Y3.6432
G01 X2.1589 Y3.6454
G01 X2.0559 Y3.6505
G01 X2.0255 Y3.6512
G01 X1.9951 Y3.6505
G01 X1.8922 Y3.6454
G01 X1.8618 Y3.6432
G01 X1.8316 Y3.6394
G01 X1.7297 Y3.6243
G01 X1.6997 Y3.6191
G01 X1.6700 Y3.6124
G01 X1.5701 Y3.5874
G01 X1.5407 Y3.5793
G01 X1.5118 Y3.5697
G01 X1.4148 Y3.5350
G01 X1.3864 Y3.5241
G01 X1.3586 Y3.5117
G01 X1.2655 Y3.4677
G01 X1.2383 Y3.4540
G01 X1.2118 Y3.4390
G01 X1.1234 Y3.3860
G01 X1.0977 Y3.3698
G01 X1.0728 Y3.3522
G01 X0.9901 Y3.2908
G01 X0.9661 Y3.2721
G01 X0.9430 Y3.2523
G01 X0.8667 Y3.1831
G01 X0.8447 Y3.1621
G01 X0.8237 Y3.1400
G01 X0.7545 Y3.0637
G01 X0.7346 Y3.0406
G01 X0.7159 Y3.0166
G01 X0.6545 Y2.9339
G01 X0.6370 Y2.9090
G01 X0.6207 Y2.8833
G01 X0.5677 Y2.7949
G01 X0.5527 Y2.7684
G01 X0.5390 Y2.7413
G01 X0.4950 Y2.6481
G01 X0.4826 Y2.6203
G01 X0.4717 Y2.5919
G01 X0.4370 Y2.4949
G01 X0.4274 Y2.4660
G01 X0.4193 Y2.4366
G01 X0.3943 Y2.3367
G01 X0.3876 Y2.3070
G01 X0.3824 Y2.2770
G01 X0.3673 Y2.1751
G01 X0.3636 Y2.1449
G01 X0.3613 Y2.1145
G01 X0.3563 Y2.0116
G01 X0.3555 Y1.9812
G01 X0.3563 Y1.9508
G01 X0.3613 Y1.8479
G01 X0.3636 Y1.8175
G01 X0.3673 Y1.7873
G01 X0.3824 Y1.6854
G01 X0.3876 Y1.6554
G01 X0.3943 Y1.6257
G01 X0.4193 Y1.5258
G01 X0.4274 Y1.4964
G01 X0.4370 Y1.4675
G01 X0.4717 Y1.3705
G01 X0.4826 Y1.3421
G01 X0.4950 Y1.3143
G01 X0.5390 Y1.2211
G01 X0.5527 Y1.1940
G01 X0.5677 Y1.1675
G01 X0.6207 Y1.0791
G01 X0.6370 Y1.0534
G01 X0.6545 Y1.0285
G01 X0.7159 Y0.9458
G01 X0.7346 Y0.9218
G01 X0.7545 Y0.8987
G01 X0.8237 Y0.8224
G01 X0.8447 Y0.8003
G01 X0.8667 Y0.7793
G01 X0.9430 Y0.7101
G01 X0.9661 Y0.6903
G01 X0.9901 Y0.6716
G01 X1.0728 Y0.6102
G01 X1.0977 Y0.5926
G01 X1.1234 Y0.5764
G01 X1.2118 Y0.5234
G01 X1.2383 Y0.5084
G01 X1.2655 Y0.4947
G01 X1.3586 Y0.4507
G01 X1.3864 Y0.4383
G01 X1.4148 Y0.4274
G01 X1.5118 Y0.3927
G01 X1.5407 Y0.3831
G01 X1.5701 Y0.3750
G01 X1.6700 Y0.3500
G01 X1.6997 Y0.3433
G01 X1.7297 Y0.3381
G01 X1.8316 Y0.3230
G01 X1.8618 Y0.3192
G01 X1.8922 Y0.3170
G01 X1.9951 Y0.3119
G01 X2.0255 Y0.3112
G01 X2.0559 Y0.3119
G01 X2.1589 Y0.3170
G01 X2.1892 Y0.3192
G01 X2.2194 Y0.3230
G01 X2.3213 Y0.3381
G01 X2.3513 Y0.3433
G01 X2.3810 Y0.3500
G01 X2.4810 Y0.3750
G01 X2.5103 Y0.3831
G01 X2.5392 Y0.3927
G01 X2.6362 Y0.4274
G01 X2.6646 Y0.4383
G01 X2.6924 Y0.4507
G01 X2.7856 Y0.4947
G01 X2.8128 Y0.5084
G01 X2.8392 Y0.5234
G01 X2.9276 Y0.5764
G01 X2.9533 Y0.5926
G01 X2.9782 Y0.6102
G01 X3.0610 Y0.6716
G01 X3.0850 Y0.6903
G01 X3.1080 Y0.7101
G01 X3.1843 Y0.7793
G01 X3.2064 Y0.8003
G01 X3.2274 Y0.8224
G01 X3.2966 Y0.8987
G01 X3.3164 Y0.9218
G01 X3.3352 Y0.9458
G01 X3.3966 Y1.0285
G01 X3.4141 Y1.0534
G01 X3.4304 Y1.0791
G01 X3.4833 Y1.1675
G01 X3.4983 Y1.1940
G01 X3.5120 Y1.2211
G01 X3.5561 Y1.3143
G01 X3.5684 Y1.3421
G01 X3.5794 Y1.3705
G01 X3.6141 Y1.4675
G01 X3.6236 Y1.4964
G01 X3.6317 Y1.5258
G01 X3.6568 Y1.6257
G01 X3.6634 Y1.6554
G01 X3.6686 Y1.6854
G01 X3.6838 Y1.7873
G01 X3.6858 Y1.8024
G01 X3.6888 Y1.8327
G00 Z2.0000
G00 X12.7335 Y9.6005
G01 F60.00
G01 Z-0.0200
G01 F120.00
G01 X12.7437 Y9.8112
G01 X12.7331 Y10.0268
G01 X12.7014 Y10.2404
G01 X12.6490 Y10.4498
G01 X12.5763 Y10.6531
G01 X12.4839 Y10.8483
G01 X12.3730 Y11.0335
G01 X12.2443 Y11.2069
G01 X12.0994 Y11.3668
G01 X11.9394 Y11.5118
G01 X11.7660 Y11.6404
G01 X11.5808 Y11.7514
G01 X11.3856 Y11.8437
G01 X11.1823 Y11.9165
G01 X10.9729 Y11.9689
G01 X10.7594 Y12.0006
G01 X10.5437 Y12.0112
G01 X10.3281 Y12.0006
G01 X10.1145 Y11.9689
G01 X9.9051 Y11.9165
G01 X9.7018 Y11.8437
G01 X9.5066 Y11.7514
G01 X9.3215 Y11.6404
G01 X9.1481 Y11.5118
G01 X8.9881 Y11.3668
G01 X8.8431 Y11.2069
G01 X8.7145 Y11.0335
G01 X8.6035 Y10.8483
G01 X8.5112 Y10.6531
G01 X8.4385 Y10.4498
G01 X8.3860 Y10.2404
G01 X8.3543 Y10.0268
G01 X8.3437 Y9.8112
G01 X8.3543 Y9.5956
G01 X8.3860 Y9.3820
G01 X8.4385 Y9.1726
G01 X8.5112 Y8.9693
G01 X8.6035 Y8.7741
G01 X8.7145 Y8.5889
G01 X8.8431 Y8.4155
G01 X8.9881 Y8.2556
G01 X9.1481 Y8.1106
G01 X9.3215 Y7.9820
G01 X9.5066 Y7.8710
G01 X9.7018 Y7.7787
G01 X9.9051 Y7.7059
G01 X10.1145 Y7.6535
G01 X10.3281 Y7.6218
G01 X10.5437 Y7.6112
G01 X10.7594 Y7.6218
G01 X10.9729 Y7.6535
G01 X11.1823 Y7.7059
G01 X11.3856 Y7.7787
G01 X11.5808 Y7.8710
G01 X11.7660 Y7.9820
G01 X11.9394 Y8.1106
G01 X12.0994 Y8.2556
G01 X12.2443 Y8.4155
G01 X12.3730 Y8.5889
G01 X12.4839 Y8.7741
G01 X12.5763 Y8.9693
G01 X12.6490 Y9.1726
G01 X12.7014 Y9.3820
G01 X12.7319 Y9.5858
G01 X12.7335 Y9.6005
G00 Z2.0000
G00 X12.8732 Y9.5902
G01 F60.00
G01 Z-0.0200
G01 F120.00
G01 X12.8833 Y9.7945
G01 X12.8837 Y9.8112
G01 X12.8833 Y9.8279
G01 X12.8737 Y10.0239
G01 X12.8725 Y10.0406
G01 X12.8704 Y10.0571
G01 X12.8416 Y10.2513
G01 X12.8388 Y10.2677
G01 X12.8351 Y10.2840
G01 X12.7874 Y10.4744
G01 X12.7830 Y10.4905
G01 X12.7777 Y10.5063
G01 X12.7116 Y10.6911
G01 X12.7056 Y10.7067
G01 X12.6988 Y10.7219
G01 X12.6149 Y10.8994
G01 X12.6074 Y10.9143
G01 X12.5992 Y10.9288
G01 X12.4983 Y11.0971
G01 X12.4894 Y11.1112
G01 X12.4797 Y11.1249
G01 X12.3628 Y11.2825
G01 X12.3526 Y11.2957
G01 X12.3417 Y11.3083
G01 X12.2099 Y11.4537
G01 X12.1983 Y11.4658
G01 X12.1863 Y11.4773
G01 X12.0408 Y11.6091
G01 X12.0282 Y11.6200
G01 X12.0150 Y11.6303
G01 X11.8574 Y11.7472
G01 X11.8438 Y11.7568
G01 X11.8297 Y11.7658
G01 X11.6613 Y11.8667
G01 X11.6468 Y11.8749
G01 X11.6319 Y11.8824
G01 X11.4545 Y11.9663
G01 X11.4392 Y11.9731
G01 X11.4236 Y11.9791
G01 X11.2388 Y12.0452
G01 X11.2230 Y12.0504
G01 X11.2069 Y12.0549
G01 X11.0165 Y12.1026
G01 X11.0002 Y12.1062
G01 X10.9838 Y12.1091
G01 X10.7896 Y12.1379
G01 X10.7731 Y12.1399
G01 X10.7564 Y12.1412
G01 X10.5604 Y12.1508
G01 X10.5437 Y12.1512
G01 X10.5270 Y12.1508
G01 X10.3310 Y12.1412
G01 X10.3144 Y12.1399
G01 X10.2978 Y12.1379
G01 X10.1037 Y12.1091
G01 X10.0872 Y12.1062
G01 X10.0709 Y12.1026
G01 X9.8805 Y12.0549
G01 X9.8645 Y12.0504
G01 X9.8486 Y12.0452
G01 X9.6638 Y11.9791
G01 X9.6482 Y11.9731
G01 X9.6330 Y11.9663
G01 X9.4556 Y11.8824
G01 X9.4407 Y11.8749
G01 X9.4261 Y11.8667
G01 X9.2578 Y11.7658
G01 X9.2437 Y11.7568
G01 X9.2300 Y11.7472
G01 X9.0724 Y11.6303
G01 X9.0592 Y11.6200
G01 X9.0466 Y11.6091
G01 X8.9012 Y11.4773
G01 X8.8891 Y11.4658
G01 X8.8776 Y11.4537
G01 X8.7458 Y11.3083
G01 X8.7349 Y11.2957
G01 X8.7246 Y11.2825
G01 X8.6077 Y11.1249
G01 X8.5981 Y11.1112
G01 X8.5892 Y11.0971
G01 X8.4882 Y10.9288
G01 X8.4800 Y10.9143
G01 X8.4725 Y10.8994
G01 X8.3886 Y10.7219
G01 X8.3818 Y10.7067
G01 X8.3758 Y10.6911
G01 X8.3097 Y10.5063
G01 X8.3045 Y10.4905
G01 X8.3000 Y10.4744
G01 X8.2523 Y10.2840
G01 X8.2487 Y10.2677
G01 X8.2458 Y10.2513
G01 X8.2170 Y10.0571
G01 X8.2150 Y10.0406
G01 X8.2138 Y10.0239
G01 X8.2041 Y9.8279
G01 X8.2037 Y9.8112
G01 X8.2041 Y9.7945
G01 X8.2138 Y9.5985
G01 X8.2150 Y9.5818
G01 X8.2170 Y9.5653
G01 X8.2458 Y9.3711
G01 X8.2487 Y9.3547
G01 X8.2523 Y9.3384
G01 X8.3000 Y9.1480
G01 X8.3045 Y9.1319
G01 X8.3097 Y9.1161
G01 X8.3758 Y8.9313
G01 X8.3818 Y8.9157
G01 X8.3886 Y8.9005
G01 X8.4725 Y8.7230
G01 X8.4800 Y8.7081
G01 X8.4882 Y8.6936
G01 X8.5892 Y8.5253
G01 X8.5981 Y8.5112
G01 X8.6077 Y8.4975
G01 X8.7246 Y8.3399
G01 X8.7349 Y8.3267
G01 X8.7458 Y8.3141
G01 X8.8776 Y8.1687
G01 X8.8891 Y8.1566
G01 X8.9012 Y8.1451
G01 X9.0466 Y8.0133
G01 X9.0592 Y8.0024
G01 X9.0724 Y7.9921
G01 X9.2300 Y7.8752
G01 X9.2437 Y7.8656
G01 X9.2578 Y7.8566
G01 X9.4261 Y7.7557
G01 X9.4407 Y7.7475
G01 X9.4556 Y7.7400
G01 X9.6330 Y7.6561
G01 X9.6482 Y7.6493
G01 X9.6638 Y7.6433
G01 X9.8486 Y7.5772
G01 X9.8645 Y7.5720
G01 X9.8805 Y7.5675
G01 X10.0709 Y7.5198
G01 X10.0872 Y7.5162
G01 X10.1037 Y7.5133
G01 X10.2978 Y7.4845
G01 X10.3144 Y7.4825
G01 X10.3310 Y7.4812
G01 X10.5270 Y7.4716
G01 X10.5437 Y7.4712
G01 X10.5604 Y7.4716
G01 X10.7564 Y7.4812
G01 X10.7731 Y7.4825
G01 X10.7896 Y7.4845
G01 X10.9838 Y7.5133
G01 X11.0002 Y7.5162
G01 X11.0165 Y7.5198
G01 X11.2069 Y7.5675
G01 X11.2230 Y7.5720
G01 X11.2388 Y7.5772
G01 X11.4236 Y7.6433
G01 X11.4392 Y7.6493
G01 X11.4545 Y7.6561
G01 X11.6319 Y7.7400
G01 X11.6468 Y7.7475
G01 X11.6613 Y7.7557
G01 X11.8297 Y7.8566
G01 X11.8438 Y7.8656
G01 X11.8574 Y7.8752
G01 X12.0150 Y7.9921
G01 X12.0282 Y8.0024
G01 X12.0408 Y8.0133
G01 X12.1863 Y8.1451
G01 X12.1983 Y8.1566
G01 X12.2099 Y8.1687
G01 X12.3417 Y8.3141
G01 X12.3526 Y8.3267
G01 X12.3628 Y8.3399
G01 X12.4797 Y8.4975
G01 X12.4894 Y8.5112
G01 X12.4983 Y8.5253
G01 X12.5992 Y8.6936
G01 X12.6074 Y8.7081
G01 X12.6149 Y8.7230
G01 X12.6988 Y8.9005
G01 X12.7056 Y8.9157
G01 X12.7116 Y8.9313
G01 X12.7777 Y9.1161
G01 X12.7830 Y9.1319
G01 X12.7874 Y9.1480
G01 X12.8351 Y9.3384
G01 X12.8388 Y9.3547
G01 X12.8416 Y9.3711
G01 X12.8704 Y9.5653
G01 X12.8732 Y9.5902
G00 Z2.0000
G00 X13.0128 Y9.5799
G01 F60.00
G01 Z-0.0200
G01 F120.00
G01 X13.0231 Y9.7876
G01 X13.0237 Y9.8112
G01 X13.0231 Y9.8348
G01 X13.0135 Y10.0308
G01 X13.0118 Y10.0543
G01 X13.0089 Y10.0777
G01 X12.9801 Y10.2718
G01 X12.9761 Y10.2950
G01 X12.9709 Y10.3180
G01 X12.9232 Y10.5084
G01 X12.9169 Y10.5311
G01 X12.9095 Y10.5535
G01 X12.8434 Y10.7383
G01 X12.8349 Y10.7603
G01 X12.8254 Y10.7818
G01 X12.7415 Y10.9592
G01 X12.7309 Y10.9803
G01 X12.7193 Y11.0008
G01 X12.6184 Y11.1691
G01 X12.6058 Y11.1890
G01 X12.5922 Y11.2083
G01 X12.4753 Y11.3659
G01 X12.4608 Y11.3845
G01 X12.4454 Y11.4023
G01 X12.3136 Y11.5478
G01 X12.2973 Y11.5648
G01 X12.2803 Y11.5811
G01 X12.1349 Y11.7129
G01 X12.1170 Y11.7283
G01 X12.0984 Y11.7428
G01 X11.9408 Y11.8597
G01 X11.9215 Y11.8732
G01 X11.9016 Y11.8858
G01 X11.7333 Y11.9868
G01 X11.7128 Y11.9984
G01 X11.6917 Y12.0090
G01 X11.5143 Y12.0929
G01 X11.4928 Y12.1024
G01 X11.4708 Y12.1109
G01 X11.2860 Y12.1770
G01 X11.2636 Y12.1844
G01 X11.2409 Y12.1907
G01 X11.0505 Y12.2384
G01 X11.0275 Y12.2435
G01 X11.0043 Y12.2476
G01 X10.8102 Y12.2764
G01 X10.7868 Y12.2793
G01 X10.7633 Y12.2810
G01 X10.5673 Y12.2906
G01 X10.5437 Y12.2912
G01 X10.5202 Y12.2906
G01 X10.3241 Y12.2810
G01 X10.3006 Y12.2793
G01 X10.2773 Y12.2764
G01 X10.0831 Y12.2476
G01 X10.0599 Y12.2435
G01 X10.0369 Y12.2384
G01 X9.8465 Y12.1907
G01 X9.8238 Y12.1844
G01 X9.8014 Y12.1770
G01 X9.6166 Y12.1109
G01 X9.5947 Y12.1024
G01 X9.5731 Y12.0929
G01 X9.3957 Y12.0090
G01 X9.3747 Y11.9984
G01 X9.3542 Y11.9868
G01 X9.1858 Y11.8858
G01 X9.1659 Y11.8732
G01 X9.1466 Y11.8597
G01 X8.9890 Y11.7428
G01 X8.9704 Y11.7283
G01 X8.9526 Y11.7129
G01 X8.8072 Y11.5811
G01 X8.7901 Y11.5648
G01 X8.7739 Y11.5478
G01 X8.6420 Y11.4023
G01 X8.6267 Y11.3845
G01 X8.6122 Y11.3659
G01 X8.4952 Y11.2083
G01 X8.4817 Y11.1890
G01 X8.4691 Y11.1691
G01 X8.3682 Y11.0008
G01 X8.3566 Y10.9803
G01 X8.3460 Y10.9592
G01 X8.2620 Y10.7818
G01 X8.2525 Y10.7603
G01 X8.2440 Y10.7383
G01 X8.1779 Y10.5535
G01 X8.1705 Y10.5311
G01 X8.1642 Y10.5084
G01 X8.1165 Y10.3180
G01 X8.1114 Y10.2950
G01 X8.1073 Y10.2718
G01 X8.0785 Y10.0777
G01 X8.0757 Y10.0543
G01 X8.0739 Y10.0308
G01 X8.0643 Y9.8348
G01 X8.0637 Y9.8112
G01 X8.0643 Y9.7876
G01 X8.0739 Y9.5916
G01 X8.0757 Y9.5681
G01 X8.0785 Y9.5447
G01 X8.1073 Y9.3506
G01 X8.1114 Y9.3274
G01 X8.1165 Y9.3044
G01 X8.1642 Y9.1140
G01 X8.1705 Y9.0913
G01 X8.1779 Y9.0689
G01 X8.2440 Y8.8841
G01 X8.2525 Y8.8621
G01 X8.2620 Y8.8406
G01 X8.3460 Y8.6632
G01 X8.3566 Y8.6421
G01 X8.3682 Y8.6216
G01 X8.4691 Y8.4533
G01 X8.4817 Y8.4334
G01 X8.4952 Y8.4141
G01 X8.6122 Y8.2565
G01 X8.6267 Y8.2379
G01 X8.6420 Y8.2201
G01 X8.7739 Y8.0746
G01 X8.7901 Y8.0576
G01 X8.8072 Y8.0413
G01 X8.9526 Y7.9095
G01 X8.9704 Y7.8941
G01 X8.9890 Y7.8796
G01 X9.1466 Y7.7627
G01 X9.1659 Y7.7492
G01 X9.1858 Y7.7366
G01 X9.3542 Y7.6356
G01 X9.3747 Y7.6240
G01 X9.3957 Y7.6134
G01 X9.5731 Y7.5295
G01 X9.5947 Y7.5200
G01 X9.6166 Y7.5115
G01 X9.8014 Y7.4454
G01 X9.8238 Y7.4380
G01 X9.8465 Y7.4317
G01 X10.0369 Y7.3840
G01 X10.0599 Y7.3789
G01 X10.0831 Y7.3748
G01 X10.2773 Y7.3460
G01 X10.3006 Y7.3431
G01 X10.3241 Y7.3414
G01 X10.5202 Y7.3318
G01 X10.5437 Y7.3312
G01 X10.5673 Y7.3318
G01 X10.7633 Y7.3414
G01 X10.7868 Y7.3431
G01 X10.8102 Y7.3460
G01 X11.0043 Y7.3748
G01 X11.0275 Y7.3789
G01 X11.0505 Y7.3840
G01 X11.2409 Y7.4317
G01 X11.2636 Y7.4380
G01 X11.2860 Y7.4454
G01 X11.4708 Y7.5115
G01 X11.4928 Y7.5200
G01 X11.5143 Y7.5295
G01 X11.6917 Y7.6134
G01 X11.7128 Y7.6240
G01 X11.7333 Y7.6356
G01 X11.9016 Y7.7366
G01 X11.9215 Y7.7492
G01 X11.9408 Y7.7627
G01 X12.0984 Y7.8796
G01 X12.1170 Y7.8941
G01 X12.1349 Y7.9095
G01 X12.2803 Y8.0413
G01 X12.2973 Y8.0576
G01 X12.3136 Y8.0746
G01 X12.4454 Y8.2201
G01 X12.4608 Y8.2379
G01 X12.4753 Y8.2565
G01 X12.5922 Y8.4141
G01 X12.6058 Y8.4334
G01 X12.6184 Y8.4533
G01 X12.7193 Y8.6216
G01 X12.7309 Y8.6421
G01 X12.7415 Y8.6632
G01 X12.8254 Y8.8406
G01 X12.8349 Y8.8621
G01 X12.8434 Y8.8841
G01 X12.9095 Y9.0689
G01 X12.9169 Y9.0913
G01 X12.9232 Y9.1140
G01 X12.9709 Y9.3044
G01 X12.9761 Y9.3274
G01 X12.9801 Y9.3506
G01 X13.0089 Y9.5447
G01 X13.0105 Y9.5564
G01 X13.0128 Y9.5799
G00 Z2.0000
G00 X13.1524 Y9.5696
G01 F60.00
G01 Z-0.0200
G01 F120.00
G01 X13.1630 Y9.7808
G01 X13.1637 Y9.8112
G01 X13.1630 Y9.8416
G01 X13.1533 Y10.0377
G01 X13.1511 Y10.0680
G01 X13.1474 Y10.0982
G01 X13.1186 Y10.2924
G01 X13.1134 Y10.3223
G01 X13.1067 Y10.3520
G01 X13.0590 Y10.5424
G01 X13.0509 Y10.5717
G01 X13.0414 Y10.6006
G01 X12.9752 Y10.7854
G01 X12.9643 Y10.8138
G01 X12.9520 Y10.8417
G01 X12.8680 Y11.0191
G01 X12.8544 Y11.0463
G01 X12.8394 Y11.0727
G01 X12.7385 Y11.2411
G01 X12.7222 Y11.2668
G01 X12.7046 Y11.2917
G01 X12.5877 Y11.4493
G01 X12.5690 Y11.4733
G01 X12.5491 Y11.4964
G01 X12.4173 Y11.6418
G01 X12.3963 Y11.6638
G01 X12.3743 Y11.6848
G01 X12.2289 Y11.8166
G01 X12.2058 Y11.8365
G01 X12.1818 Y11.8552
G01 X12.0242 Y11.9721
G01 X11.9993 Y11.9897
G01 X11.9736 Y12.0059
G01 X11.8053 Y12.1068
G01 X11.7788 Y12.1218
G01 X11.7516 Y12.1355
G01 X11.5742 Y12.2194
G01 X11.5464 Y12.2318
G01 X11.5180 Y12.2427
G01 X11.3332 Y12.3088
G01 X11.3043 Y12.3184
G01 X11.2749 Y12.3265
G01 X11.0845 Y12.3742
G01 X11.0549 Y12.3809
G01 X11.0249 Y12.3861
G01 X10.8307 Y12.4149
G01 X10.8005 Y12.4186
G01 X10.7702 Y12.4208
G01 X10.5741 Y12.4305
G01 X10.5437 Y12.4312
G01 X10.5133 Y12.4305
G01 X10.3173 Y12.4208
G01 X10.2869 Y12.4186
G01 X10.2567 Y12.4149
G01 X10.0626 Y12.3861
G01 X10.0326 Y12.3809
G01 X10.0029 Y12.3742
G01 X9.8125 Y12.3265
G01 X9.7832 Y12.3184
G01 X9.7543 Y12.3088
G01 X9.5695 Y12.2427
G01 X9.5411 Y12.2318
G01 X9.5133 Y12.2194
G01 X9.3358 Y12.1355
G01 X9.3087 Y12.1218
G01 X9.2822 Y12.1068
G01 X9.1138 Y12.0059
G01 X9.0881 Y11.9897
G01 X9.0632 Y11.9721
G01 X8.9056 Y11.8552
G01 X8.8816 Y11.8365
G01 X8.8586 Y11.8166
G01 X8.7131 Y11.6848
G01 X8.6911 Y11.6638
G01 X8.6701 Y11.6418
G01 X8.5383 Y11.4964
G01 X8.5184 Y11.4733
G01 X8.4997 Y11.4493
G01 X8.3828 Y11.2917
G01 X8.3653 Y11.2668
G01 X8.3490 Y11.2411
G01 X8.2481 Y11.0727
G01 X8.2331 Y11.0463
G01 X8.2194 Y11.0191
G01 X8.1355 Y10.8417
G01 X8.1232 Y10.8138
G01 X8.1122 Y10.7854
G01 X8.0461 Y10.6006
G01 X8.0365 Y10.5717
G01 X8.0284 Y10.5424
G01 X7.9807 Y10.3520
G01 X7.9741 Y10.3223
G01 X7.9689 Y10.2924
G01 X7.9401 Y10.0982
G01 X7.9363 Y10.0680
G01 X7.9341 Y10.0377
G01 X7.9245 Y9.8416
G01 X7.9237 Y9.8112
G01 X7.9245 Y9.7808
G01 X7.9341 Y9.5847
G01 X7.9363 Y9.5544
G01 X7.9401 Y9.5242
G01 X7.9689 Y9.3300
G01 X7.9741 Y9.3001
G01 X7.9807 Y9.2704
G01 X8.0284 Y9.0800
G01 X8.0365 Y9.0507
G01 X8.0461 Y9.0218
G01 X8.1122 Y8.8370
G01 X8.1232 Y8.8086
G01 X8.1355 Y8.7807
G01 X8.2194 Y8.6033
G01 X8.2331 Y8.5761
G01 X8.2481 Y8.5497
G01 X8.3490 Y8.3813
G01 X8.3653 Y8.3556
G01 X8.3828 Y8.3307
G01 X8.4997 Y8.1731
G01 X8.5184 Y8.1491
G01 X8.5383 Y8.1260
G01 X8.6701 Y7.9806
G01 X8.6911 Y7.9586
G01 X8.7131 Y7.9376
G01 X8.8586 Y7.8058
G01 X8.8816 Y7.7859
G01 X8.9056 Y7.7672
G01 X9.0632 Y7.6503
G01 X9.0881 Y7.6327
G01 X9.1138 Y7.6165
G01 X9.2822 Y7.5156
G01 X9.3087 Y7.5006
G01 X9.3358 Y7.4869
G01 X9.5133 Y7.4030
G01 X9.5411 Y7.3906
G01 X9.5695 Y7.3797
G01 X9.7543 Y7.3136
G01 X9.7832 Y7.3040
G01 X9.8125 Y7.2959
G01 X10.0029 Y7.2482
G01 X10.0326 Y7.2415
G01 X10.0626 Y7.2363
G01 X10.2567 Y7.2075
G01 X10.2869 Y7.2038
G01 X10.3173 Y7.2016
G01 X10.5133 Y7.1919
G01 X10.5437 Y7.1912
G01 X10.5741 Y7.1919
G01 X10.7702 Y7.2016
G01 X10.8005 Y7.2038
G01 X10.8307 Y7.2075
G01 X11.0249 Y7.2363
G01 X11.0549 Y7.2415
G01 X11.0845 Y7.2482
G01 X11.2749 Y7.2959
G01 X11.3043 Y7.3040
G01 X11.3332 Y7.3136
G01 X11.5180 Y7.3797
G01 X11.5464 Y7.3906
G01 X11.5742 Y7.4030
G01 X11.7516 Y7.4869
G01 X11.7788 Y7.5006
G01 X11.8053 Y7.5156
G01 X11.9736 Y7.6165
G01 X11.9993 Y7.6327
G01 X12.0242 Y7.6503
G01 X12.1818 Y7.7672
G01 X12.2058 Y7.7859
G01 X12.2289 Y7.8058
G01 X12.3743 Y7.9376
G01 X12.3963 Y7.9586
G01 X12.4173 Y7.9806
G01 X12.5491 Y8.1260
G01 X12.5690 Y8.1491
G01 X12.5877 Y8.1731
G01 X12.7046 Y8.3307
G01 X12.7222 Y8.3556
G01 X12.7385 Y8.3813
G01 X12.8394 Y8.5497
G01 X12.8544 Y8.5761
G01 X12.8680 Y8.6033
G01 X12.9520 Y8.7807
G01 X12.9643 Y8.8086
G01 X12.9752 Y8.8370
G01 X13.0414 Y9.0218
G01 X13.0509 Y9.0507
G01 X13.0590 Y9.0800
G01 X13.1067 Y9.2704
G01 X13.1134 Y9.3001
G01 X13.1186 Y9.3300
G01 X13.1474 Y9.5242
G01 X13.1511 Y9.5544
G01 X13.1524 Y9.5696
G00 Z2.0000
G00 X15.7270 Y9.5978
G01 F60.00
G01 Z-0.0200
G01 F120.00
G01 X19.9866 Y9.5978
G01 X19.9399 Y9.5466
G01 X19.9290 Y9.5339
G01 X19.9187 Y9.5208
G01 X19.8836 Y9.4735
G01 X19.8740 Y9.4598
G01 X19.8651 Y9.4457
G01 X19.8348 Y9.3952
G01 X19.8266 Y9.3807
G01 X19.8191 Y9.3658
G01 X19.7939 Y9.3126
G01 X19.7872 Y9.2973
G01 X19.7812 Y9.2818
G01 X19.7613 Y9.2263
G01 X19.7561 Y9.2105
G01 X19.7516 Y9.1944
G01 X19.7373 Y9.1373
G01 X19.7337 Y9.1210
G01 X19.7308 Y9.1045
G01 X19.7222 Y9.0463
G01 X19.7201 Y9.0297
G01 X19.7189 Y9.0131
G01 X19.7160 Y8.9543
G01 X19.7157 Y8.9293
G01 X19.7194 Y8.8538
G01 X19.7222 Y8.8289
G01 X19.7308 Y8.7707
G01 X19.7337 Y8.7542
G01 X19.7373 Y8.7379
G01 X19.7516 Y8.6808
G01 X19.7561 Y8.6647
G01 X19.7613 Y8.6489
G01 X19.7812 Y8.5934
G01 X19.7872 Y8.5779
G01 X19.7939 Y8.5626
G01 X19.8191 Y8.5094
G01 X19.8266 Y8.4945
G01 X19.8348 Y8.4800
G01 X19.8651 Y8.4295
G01 X19.8740 Y8.4154
G01 X19.8836 Y8.4017
G01 X19.9187 Y8.3544
G01 X19.9290 Y8.3413
G01 X19.9399 Y8.3286
G01 X19.9851 Y8.2789
G01 X20.0030 Y8.2614
G01 X20.0467 Y8.2219
G01 X20.0593 Y8.2110
G01 X20.0724 Y8.2007
G01 X20.1155 Y8.1688
G01 X20.1155 Y5.4288
G01 X20.1159 Y5.4121
G01 X20.1174 Y5.3842
G01 X20.1202 Y5.3593
G01 X20.1244 Y5.3316
G01 X20.1276 Y5.3153
G01 X20.1343 Y5.2881
G01 X20.1388 Y5.2720
G01 X20.1506 Y5.2377
G01 X20.1599 Y5.2144
G01 X20.1755 Y5.1816
G01 X20.1875 Y5.1597
G01 X20.2065 Y5.1287
G01 X20.2279 Y5.0993
G01 X20.2435 Y5.0798
G01 X20.2679 Y5.0529
G01 X22.0197 Y3.3009
G01 X22.0194 Y3.2874
G01 X22.0195 Y2.7916
G01 X22.0215 Y2.7510
G01 X22.0243 Y2.7262
G01 X22.0306 Y2.6861
G01 X22.0343 Y2.6698
G01 X22.0422 Y2.6385
G01 X22.0471 Y2.6225
G01 X22.0608 Y2.5843
G01 X22.0671 Y2.5689
G01 X22.0808 Y2.5397
G01 X22.0924 Y2.5175
G01 X22.1089 Y2.4897
G01 X22.1178 Y2.4756
G01 X22.1274 Y2.4620
G01 X22.1467 Y2.4361
G01 X22.1573 Y2.4232
G01 X22.1846 Y2.3931
G01 X22.1964 Y2.3813
G01 X22.2265 Y2.3541
G01 X22.2394 Y2.3435
G01 X22.2720 Y2.3193
G01 X22.2859 Y2.3100
G01 X22.3135 Y2.2934
G01 X22.3280 Y2.2851
G01 X22.3645 Y2.2674
G01 X22.3875 Y2.2575
G01 X22.4258 Y2.2439
G01 X22.4498 Y2.2369
G01 X22.4893 Y2.2274
G01 X22.5294 Y2.2211
G01 X22.5543 Y2.2183
G01 X22.5865 Y2.2166
G01 X22.6032 Y2.2162
G01 X23.5157 Y2.2162
G01 X23.5324 Y2.2166
G01 X23.5729 Y2.2190
G01 X23.5895 Y2.2211
G01 X23.6214 Y2.2259
G01 X23.6377 Y2.2291
G01 X23.6690 Y2.2369
G01 X23.6931 Y2.2439
G01 X23.7235 Y2.2546
G01 X23.7391 Y2.2606
G01 X23.7543 Y2.2674
G01 X23.7834 Y2.2813
G01 X23.7982 Y2.2892
G01 X23.8259 Y2.3057
G01 X23.8469 Y2.3193
G01 X23.8728 Y2.3384
G01 X23.8860 Y2.3487
G01 X23.9164 Y2.3757
G01 X23.9343 Y2.3931
G01 X23.9560 Y2.4170
G01 X23.9669 Y2.4296
G01 X23.9772 Y2.4428
G01 X23.9963 Y2.4688
G01 X24.0100 Y2.4897
G01 X24.0305 Y2.5248
G01 X24.0380 Y2.5397
G01 X24.0517 Y2.5689
G01 X24.0581 Y2.5843
G01 X24.0690 Y2.6147
G01 X24.0766 Y2.6385
G01 X24.0845 Y2.6698
G01 X24.0882 Y2.6861
G01 X24.0946 Y2.7262
G01 X24.0973 Y2.7510
G01 X24.0993 Y2.7916
G01 X24.0994 Y3.2874
G01 X24.0978 Y3.3280
G01 X24.0957 Y3.3530
G01 X24.0911 Y3.3849
G01 X24.0882 Y3.4013
G01 X24.0845 Y3.4176
G01 X24.0766 Y3.4489
G01 X24.0718 Y3.4649
G01 X24.0610 Y3.4953
G01 X24.0550 Y3.5108
G01 X24.0482 Y3.5261
G01 X24.0343 Y3.5552
G01 X24.0265 Y3.5699
G01 X24.0100 Y3.5977
G01 X24.0010 Y3.6118
G01 X23.9914 Y3.6254
G01 X23.9721 Y3.6513
G01 X23.9615 Y3.6642
G01 X23.9400 Y3.6881
G01 X23.9284 Y3.7002
G01 X23.9164 Y3.7117
G01 X23.8924 Y3.7333
G01 X23.8795 Y3.7439
G01 X23.8536 Y3.7632
G01 X23.8400 Y3.7728
G01 X23.8259 Y3.7817
G01 X23.7982 Y3.7982
G01 X23.7834 Y3.8061
G01 X23.7543 Y3.8200
G01 X23.7391 Y3.8268
G01 X23.7235 Y3.8328
G01 X23.6931 Y3.8435
G01 X23.6771 Y3.8484
G01 X23.6458 Y3.8563
G01 X23.6296 Y3.8600
G01 X23.6131 Y3.8628
G01 X23.5729 Y3.8684
G01 X23.5562 Y3.8696
G01 X23.5240 Y3.8711
G01 X22.9770 Y3.8712
G01 X22.7570 Y4.0912
G01 X23.5157 Y4.0912
G01 X23.5324 Y4.0916
G01 X23.5729 Y4.0940
G01 X23.6131 Y4.0996
G01 X23.6377 Y4.1041
G01 X23.6771 Y4.1140
G01 X23.7010 Y4.1216
G01 X23.7391 Y4.1356
G01 X23.7759 Y4.1526
G01 X23.7982 Y4.1642
G01 X23.8330 Y4.1850
G01 X23.8469 Y4.1943
G01 X23.8728 Y4.2134
G01 X23.8860 Y4.2237
G01 X23.8986 Y4.2346
G01 X23.9225 Y4.2563
G01 X23.9343 Y4.2681
G01 X23.9560 Y4.2920
G01 X23.9669 Y4.3046
G01 X23.9772 Y4.3178
G01 X24.0010 Y4.3506
G01 X24.0100 Y4.3647
G01 X24.0265 Y4.3925
G01 X24.0343 Y4.4072
G01 X24.0482 Y4.4363
G01 X24.0550 Y4.4516
G01 X24.0610 Y4.4671
G01 X24.0743 Y4.5055
G01 X24.0787 Y4.5216
G01 X24.0865 Y4.5529
G01 X24.0911 Y4.5775
G01 X24.0957 Y4.6094
G01 X24.0973 Y4.6260
G01 X24.0990 Y4.6583
G01 X24.0994 Y4.6750
G01 X24.0994 Y4.9286
G01 X25.6636 Y4.9286
G01 X25.6680 Y4.8993
G01 X25.6713 Y4.8829
G01 X25.6792 Y4.8510
G01 X25.6836 Y4.8349
G01 X25.6889 Y4.8191
G01 X25.7000 Y4.7882
G01 X25.7064 Y4.7727
G01 X25.7204 Y4.7430
G01 X25.7279 Y4.7281
G01 X25.7361 Y4.7136
G01 X25.7531 Y4.6854
G01 X25.7624 Y4.6715
G01 X25.7819 Y4.6451
G01 X25.7921 Y4.6319
G01 X25.8030 Y4.6193
G01 X25.8252 Y4.5950
G01 X25.8370 Y4.5832
G01 X25.8613 Y4.5610
G01 X25.8739 Y4.5501
G01 X25.8871 Y4.5399
G01 X25.9136 Y4.5204
G01 X25.9274 Y4.5111
G01 X25.9556 Y4.4941
G01 X25.9701 Y4.4859
G01 X25.9850 Y4.4784
G01 X26.0148 Y4.4644
G01 X26.0302 Y4.4580
G01 X26.0611 Y4.4468
G01 X26.0850 Y4.4393
G01 X26.1168 Y4.4312
G01 X26.1331 Y4.4275
G01 X26.1496 Y4.4247
G01 X26.1904 Y4.4190
G01 X26.2315 Y4.4166
G01 X26.2482 Y4.4162
G01 X27.4982 Y4.4162
G01 X27.5149 Y4.4166
G01 X27.5561 Y4.4190
G01 X27.5726 Y4.4211
G01 X27.6051 Y4.4260
G01 X27.6296 Y4.4312
G01 X27.6695 Y4.4416
G01 X27.7084 Y4.4551
G01 X27.7317 Y4.4644
G01 X27.7614 Y4.4784
G01 X27.7763 Y4.4859
G01 X27.8095 Y4.5053
G01 X27.8095 Y4.1938
G01 X27.1619 Y3.5462
G01 X26.2482 Y3.5462
G01 X26.2315 Y3.5458
G01 X26.1904 Y3.5434
G01 X26.1738 Y3.5413
G01 X26.1413 Y3.5364
G01 X26.1250 Y3.5331
G01 X26.0850 Y3.5231
G01 X26.0690 Y3.5183
G01 X26.0302 Y3.5044
G01 X26.0148 Y3.4980
G01 X25.9775 Y3.4804
G01 X25.9628 Y3.4725
G01 X25.9274 Y3.4513
G01 X25.9136 Y3.4420
G01 X25.8804 Y3.4175
G01 X25.8675 Y3.4069
G01 X25.8370 Y3.3792
G01 X25.8252 Y3.3674
G01 X25.7975 Y3.3369
G01 X25.7869 Y3.3240
G01 X25.7673 Y3.2976
G01 X25.7531 Y3.2770
G01 X25.7361 Y3.2488
G01 X25.7279 Y3.2343
G01 X25.7204 Y3.2194
G01 X25.7064 Y3.1897
G01 X25.6971 Y3.1664
G01 X25.6836 Y3.1275
G01 X25.6792 Y3.1114
G01 X25.6713 Y3.0795
G01 X25.6667 Y3.0549
G01 X25.6620 Y3.0223
G01 X25.6603 Y3.0057
G01 X25.6586 Y2.9729
G01 X25.6582 Y2.9562
G01 X25.6582 Y2.0312
G01 X25.6586 Y2.0145
G01 X25.6603 Y1.9817
G01 X25.6620 Y1.9651
G01 X25.6667 Y1.9325
G01 X25.6696 Y1.9161
G01 X25.6732 Y1.8998
G01 X25.6813 Y1.8679
G01 X25.6861 Y1.8520
G01 X25.6971 Y1.8210
G01 X25.7031 Y1.8054
G01 X25.7099 Y1.7902
G01 X25.7240 Y1.7605
G01 X25.7319 Y1.7458
G01 X25.7487 Y1.7175
G01 X25.7577 Y1.7034
G01 X25.7673 Y1.6898
G01 X25.7869 Y1.6634
G01 X25.7975 Y1.6505
G01 X25.8252 Y1.6200
G01 X25.8431 Y1.6025
G01 X25.8675 Y1.5805
G01 X25.8871 Y1.5649
G01 X25.9204 Y1.5406
G01 X25.9556 Y1.5191
G01 X25.9775 Y1.5070
G01 X26.0148 Y1.4894
G01 X26.0302 Y1.4830
G01 X26.0690 Y1.4691
G01 X26.0850 Y1.4643
G01 X26.1250 Y1.4543
G01 X26.1413 Y1.4510
G01 X26.1738 Y1.4461
G01 X26.1987 Y1.4433
G01 X26.2315 Y1.4416
G01 X26.2482 Y1.4412
G01 X27.4982 Y1.4412
G01 X27.5394 Y1.4428
G01 X27.5643 Y1.4450
G01 X27.6051 Y1.4510
G01 X27.6296 Y1.4562
G01 X27.6695 Y1.4666
G01 X27.6853 Y1.4718
G01 X27.7163 Y1.4830
G01 X27.7393 Y1.4929
G01 X27.7763 Y1.5109
G01 X27.8119 Y1.5317
G01 X27.8329 Y1.5454
G01 X27.8594 Y1.5649
G01 X27.8725 Y1.5751
G01 X27.9033 Y1.6025
G01 X27.9212 Y1.6200
G01 X27.9434 Y1.6443
G01 X27.9543 Y1.6569
G01 X27.9792 Y1.6898
G01 X27.9933 Y1.7104
G01 X28.0145 Y1.7458
G01 X28.0261 Y1.7680
G01 X28.0433 Y1.8054
G01 X28.0493 Y1.8210
G01 X28.0603 Y1.8520
G01 X28.0673 Y1.8760
G01 X28.0769 Y1.9161
G01 X28.0833 Y1.9568
G01 X28.0861 Y1.9817
G01 X28.0878 Y2.0145
G01 X28.0882 Y2.0312
G01 X28.0882 Y2.9449
G01 X28.7315 Y3.5882
G01 X28.7562 Y3.6148
G01 X28.7723 Y3.6340
G01 X28.7891 Y3.6564
G01 X28.7987 Y3.6700
G01 X28.8076 Y3.6841
G01 X28.8259 Y3.7155
G01 X28.8334 Y3.7304
G01 X28.8453 Y3.7557
G01 X28.8517 Y3.7712
G01 X28.8612 Y3.7975
G01 X28.8665 Y3.8133
G01 X28.8709 Y3.8294
G01 X28.8776 Y3.8566
G01 X28.8809 Y3.8729
G01 X28.8851 Y3.9006
G01 X28.8871 Y3.9172
G01 X28.8883 Y3.9338
G01 X28.8896 Y3.9618
G01 X28.8897 Y8.0173
G01 X28.8883 Y8.0536
G01 X28.8862 Y8.0785
G01 X28.8822 Y8.1062
G01 X28.8793 Y8.1227
G01 X28.8709 Y8.1580
G01 X28.8639 Y8.1820
G01 X28.8546 Y8.2084
G01 X28.8486 Y8.2240
G01 X28.8418 Y8.2392
G01 X28.8298 Y8.2645
G01 X28.8177 Y8.2864
G01 X28.8032 Y8.3104
G01 X28.7940 Y8.3242
G01 X28.7774 Y8.3468
G01 X28.7671 Y8.3599
G01 X28.7562 Y8.3726
G01 X28.7315 Y8.3992
G01 X28.0882 Y9.0425
G01 X28.0882 Y9.9449
G01 X28.7437 Y10.6004
G01 X28.7552 Y10.6125
G01 X28.7740 Y10.6333
G01 X28.7896 Y10.6528
G01 X28.8062 Y10.6754
G01 X28.8154 Y10.6892
G01 X28.8299 Y10.7132
G01 X28.8381 Y10.7277
G01 X28.8540 Y10.7604
G01 X28.8639 Y10.7834
G01 X28.8734 Y10.8097
G01 X28.8787 Y10.8255
G01 X28.8831 Y10.8416
G01 X28.8898 Y10.8688
G01 X28.8944 Y10.8934
G01 X28.8984 Y10.9211
G01 X28.9000 Y10.9377
G01 X28.9015 Y10.9656
G01 X28.9019 Y10.9823
G01 X28.9019 Y15.0051
G01 X28.9015 Y15.0218
G01 X28.9000 Y15.0497
G01 X28.8984 Y15.0663
G01 X28.8944 Y15.0940
G01 X28.8915 Y15.1105
G01 X28.8879 Y15.1268
G01 X28.8810 Y15.1539
G01 X28.8761 Y15.1698
G01 X28.8668 Y15.1962
G01 X28.8608 Y15.2118
G01 X28.8540 Y15.2270
G01 X28.8420 Y15.2523
G01 X28.8299 Y15.2742
G01 X28.8154 Y15.2982
G01 X28.8062 Y15.3120
G01 X28.7896 Y15.3346
G01 X28.7793 Y15.3477
G01 X28.7684 Y15.3604
G01 X28.7437 Y15.3870
G01 X28.0882 Y16.0425
G01 X28.0882 Y16.9449
G01 X28.7854 Y17.6421
G01 X28.7969 Y17.6542
G01 X28.8157 Y17.6750
G01 X28.8262 Y17.6879
G01 X28.8430 Y17.7103
G01 X28.8571 Y17.7309
G01 X28.8716 Y17.7549
G01 X28.8798 Y17.7694
G01 X28.8957 Y17.8021
G01 X28.9056 Y17.8251
G01 X28.9151 Y17.8514
G01 X28.9204 Y17.8672
G01 X28.9296 Y17.9023
G01 X28.9348 Y17.9268
G01 X28.9390 Y17.9545
G01 X28.9410 Y17.9711
G01 X28.9432 Y18.0073
G01 X28.9436 Y18.0240
G01 X28.9436 Y21.9634
G01 X28.9432 Y21.9801
G01 X28.9417 Y22.0080
G01 X28.9401 Y22.0246
G01 X28.9361 Y22.0523
G01 X28.9332 Y22.0688
G01 X28.9248 Y22.1041
G01 X28.9204 Y22.1202
G01 X28.9151 Y22.1360
G01 X28.9056 Y22.1623
G01 X28.8992 Y22.1778
G01 X28.8873 Y22.2031
G01 X28.8798 Y22.2180
G01 X28.8716 Y22.2325
G01 X28.8571 Y22.2565
G01 X28.8479 Y22.2703
G01 X28.8313 Y22.2929
G01 X28.8210 Y22.3060
G01 X28.8101 Y22.3187
G01 X28.7854 Y22.3453
G01 X28.0882 Y23.0425
G01 X28.0882 Y23.9449
G01 X28.7437 Y24.6004
G01 X28.7552 Y24.6125
G01 X28.7740 Y24.6333
G01 X28.7845 Y24.6462
G01 X28.8013 Y24.6686
G01 X28.8154 Y24.6892
G01 X28.8299 Y24.7132
G01 X28.8381 Y24.7277
G01 X28.8540 Y24.7604
G01 X28.8639 Y24.7834
G01 X28.8734 Y24.8097
G01 X28.8787 Y24.8255
G01 X28.8831 Y24.8416
G01 X28.8898 Y24.8688
G01 X28.8944 Y24.8934
G01 X28.8984 Y24.9211
G01 X28.9000 Y24.9377
G01 X28.9015 Y24.9656
G01 X28.9019 Y24.9823
G01 X28.9018 Y29.0134
G01 X28.9005 Y29.0414
G01 X28.8993 Y29.0580
G01 X28.8973 Y29.0746
G01 X28.8931 Y29.1023
G01 X28.8898 Y29.1186
G01 X28.8831 Y29.1458
G01 X28.8787 Y29.1619
G01 X28.8734 Y29.1777
G01 X28.8639 Y29.2040
G01 X28.8575 Y29.2195
G01 X28.8456 Y29.2448
G01 X28.8381 Y29.2597
G01 X28.8198 Y29.2911
G01 X28.8109 Y29.3052
G01 X28.8013 Y29.3188
G01 X28.7845 Y29.3412
G01 X28.7684 Y29.3604
G01 X28.7437 Y29.3870
G01 X28.0882 Y30.0425
G01 X28.0882 Y30.9449
G01 X28.7370 Y31.5937
G01 X28.7485 Y31.6058
G01 X28.7673 Y31.6266
G01 X28.7778 Y31.6395
G01 X28.7946 Y31.6619
G01 X28.8087 Y31.6825
G01 X28.8232 Y31.7065
G01 X28.8314 Y31.7210
G01 X28.8473 Y31.7537
G01 X28.8572 Y31.7767
G01 X28.8667 Y31.8030
G01 X28.8720 Y31.8188
G01 X28.8764 Y31.8349
G01 X28.8831 Y31.8621
G01 X28.8877 Y31.8867
G01 X28.8917 Y31.9144
G01 X28.8933 Y31.9310
G01 X28.8948 Y31.9589
G01 X28.8952 Y31.9756
G01 X28.8951 Y36.0201
G01 X28.8938 Y36.0481
G01 X28.8926 Y36.0647
G01 X28.8906 Y36.0813
G01 X28.8864 Y36.1090
G01 X28.8831 Y36.1253
G01 X28.8764 Y36.1525
G01 X28.8720 Y36.1686
G01 X28.8667 Y36.1844
G01 X28.8572 Y36.2107
G01 X28.8508 Y36.2262
G01 X28.8389 Y36.2515
G01 X28.8314 Y36.2664
G01 X28.8232 Y36.2809
G01 X28.8042 Y36.3119
G01 X28.7946 Y36.3255
G01 X28.7778 Y36.3479
G01 X28.7617 Y36.3671
G01 X28.7370 Y36.3937
G01 X28.0882 Y37.0425
G01 X28.0882 Y37.9449
G01 X28.7588 Y38.6155
G01 X28.7703 Y38.6276
G01 X28.7891 Y38.6484
G01 X28.8047 Y38.6679
G01 X28.8260 Y38.6973
G01 X28.8450 Y38.7283
G01 X28.8571 Y38.7502
G01 X28.8691 Y38.7755
G01 X28.8759 Y38.7907
G01 X28.8885 Y38.8248
G01 X28.8961 Y38.8486
G01 X28.9049 Y38.8839
G01 X28.9095 Y38.9085
G01 X28.9144 Y38.9445
G01 X28.9166 Y38.9807
G01 X28.9170 Y38.9974
G01 X28.9170 Y41.8450
G01 X28.9166 Y41.8617
G01 X28.9144 Y41.8979
G01 X28.9124 Y41.9145
G01 X28.9082 Y41.9422
G01 X28.9049 Y41.9585
G01 X28.8961 Y41.9938
G01 X28.8912 Y42.0097
G01 X28.8819 Y42.0361
G01 X28.8726 Y42.0594
G01 X28.8607 Y42.0847
G01 X28.8532 Y42.0996
G01 X28.8450 Y42.1141
G01 X28.8305 Y42.1381
G01 X28.8213 Y42.1519
G01 X28.7996 Y42.1811
G01 X28.7891 Y42.1940
G01 X28.7703 Y42.2148
G01 X28.7588 Y42.2269
G01 X27.5427 Y43.4430
G01 X27.5643 Y43.4450
G01 X27.5969 Y43.4497
G01 X27.6133 Y43.4525
G01 X27.6296 Y43.4562
G01 X27.6615 Y43.4643
G01 X27.6774 Y43.4691
G01 X27.7084 Y43.4801
G01 X27.7240 Y43.4861
G01 X27.7614 Y43.5034
G01 X27.7763 Y43.5109
G01 X27.7909 Y43.5191
G01 X27.8190 Y43.5361
G01 X27.8329 Y43.5454
G01 X27.8594 Y43.5649
G01 X27.8725 Y43.5751
G01 X27.8851 Y43.5860
G01 X27.9094 Y43.6082
G01 X27.9212 Y43.6200
G01 X27.9434 Y43.6443
G01 X27.9543 Y43.6569
G01 X27.9646 Y43.6701
G01 X27.9888 Y43.7034
G01 X27.9977 Y43.7175
G01 X28.0145 Y43.7458
G01 X28.0224 Y43.7605
G01 X28.0365 Y43.7902
G01 X28.0433 Y43.8054
G01 X28.0493 Y43.8210
G01 X28.0603 Y43.8520
G01 X28.0651 Y43.8679
G01 X28.0732 Y43.8998
G01 X28.0769 Y43.9161
G01 X28.0797 Y43.9325
G01 X28.0854 Y43.9734
G01 X28.0878 Y44.0145
G01 X28.0882 Y44.0312
G01 X28.0882 Y44.9562
G01 X28.0866 Y44.9974
G01 X28.0845 Y45.0223
G01 X28.0797 Y45.0549
G01 X28.0769 Y45.0713
G01 X28.0673 Y45.1114
G01 X28.0628 Y45.1275
G01 X28.0576 Y45.1433
G01 X28.0433 Y45.1820
G01 X28.0365 Y45.1972
G01 X28.0224 Y45.2269
G01 X28.0145 Y45.2416
G01 X27.9933 Y45.2770
G01 X27.9841 Y45.2909
G01 X27.9646 Y45.3173
G01 X27.9543 Y45.3305
G01 X27.9434 Y45.3431
G01 X27.9212 Y45.3674
G01 X27.9055 Y45.3829
G01 X27.9210 Y45.3955
G01 X27.9418 Y45.4142
G01 X27.9539 Y45.4257
G01 X29.5666 Y47.0384
G01 X29.5781 Y47.0505
G01 X29.5969 Y47.0713
G01 X29.6074 Y47.0842
G01 X29.6242 Y47.1066
G01 X29.6338 Y47.1202
G01 X29.6528 Y47.1512
G01 X29.6610 Y47.1657
G01 X29.6685 Y47.1806
G01 X29.6804 Y47.2059
G01 X29.6868 Y47.2214
G01 X29.6963 Y47.2477
G01 X29.7016 Y47.2635
G01 X29.7060 Y47.2796
G01 X29.7127 Y47.3068
G01 X29.7160 Y47.3231
G01 X29.7213 Y47.3591
G01 X29.7229 Y47.3757
G01 X29.7244 Y47.4036
G01 X29.7248 Y47.4203
G01 X29.7247 Y76.3303
G01 X29.7234 Y76.3583
G01 X29.7222 Y76.3749
G01 X29.7202 Y76.3915
G01 X29.7144 Y76.4274
G01 X29.7060 Y76.4627
G01 X29.7016 Y76.4788
G01 X29.6963 Y76.4946
G01 X29.6837 Y76.5287
G01 X29.6685 Y76.5617
G01 X29.6610 Y76.5766
G01 X29.6528 Y76.5911
G01 X29.6338 Y76.6221
G01 X29.6242 Y76.6357
G01 X29.6022 Y76.6646
G01 X29.5913 Y76.6773
G01 X29.5725 Y76.6979
G01 X24.2484 Y82.0222
G01 X24.2559 Y82.0414
G01 X24.2840 Y82.1199
G01 X24.2893 Y82.1358
G01 X24.2937 Y82.1518
G01 X24.3140 Y82.2328
G01 X24.3177 Y82.2490
G01 X24.3205 Y82.2655
G01 X24.3327 Y82.3480
G01 X24.3348 Y82.3646
G01 X24.3360 Y82.3812
G01 X24.3401 Y82.4645
G01 X24.3405 Y82.4812
G01 X24.3401 Y82.4979
G01 X24.3360 Y82.5812
G01 X24.3348 Y82.5978
G01 X24.3327 Y82.6144
G01 X24.3192 Y82.7052
G01 X24.3140 Y82.7296
G01 X24.2937 Y82.8106
G01 X24.2893 Y82.8266
G01 X24.2840 Y82.8425
G01 X24.2530 Y82.9288
G01 X24.2432 Y82.9518
G01 X24.2075 Y83.0273
G01 X24.2000 Y83.0422
G01 X24.1918 Y83.0567
G01 X24.1489 Y83.1282
G01 X24.1400 Y83.1423
G01 X24.1304 Y83.1560
G01 X24.0807 Y83.2230
G01 X24.0704 Y83.2361
G01 X24.0595 Y83.2488
G01 X24.0035 Y83.3106
G01 X23.9920 Y83.3227
G01 X23.9799 Y83.3342
G01 X23.9181 Y83.3902
G01 X23.9054 Y83.4011
G01 X23.8923 Y83.4113
G01 X23.8253 Y83.4610
G01 X23.8116 Y83.4706
G01 X23.7975 Y83.4796
G01 X23.7260 Y83.5225
G01 X23.7041 Y83.5345
G01 X23.6212 Y83.5739
G01 X23.6059 Y83.5806
G01 X23.5903 Y83.5866
G01 X23.5118 Y83.6147
G01 X23.4960 Y83.6200
G01 X23.4799 Y83.6244
G01 X23.3990 Y83.6447
G01 X23.3827 Y83.6483
G01 X23.3662 Y83.6512
G01 X23.2837 Y83.6634
G01 X23.2672 Y83.6655
G01 X23.2505 Y83.6667
G01 X23.1589 Y83.6711
G01 X22.8922 Y83.6711
G01 X22.7922 Y83.6662
G01 X22.7673 Y83.6634
G01 X22.6848 Y83.6512
G01 X22.6684 Y83.6483
G01 X22.6521 Y83.6447
G01 X22.5712 Y83.6244
G01 X22.5551 Y83.6200
G01 X22.5392 Y83.6147
G01 X22.4607 Y83.5866
G01 X22.4451 Y83.5806
G01 X22.4299 Y83.5739
G01 X22.3545 Y83.5382
G01 X22.3396 Y83.5307
G01 X22.3250 Y83.5225
G01 X22.2535 Y83.4796
G01 X22.2394 Y83.4706
G01 X22.2257 Y83.4610
G01 X22.1587 Y83.4113
G01 X22.1456 Y83.4011
G01 X22.1330 Y83.3902
G01 X22.0711 Y83.3342
G01 X22.0591 Y83.3227
G01 X22.0476 Y83.3106
G01 X21.9915 Y83.2488
G01 X21.9806 Y83.2361
G01 X21.9704 Y83.2230
G01 X21.9158 Y83.1492
G01 X21.9021 Y83.1282
G01 X21.8593 Y83.0567
G01 X21.8510 Y83.0422
G01 X21.8435 Y83.0273
G01 X21.8044 Y82.9443
G01 X21.7951 Y82.9210
G01 X21.7670 Y82.8425
G01 X21.7618 Y82.8266
G01 X21.7573 Y82.8106
G01 X21.7370 Y82.7296
G01 X21.7334 Y82.7134
G01 X21.7305 Y82.6969
G01 X21.7183 Y82.6144
G01 X21.7163 Y82.5978
G01 X21.7150 Y82.5812
G01 X21.7109 Y82.4979
G01 X21.7105 Y82.4812
G01 X21.7109 Y82.4645
G01 X21.7150 Y82.3812
G01 X21.7163 Y82.3646
G01 X21.7183 Y82.3480
G01 X21.7305 Y82.2655
G01 X21.7351 Y82.2409
G01 X21.7573 Y82.1518
G01 X21.7618 Y82.1358
G01 X21.7670 Y82.1199
G01 X21.7951 Y82.0414
G01 X21.8011 Y82.0258
G01 X21.8079 Y82.0106
G01 X21.8435 Y81.9351
G01 X21.8510 Y81.9202
G01 X21.8593 Y81.9057
G01 X21.9021 Y81.8342
G01 X21.9111 Y81.8201
G01 X21.9207 Y81.8064
G01 X21.9754 Y81.7328
G01 X21.9915 Y81.7136
G01 X22.0476 Y81.6518
G01 X22.0591 Y81.6397
G01 X22.0711 Y81.6282
G01 X22.1330 Y81.5722
G01 X22.1456 Y81.5613
G01 X22.1587 Y81.5511
G01 X22.2257 Y81.5014
G01 X22.2394 Y81.4918
G01 X22.2535 Y81.4828
G01 X22.3250 Y81.4399
G01 X22.3396 Y81.4317
G01 X22.3545 Y81.4242
G01 X22.4299 Y81.3885
G01 X22.4451 Y81.3818
G01 X22.4607 Y81.3758
G01 X22.5392 Y81.3477
G01 X22.5631 Y81.3401
G01 X22.6521 Y81.3177
G01 X22.6684 Y81.3141
G01 X22.6848 Y81.3112
G01 X22.7673 Y81.2990
G01 X22.7839 Y81.2969
G01 X22.8005 Y81.2957
G01 X22.8922 Y81.2913
G01 X23.1589 Y81.2913
G01 X23.2505 Y81.2957
G01 X23.2672 Y81.2969
G01 X23.2837 Y81.2990
G01 X23.3745 Y81.3125
G01 X23.3908 Y81.3158
G01 X23.4199 Y81.3230
G01 X23.7131 Y81.0298
G01 X23.6966 Y81.0382
G01 X23.6212 Y81.0739
G01 X23.6059 Y81.0806
G01 X23.5903 Y81.0866
G01 X23.5118 Y81.1147
G01 X23.4960 Y81.1200
G01 X23.4799 Y81.1244
G01 X23.3990 Y81.1447
G01 X23.3827 Y81.1483
G01 X23.3662 Y81.1512
G01 X23.2755 Y81.1645
G01 X23.2505 Y81.1667
G01 X23.1589 Y81.1711
G01 X22.8922 Y81.1711
G01 X22.8005 Y81.1667
G01 X22.7839 Y81.1655
G01 X22.7673 Y81.1634
G01 X22.6766 Y81.1499
G01 X22.6521 Y81.1447
G01 X22.5712 Y81.1244
G01 X22.5551 Y81.1200
G01 X22.5392 Y81.1147
G01 X22.4607 Y81.0866
G01 X22.4375 Y81.0773
G01 X22.3545 Y81.0382
G01 X22.3396 Y81.0307
G01 X22.3250 Y81.0225
G01 X22.2535 Y80.9796
G01 X22.2394 Y80.9706
G01 X22.2257 Y80.9610
G01 X22.1587 Y80.9113
G01 X22.1456 Y80.9011
G01 X22.1330 Y80.8902
G01 X22.0711 Y80.8342
G01 X22.0591 Y80.8227
G01 X22.0476 Y80.8106
G01 X21.9860 Y80.7425
G01 X21.9704 Y80.7230
G01 X21.9207 Y80.6560
G01 X21.9111 Y80.6423
G01 X21.9021 Y80.6282
G01 X21.8593 Y80.5567
G01 X21.8510 Y80.5422
G01 X21.8435 Y80.5273
G01 X21.8079 Y80.4518
G01 X21.8011 Y80.4366
G01 X21.7951 Y80.4210
G01 X21.7670 Y80.3425
G01 X21.7618 Y80.3266
G01 X21.7573 Y80.3106
G01 X21.7351 Y80.2215
G01 X21.7305 Y80.1969
G01 X21.7183 Y80.1144
G01 X21.7155 Y80.0895
G01 X21.7109 Y79.9979
G01 X21.7105 Y79.9812
G01 X21.7109 Y79.9645
G01 X21.7150 Y79.8812
G01 X21.7163 Y79.8646
G01 X21.7183 Y79.8480
G01 X21.7305 Y79.7655
G01 X21.7334 Y79.7490
G01 X21.7370 Y79.7328
G01 X21.7573 Y79.6518
G01 X21.7618 Y79.6358
G01 X21.7670 Y79.6199
G01 X21.7951 Y79.5414
G01 X21.8011 Y79.5258
G01 X21.8079 Y79.5106
G01 X21.8435 Y79.4351
G01 X21.8510 Y79.4202
G01 X21.8593 Y79.4057
G01 X21.9021 Y79.3342
G01 X21.9111 Y79.3201
G01 X21.9207 Y79.3064
G01 X21.9704 Y79.2394
G01 X21.9806 Y79.2263
G01 X21.9915 Y79.2136
G01 X22.0532 Y79.1457
G01 X22.0711 Y79.1282
G01 X22.1330 Y79.0722
G01 X22.1456 Y79.0613
G01 X22.1587 Y79.0511
G01 X22.2257 Y79.0014
G01 X22.2464 Y78.9872
G01 X22.3250 Y78.9399
G01 X22.3396 Y78.9317
G01 X22.3545 Y78.9242
G01 X22.4299 Y78.8885
G01 X22.4451 Y78.8818
G01 X22.4607 Y78.8758
G01 X22.5392 Y78.8477
G01 X22.5551 Y78.8424
G01 X22.5712 Y78.8380
G01 X22.6521 Y78.8177
G01 X22.6684 Y78.8141
G01 X22.6848 Y78.8112
G01 X22.7673 Y78.7990
G01 X22.7839 Y78.7969
G01 X22.8005 Y78.7957
G01 X22.8922 Y78.7913
G01 X23.1589 Y78.7913
G01 X23.2505 Y78.7957
G01 X23.2672 Y78.7969
G01 X23.2837 Y78.7990
G01 X23.3662 Y78.8112
G01 X23.3827 Y78.8141
G01 X23.3990 Y78.8177
G01 X23.4799 Y78.8380
G01 X23.4960 Y78.8424
G01 X23.5118 Y78.8477
G01 X23.5903 Y78.8758
G01 X23.6059 Y78.8818
G01 X23.6212 Y78.8885
G01 X23.6966 Y78.9242
G01 X23.7115 Y78.9317
G01 X23.7260 Y78.9399
G01 X23.7975 Y78.9828
G01 X23.8116 Y78.9918
G01 X23.8253 Y79.0014
G01 X23.8923 Y79.0511
G01 X23.9054 Y79.0613
G01 X23.9181 Y79.0722
G01 X23.9799 Y79.1282
G01 X23.9920 Y79.1397
G01 X24.0035 Y79.1518
G01 X24.0595 Y79.2136
G01 X24.0704 Y79.2263
G01 X24.0807 Y79.2394
G01 X24.1304 Y79.3064
G01 X24.1400 Y79.3201
G01 X24.1489 Y79.3342
G01 X24.1918 Y79.4057
G01 X24.2000 Y79.4202
G01 X24.2075 Y79.4351
G01 X24.2432 Y79.5106
G01 X24.2499 Y79.5258
G01 X24.2559 Y79.5414
G01 X24.2840 Y79.6199
G01 X24.2893 Y79.6358
G01 X24.2937 Y79.6518
G01 X24.3140 Y79.7328
G01 X24.3192 Y79.7572
G01 X24.3327 Y79.8480
G01 X24.3348 Y79.8646
G01 X24.3360 Y79.8812
G01 X24.3401 Y79.9645
G01 X24.3404 Y79.9895
G01 X24.3360 Y80.0812
G01 X24.3348 Y80.0978
G01 X24.3327 Y80.1144
G01 X24.3205 Y80.1969
G01 X24.3177 Y80.2134
G01 X24.3140 Y80.2296
G01 X24.2937 Y80.3106
G01 X24.2893 Y80.3266
G01 X24.2840 Y80.3425
G01 X24.2559 Y80.4210
G01 X24.2499 Y80.4366
G01 X24.2432 Y80.4518
G01 X24.2075 Y80.5273
G01 X24.1991 Y80.5438
G01 X28.6446 Y76.0983
G01 X28.6446 Y69.7826
G01 X26.9016 Y71.5255
G01 X26.8809 Y71.5444
G01 X26.8683 Y71.5553
G01 X26.8393 Y71.5773
G01 X26.8257 Y71.5869
G01 X26.8116 Y71.5958
G01 X26.7875 Y71.6101
G01 X26.7728 Y71.6180
G01 X26.7476 Y71.6300
G01 X26.7246 Y71.6399
G01 X26.6904 Y71.6521
G01 X26.6744 Y71.6570
G01 X26.6392 Y71.6658
G01 X26.6228 Y71.6690
G01 X26.5869 Y71.6744
G01 X26.5702 Y71.6760
G01 X26.5340 Y71.6778
G01 X24.5283 Y71.6779
G01 X22.4150 Y73.7912
G01 X23.7505 Y73.7912
G01 X23.7917 Y73.7928
G01 X23.8166 Y73.7950
G01 X23.8574 Y73.8010
G01 X23.8738 Y73.8043
G01 X23.9138 Y73.8143
G01 X23.9297 Y73.8191
G01 X23.9686 Y73.8330
G01 X23.9840 Y73.8394
G01 X24.0212 Y73.8570
G01 X24.0360 Y73.8649
G01 X24.0713 Y73.8861
G01 X24.0852 Y73.8954
G01 X24.1183 Y73.9199
G01 X24.1312 Y73.9305
G01 X24.1617 Y73.9582
G01 X24.1735 Y73.9700
G01 X24.2012 Y74.0005
G01 X24.2169 Y74.0201
G01 X24.2411 Y74.0534
G01 X24.2500 Y74.0675
G01 X24.2668 Y74.0958
G01 X24.2784 Y74.1180
G01 X24.2923 Y74.1477
G01 X24.2987 Y74.1632
G01 X24.3099 Y74.1941
G01 X24.3151 Y74.2099
G01 X24.3196 Y74.2260
G01 X24.3275 Y74.2579
G01 X24.3320 Y74.2825
G01 X24.3368 Y74.3151
G01 X24.3384 Y74.3317
G01 X24.3401 Y74.3645
G01 X24.3405 Y74.3812
G01 X24.3405 Y75.5812
G01 X24.3401 Y75.5979
G01 X24.3384 Y75.6307
G01 X24.3356 Y75.6556
G01 X24.3292 Y75.6963
G01 X24.3196 Y75.7364
G01 X24.3126 Y75.7604
G01 X24.2987 Y75.7992
G01 X24.2923 Y75.8147
G01 X24.2747 Y75.8519
G01 X24.2626 Y75.8738
G01 X24.2411 Y75.9090
G01 X24.2169 Y75.9423
G01 X24.2066 Y75.9555
G01 X24.1957 Y75.9681
G01 X24.1677 Y75.9984
G01 X24.1374 Y76.0264
G01 X24.1183 Y76.0425
G01 X24.0920 Y76.0622
G01 X24.0783 Y76.0718
G01 X24.0432 Y76.0933
G01 X24.0286 Y76.1015
G01 X24.0137 Y76.1090
G01 X23.9840 Y76.1230
G01 X23.9686 Y76.1294
G01 X23.9376 Y76.1406
G01 X23.9218 Y76.1458
G01 X23.9057 Y76.1502
G01 X23.8738 Y76.1581
G01 X23.8574 Y76.1614
G01 X23.8249 Y76.1663
G01 X23.8084 Y76.1684
G01 X23.7917 Y76.1696
G01 X23.7589 Y76.1711
G01 X22.3005 Y76.1712
G01 X22.2593 Y76.1696
G01 X22.2344 Y76.1674
G01 X22.2019 Y76.1627
G01 X22.1854 Y76.1599
G01 X22.1453 Y76.1502
G01 X22.1213 Y76.1433
G01 X22.0903 Y76.1323
G01 X22.0747 Y76.1263
G01 X22.0373 Y76.1090
G01 X22.0151 Y76.0975
G01 X21.9797 Y76.0763
G01 X21.9591 Y76.0622
G01 X21.9262 Y76.0373
G01 X21.8954 Y76.0099
G01 X21.8833 Y75.9984
G01 X21.8553 Y75.9681
G01 X21.8444 Y75.9555
G01 X21.8342 Y75.9423
G01 X21.8100 Y75.9090
G01 X21.7884 Y75.8738
G01 X21.7802 Y75.8593
G01 X21.7727 Y75.8444
G01 X21.7554 Y75.8070
G01 X21.7412 Y75.7683
G01 X21.7359 Y75.7525
G01 X21.7255 Y75.7126
G01 X21.7203 Y75.6881
G01 X21.7154 Y75.6556
G01 X21.7134 Y75.6390
G01 X21.7109 Y75.5979
G01 X21.7105 Y75.5812
G01 X21.7105 Y74.4957
G01 X18.4444 Y77.7618
G01 X18.4444 Y83.1217
G01 X18.4440 Y83.1384
G01 X18.4418 Y83.1746
G01 X18.4369 Y83.2106
G01 X18.4323 Y83.2352
G01 X18.4256 Y83.2624
G01 X18.4212 Y83.2785
G01 X18.4093 Y83.3128
G01 X18.4000 Y83.3361
G01 X18.3881 Y83.3614
G01 X18.3806 Y83.3763
G01 X18.3623 Y83.4077
G01 X18.3487 Y83.4286
G01 X18.3321 Y83.4512
G01 X18.3218 Y83.4643
G01 X18.2977 Y83.4915
G01 X18.2862 Y83.5036
G01 X16.8813 Y84.9085
G01 X16.8692 Y84.9200
G01 X16.8421 Y84.9441
G01 X16.8131 Y84.9661
G01 X16.7995 Y84.9757
G01 X16.7854 Y84.9846
G01 X16.7540 Y85.0029
G01 X16.7391 Y85.0104
G01 X16.7138 Y85.0223
G01 X16.6984 Y85.0287
G01 X16.6642 Y85.0409
G01 X16.6482 Y85.0458
G01 X16.6130 Y85.0546
G01 X16.5966 Y85.0578
G01 X16.5607 Y85.0632
G01 X16.5440 Y85.0648
G01 X16.5161 Y85.0663
G01 X16.4994 Y85.0667
G01 X13.2702 Y85.0666
G01 X13.2422 Y85.0653
G01 X13.2256 Y85.0641
G01 X13.2090 Y85.0621
G01 X13.1732 Y85.0563
G01 X13.1378 Y85.0479
G01 X13.1217 Y85.0434
G01 X13.1059 Y85.0382
G01 X13.0718 Y85.0256
G01 X13.0388 Y85.0104
G01 X13.0239 Y85.0029
G01 X13.0094 Y84.9947
G01 X12.9785 Y84.9757
G01 X12.9648 Y84.9661
G01 X12.9359 Y84.9441
G01 X12.9232 Y84.9332
G01 X12.9026 Y84.9143
G01 X9.3146 Y81.3265
G01 X6.5715 Y84.0695
G01 X6.5508 Y84.0884
G01 X6.5382 Y84.0993
G01 X6.5250 Y84.1096
G01 X6.5025 Y84.1262
G01 X6.4886 Y84.1354
G01 X6.4646 Y84.1499
G01 X6.4427 Y84.1620
G01 X6.4175 Y84.1740
G01 X6.4022 Y84.1808
G01 X6.3866 Y84.1868
G01 X6.3603 Y84.1961
G01 X6.3362 Y84.2031
G01 X6.3091 Y84.2098
G01 X6.2927 Y84.2130
G01 X6.2650 Y84.2173
G01 X6.2485 Y84.2193
G01 X6.2122 Y84.2215
G01 X6.1955 Y84.2219
G01 X4.4778 Y84.2218
G01 X4.4498 Y84.2205
G01 X4.4332 Y84.2193
G01 X4.4166 Y84.2173
G01 X4.3808 Y84.2115
G01 X4.3454 Y84.2031
G01 X4.3293 Y84.1986
G01 X4.3135 Y84.1934
G01 X4.2872 Y84.1839
G01 X4.2718 Y84.1775
G01 X4.2389 Y84.1620
G01 X4.2242 Y84.1541
G01 X4.1931 Y84.1354
G01 X4.1792 Y84.1262
G01 X4.1500 Y84.1045
G01 X4.1371 Y84.0939
G01 X4.1102 Y84.0695
G01 X3.3930 Y83.3525
G01 X3.3789 Y83.3574
G01 X3.3629 Y83.3623
G01 X3.2740 Y83.3847
G01 X3.2577 Y83.3883
G01 X3.2412 Y83.3912
G01 X3.1587 Y83.4034
G01 X3.1422 Y83.4055
G01 X3.1255 Y83.4067
G01 X3.0422 Y83.4108
G01 X3.0255 Y83.4112
G01 X3.0088 Y83.4108
G01 X2.9255 Y83.4067
G01 X2.9089 Y83.4055
G01 X2.8923 Y83.4034
G01 X2.8098 Y83.3912
G01 X2.7934 Y83.3883
G01 X2.7771 Y83.3847
G01 X2.6962 Y83.3644
G01 X2.6721 Y83.3574
G01 X2.5857 Y83.3266
G01 X2.5701 Y83.3206
G01 X2.5549 Y83.3139
G01 X2.4795 Y83.2782
G01 X2.4646 Y83.2707
G01 X2.4500 Y83.2625
G01 X2.3785 Y83.2196
G01 X2.3644 Y83.2106
G01 X2.3507 Y83.2010
G01 X2.2837 Y83.1513
G01 X2.2706 Y83.1411
G01 X2.2580 Y83.1302
G01 X2.1961 Y83.0742
G01 X2.1841 Y83.0627
G01 X2.1726 Y83.0506
G01 X2.1165 Y82.9888
G01 X2.1056 Y82.9761
G01 X2.0954 Y82.9630
G01 X2.0457 Y82.8960
G01 X2.0315 Y82.8753
G01 X1.9843 Y82.7967
G01 X1.9760 Y82.7822
G01 X1.9685 Y82.7673
G01 X1.9329 Y82.6918
G01 X1.9261 Y82.6766
G01 X1.9201 Y82.6610
G01 X1.8920 Y82.5825
G01 X1.8844 Y82.5586
G01 X1.8620 Y82.4696
G01 X1.8584 Y82.4534
G01 X1.8555 Y82.4369
G01 X1.8433 Y82.3544
G01 X1.8413 Y82.3378
G01 X1.8400 Y82.3212
G01 X1.8359 Y82.2379
G01 X1.8355 Y82.2212
G01 X1.8359 Y82.2045
G01 X1.8400 Y82.1212
G01 X1.8413 Y82.1046
G01 X1.8433 Y82.0880
G01 X1.8555 Y82.0055
G01 X1.8584 Y81.9890
G01 X1.8620 Y81.9728
G01 X1.8823 Y81.8918
G01 X1.8868 Y81.8758
G01 X1.8920 Y81.8599
G01 X1.9201 Y81.7814
G01 X1.9261 Y81.7658
G01 X1.9329 Y81.7506
G01 X1.9685 Y81.6751
G01 X1.9760 Y81.6602
G01 X1.9843 Y81.6457
G01 X2.0271 Y81.5742
G01 X2.0361 Y81.5601
G01 X2.0457 Y81.5464
G01 X2.0954 Y81.4794
G01 X2.1056 Y81.4663
G01 X2.1165 Y81.4536
G01 X2.1726 Y81.3918
G01 X2.1841 Y81.3797
G01 X2.1961 Y81.3682
G01 X2.2580 Y81.3122
G01 X2.2706 Y81.3013
G01 X2.2837 Y81.2911
G01 X2.3507 Y81.2414
G01 X2.3644 Y81.2318
G01 X2.3785 Y81.2228
G01 X2.4500 Y81.1799
G01 X2.4646 Y81.1717
G01 X2.4795 Y81.1642
G01 X2.5549 Y81.1285
G01 X2.5701 Y81.1218
G01 X2.5857 Y81.1158
G01 X2.6642 Y81.0877
G01 X2.6801 Y81.0824
G01 X2.6962 Y81.0780
G01 X2.7771 Y81.0577
G01 X2.7934 Y81.0541
G01 X2.8098 Y81.0512
G01 X2.8923 Y81.0390
G01 X2.9089 Y81.0369
G01 X2.9255 Y81.0357
G01 X3.0088 Y81.0316
G01 X3.0255 Y81.0312
G01 X3.0422 Y81.0316
G01 X3.1255 Y81.0357
G01 X3.1422 Y81.0369
G01 X3.1587 Y81.0390
G01 X3.2412 Y81.0512
G01 X3.2577 Y81.0541
G01 X3.2740 Y81.0577
G01 X3.3549 Y81.0780
G01 X3.3710 Y81.0824
G01 X3.3868 Y81.0877
G01 X3.4653 Y81.1158
G01 X3.4809 Y81.1218
G01 X3.4962 Y81.1285
G01 X3.5716 Y81.1642
G01 X3.5865 Y81.1717
G01 X3.6010 Y81.1799
G01 X3.6725 Y81.2228
G01 X3.6866 Y81.2318
G01 X3.7003 Y81.2414
G01 X3.7739 Y81.2961
G01 X3.7931 Y81.3122
G01 X3.8549 Y81.3682
G01 X3.8670 Y81.3797
G01 X3.8785 Y81.3918
G01 X3.9400 Y81.4599
G01 X3.9557 Y81.4794
G01 X4.0054 Y81.5464
G01 X4.0150 Y81.5601
G01 X4.0239 Y81.5742
G01 X4.0668 Y81.6457
G01 X4.0788 Y81.6676
G01 X4.1182 Y81.7506
G01 X4.1249 Y81.7658
G01 X4.1309 Y81.7814
G01 X4.1590 Y81.8599
G01 X4.1643 Y81.8758
G01 X4.1687 Y81.8918
G01 X4.1890 Y81.9728
G01 X4.1942 Y81.9972
G01 X4.2077 Y82.0880
G01 X4.2098 Y82.1046
G01 X4.2110 Y82.1212
G01 X4.2151 Y82.2045
G01 X4.2155 Y82.2212
G01 X4.2151 Y82.2379
G01 X4.2105 Y82.3295
G01 X4.2077 Y82.3544
G01 X4.1955 Y82.4369
G01 X4.1927 Y82.4534
G01 X4.1890 Y82.4696
G01 X4.1666 Y82.5586
G01 X4.1618 Y82.5746
G01 X4.1568 Y82.5887
G01 X4.7098 Y83.1417
G01 X4.8114 Y83.1417
G01 X4.7980 Y83.1302
G01 X4.7361 Y83.0742
G01 X4.7241 Y83.0627
G01 X4.7126 Y83.0506
G01 X4.6565 Y82.9888
G01 X4.6456 Y82.9761
G01 X4.6354 Y82.9630
G01 X4.5808 Y82.8892
G01 X4.5671 Y82.8682
G01 X4.5243 Y82.7967
G01 X4.5160 Y82.7822
G01 X4.5085 Y82.7673
G01 X4.4729 Y82.6918
G01 X4.4661 Y82.6766
G01 X4.4601 Y82.6610
G01 X4.4320 Y82.5825
G01 X4.4268 Y82.5666
G01 X4.4223 Y82.5506
G01 X4.4020 Y82.4696
G01 X4.3984 Y82.4534
G01 X4.3955 Y82.4369
G01 X4.3833 Y82.3544
G01 X4.3813 Y82.3378
G01 X4.3800 Y82.3212
G01 X4.3759 Y82.2379
G01 X4.3755 Y82.2212
G01 X4.3759 Y82.2045
G01 X4.3805 Y82.1129
G01 X4.3833 Y82.0880
G01 X4.3955 Y82.0055
G01 X4.3984 Y81.9890
G01 X4.4020 Y81.9728
G01 X4.4223 Y81.8918
G01 X4.4268 Y81.8758
G01 X4.4320 Y81.8599
G01 X4.4601 Y81.7814
G01 X4.4661 Y81.7658
G01 X4.4729 Y81.7506
G01 X4.5085 Y81.6751
G01 X4.5160 Y81.6602
G01 X4.5243 Y81.6457
G01 X4.5671 Y81.5742
G01 X4.5761 Y81.5601
G01 X4.5857 Y81.5464
G01 X4.6354 Y81.4794
G01 X4.6456 Y81.4663
G01 X4.6565 Y81.4536
G01 X4.7126 Y81.3918
G01 X4.7241 Y81.3797
G01 X4.7361 Y81.3682
G01 X4.7980 Y81.3122
G01 X4.8106 Y81.3013
G01 X4.8237 Y81.2911
G01 X4.8975 Y81.2365
G01 X4.9185 Y81.2228
G01 X4.9900 Y81.1799
G01 X5.0046 Y81.1717
G01 X5.0195 Y81.1642
G01 X5.0949 Y81.1285
G01 X5.1101 Y81.1218
G01 X5.1257 Y81.1158
G01 X5.2042 Y81.0877
G01 X5.2201 Y81.0824
G01 X5.2362 Y81.0780
G01 X5.3171 Y81.0577
G01 X5.3334 Y81.0541
G01 X5.3498 Y81.0512
G01 X5.4323 Y81.0390
G01 X5.4489 Y81.0369
G01 X5.4655 Y81.0357
G01 X5.5488 Y81.0316
G01 X5.5655 Y81.0312
G01 X5.5822 Y81.0316
G01 X5.6655 Y81.0357
G01 X5.6822 Y81.0369
G01 X5.6987 Y81.0390
G01 X5.7812 Y81.0512
G01 X5.7977 Y81.0541
G01 X5.8140 Y81.0577
G01 X5.8949 Y81.0780
G01 X5.9110 Y81.0824
G01 X5.9268 Y81.0877
G01 X6.0053 Y81.1158
G01 X6.0209 Y81.1218
G01 X6.0362 Y81.1285
G01 X6.1116 Y81.1642
G01 X6.1265 Y81.1717
G01 X6.1410 Y81.1799
G01 X6.2125 Y81.2228
G01 X6.2335 Y81.2365
G01 X6.3073 Y81.2911
G01 X6.3204 Y81.3013
G01 X6.3331 Y81.3122
G01 X6.3949 Y81.3682
G01 X6.4070 Y81.3797
G01 X6.4185 Y81.3918
G01 X6.4800 Y81.4599
G01 X6.4957 Y81.4794
G01 X6.5454 Y81.5464
G01 X6.5550 Y81.5601
G01 X6.5639 Y81.5742
G01 X6.6068 Y81.6457
G01 X6.6150 Y81.6602
G01 X6.6225 Y81.6751
G01 X6.6582 Y81.7506
G01 X6.6649 Y81.7658
G01 X6.6709 Y81.7814
G01 X6.6990 Y81.8599
G01 X6.7066 Y81.8838
G01 X6.7290 Y81.9728
G01 X6.7327 Y81.9890
G01 X6.7355 Y82.0055
G01 X6.7477 Y82.0880
G01 X6.7498 Y82.1046
G01 X6.7510 Y82.1212
G01 X6.7551 Y82.2045
G01 X6.7555 Y82.2212
G01 X6.7551 Y82.2379
G01 X6.7505 Y82.3295
G01 X6.7489 Y82.3461
G01 X6.7458 Y82.3677
G01 X8.5508 Y80.5627
G01 X6.7093 Y78.7212
G01 X6.6978 Y78.7091
G01 X6.6791 Y78.6883
G01 X6.6685 Y78.6754
G01 X6.6518 Y78.6530
G01 X6.6376 Y78.6324
G01 X6.6231 Y78.6084
G01 X6.6149 Y78.5939
G01 X6.5990 Y78.5612
G01 X6.5891 Y78.5382
G01 X6.5769 Y78.5040
G01 X6.5699 Y78.4800
G01 X6.5615 Y78.4447
G01 X6.5586 Y78.4282
G01 X6.5546 Y78.4005
G01 X6.5525 Y78.3756
G01 X6.5511 Y78.3393
G01 X6.5511 Y77.8079
G01 X6.4957 Y77.8830
G01 X6.4854 Y77.8961
G01 X6.4745 Y77.9088
G01 X6.4185 Y77.9706
G01 X6.4070 Y77.9827
G01 X6.3949 Y77.9942
G01 X6.3331 Y78.0502
G01 X6.3204 Y78.0611
G01 X6.3073 Y78.0713
G01 X6.2403 Y78.1210
G01 X6.2266 Y78.1306
G01 X6.2125 Y78.1396
G01 X6.1410 Y78.1825
G01 X6.1265 Y78.1907
G01 X6.1116 Y78.1982
G01 X6.0362 Y78.2339
G01 X6.0209 Y78.2406
G01 X6.0053 Y78.2466
G01 X5.9268 Y78.2747
G01 X5.9110 Y78.2800
G01 X5.8949 Y78.2844
G01 X5.8140 Y78.3047
G01 X5.7977 Y78.3083
G01 X5.7812 Y78.3112
G01 X5.6987 Y78.3234
G01 X5.6822 Y78.3255
G01 X5.6655 Y78.3267
G01 X5.5822 Y78.3308
G01 X5.5655 Y78.3312
G01 X5.5488 Y78.3308
G01 X5.4655 Y78.3267
G01 X5.4489 Y78.3255
G01 X5.4323 Y78.3234
G01 X5.3498 Y78.3112
G01 X5.3334 Y78.3083
G01 X5.3171 Y78.3047
G01 X5.2362 Y78.2844
G01 X5.2201 Y78.2800
G01 X5.2042 Y78.2747
G01 X5.1257 Y78.2466
G01 X5.1101 Y78.2406
G01 X5.0949 Y78.2339
G01 X5.0195 Y78.1982
G01 X5.0046 Y78.1907
G01 X4.9900 Y78.1825
G01 X4.9185 Y78.1396
G01 X4.9044 Y78.1306
G01 X4.8907 Y78.1210
G01 X4.8237 Y78.0713
G01 X4.8106 Y78.0611
G01 X4.7980 Y78.0502
G01 X4.7361 Y77.9942
G01 X4.7241 Y77.9827
G01 X4.7126 Y77.9706
G01 X4.6565 Y77.9088
G01 X4.6456 Y77.8961
G01 X4.6354 Y77.8830
G01 X4.5857 Y77.8160
G01 X4.5761 Y77.8023
G01 X4.5671 Y77.7882
G01 X4.5243 Y77.7167
G01 X4.5160 Y77.7022
G01 X4.5085 Y77.6873
G01 X4.4729 Y77.6118
G01 X4.4661 Y77.5966
G01 X4.4601 Y77.5810
G01 X4.4320 Y77.5025
G01 X4.4268 Y77.4866
G01 X4.4223 Y77.4706
G01 X4.4020 Y77.3896
G01 X4.3969 Y77.3652
G01 X4.3833 Y77.2744
G01 X4.3813 Y77.2578
G01 X4.3800 Y77.2412
G01 X4.3759 Y77.1579
G01 X4.3755 Y77.1412
G01 X4.3759 Y77.1245
G01 X4.3800 Y77.0412
G01 X4.3813 Y77.0246
G01 X4.3833 Y77.0080
G01 X4.3955 Y76.9255
G01 X4.4001 Y76.9009
G01 X4.4223 Y76.8118
G01 X4.4268 Y76.7958
G01 X4.4320 Y76.7799
G01 X4.4601 Y76.7014
G01 X4.4661 Y76.6858
G01 X4.4729 Y76.6706
G01 X4.5085 Y76.5951
G01 X4.5160 Y76.5802
G01 X4.5243 Y76.5657
G01 X4.5671 Y76.4942
G01 X4.5761 Y76.4801
G01 X4.5857 Y76.4664
G01 X4.6354 Y76.3994
G01 X4.6456 Y76.3863
G01 X4.6565 Y76.3736
G01 X4.7126 Y76.3118
G01 X4.7241 Y76.2997
G01 X4.7361 Y76.2882
G01 X4.7980 Y76.2322
G01 X4.8106 Y76.2213
G01 X4.8237 Y76.2111
G01 X4.8975 Y76.1565
G01 X4.9185 Y76.1428
G01 X4.9900 Y76.0999
G01 X5.0046 Y76.0917
G01 X5.0195 Y76.0842
G01 X5.0949 Y76.0485
G01 X5.1101 Y76.0418
G01 X5.1257 Y76.0358
G01 X5.2042 Y76.0077
G01 X5.2201 Y76.0024
G01 X5.2362 Y75.9980
G01 X5.3171 Y75.9777
G01 X5.3334 Y75.9741
G01 X5.3498 Y75.9712
G01 X5.4323 Y75.9590
G01 X5.4489 Y75.9569
G01 X5.4655 Y75.9557
G01 X5.5488 Y75.9516
G01 X5.5655 Y75.9512
G01 X5.5822 Y75.9516
G01 X5.6738 Y75.9562
G01 X5.6987 Y75.9590
G01 X5.7812 Y75.9712
G01 X5.7977 Y75.9741
G01 X5.8140 Y75.9777
G01 X5.8949 Y75.9980
G01 X5.9110 Y76.0024
G01 X5.9268 Y76.0077
G01 X6.0053 Y76.0358
G01 X6.0209 Y76.0418
G01 X6.0362 Y76.0485
G01 X6.1116 Y76.0842
G01 X6.1265 Y76.0917
G01 X6.1410 Y76.0999
G01 X6.2197 Y76.1472
G01 X6.2403 Y76.1614
G01 X6.3073 Y76.2111
G01 X6.3204 Y76.2213
G01 X6.3331 Y76.2322
G01 X6.3949 Y76.2882
G01 X6.4070 Y76.2997
G01 X6.4185 Y76.3118
G01 X6.4745 Y76.3736
G01 X6.4854 Y76.3863
G01 X6.4957 Y76.3994
G01 X6.5511 Y76.4745
G01 X6.5511 Y75.2679
G01 X6.4957 Y75.3430
G01 X6.4854 Y75.3561
G01 X6.4745 Y75.3688
G01 X6.4185 Y75.4306
G01 X6.4070 Y75.4427
G01 X6.3949 Y75.4542
G01 X6.3331 Y75.5102
G01 X6.3204 Y75.5211
G01 X6.3073 Y75.5313
G01 X6.2403 Y75.5810
G01 X6.2266 Y75.5906
G01 X6.2125 Y75.5996
G01 X6.1410 Y75.6425
G01 X6.1265 Y75.6507
G01 X6.1116 Y75.6582
G01 X6.0286 Y75.6973
G01 X6.0053 Y75.7066
G01 X5.9268 Y75.7347
G01 X5.9110 Y75.7400
G01 X5.8949 Y75.7444
G01 X5.8058 Y75.7666
G01 X5.7812 Y75.7712
G01 X5.6987 Y75.7834
G01 X5.6822 Y75.7855
G01 X5.6655 Y75.7867
G01 X5.5822 Y75.7908
G01 X5.5655 Y75.7912
G01 X5.5488 Y75.7908
G01 X5.4655 Y75.7867
G01 X5.4489 Y75.7855
G01 X5.4323 Y75.7834
G01 X5.3498 Y75.7712
G01 X5.3334 Y75.7683
G01 X5.3171 Y75.7647
G01 X5.2362 Y75.7444
G01 X5.2201 Y75.7400
G01 X5.2042 Y75.7347
G01 X5.1179 Y75.7037
G01 X5.0949 Y75.6939
G01 X5.0195 Y75.6582
G01 X5.0046 Y75.6507
G01 X4.9900 Y75.6425
G01 X4.9185 Y75.5996
G01 X4.9044 Y75.5906
G01 X4.8907 Y75.5810
G01 X4.8237 Y75.5313
G01 X4.8106 Y75.5211
G01 X4.7980 Y75.5102
G01 X4.7361 Y75.4542
G01 X4.7241 Y75.4427
G01 X4.7126 Y75.4306
G01 X4.6565 Y75.3688
G01 X4.6456 Y75.3561
G01 X4.6354 Y75.3430
G01 X4.5857 Y75.2760
G01 X4.5761 Y75.2623
G01 X4.5671 Y75.2482
G01 X4.5243 Y75.1767
G01 X4.5160 Y75.1622
G01 X4.5085 Y75.1473
G01 X4.4729 Y75.0718
G01 X4.4661 Y75.0566
G01 X4.4601 Y75.0410
G01 X4.4320 Y74.9625
G01 X4.4268 Y74.9466
G01 X4.4223 Y74.9306
G01 X4.4020 Y74.8496
G01 X4.3984 Y74.8334
G01 X4.3955 Y74.8169
G01 X4.3833 Y74.7344
G01 X4.3805 Y74.7095
G01 X4.3759 Y74.6179
G01 X4.3755 Y74.6012
G01 X4.3759 Y74.5845
G01 X4.3800 Y74.5012
G01 X4.3813 Y74.4846
G01 X4.3833 Y74.4680
G01 X4.3955 Y74.3855
G01 X4.3984 Y74.3690
G01 X4.4020 Y74.3528
G01 X4.4223 Y74.2718
G01 X4.4268 Y74.2558
G01 X4.4320 Y74.2399
G01 X4.4630 Y74.1536
G01 X4.4729 Y74.1306
G01 X4.5085 Y74.0551
G01 X4.5160 Y74.0402
G01 X4.5243 Y74.0257
G01 X4.5671 Y73.9542
G01 X4.5761 Y73.9401
G01 X4.5857 Y73.9264
G01 X4.6354 Y73.8594
G01 X4.6456 Y73.8463
G01 X4.6565 Y73.8336
G01 X4.7126 Y73.7718
G01 X4.7300 Y73.7539
G01 X4.7980 Y73.6922
G01 X4.8106 Y73.6813
G01 X4.8237 Y73.6711
G01 X4.8907 Y73.6214
G01 X4.9044 Y73.6118
G01 X4.9185 Y73.6028
G01 X4.9900 Y73.5599
G01 X5.0046 Y73.5517
G01 X5.0195 Y73.5442
G01 X5.0949 Y73.5085
G01 X5.1101 Y73.5018
G01 X5.1257 Y73.4958
G01 X5.2042 Y73.4677
G01 X5.2201 Y73.4624
G01 X5.2362 Y73.4580
G01 X5.3252 Y73.4358
G01 X5.3498 Y73.4312
G01 X5.4323 Y73.4190
G01 X5.4489 Y73.4169
G01 X5.4655 Y73.4157
G01 X5.5488 Y73.4116
G01 X5.5655 Y73.4112
G01 X5.5822 Y73.4116
G01 X5.6655 Y73.4157
G01 X5.6822 Y73.4169
G01 X5.6987 Y73.4190
G01 X5.7812 Y73.4312
G01 X5.8058 Y73.4358
G01 X5.8949 Y73.4580
G01 X5.9110 Y73.4624
G01 X5.9268 Y73.4677
G01 X6.0053 Y73.4958
G01 X6.0209 Y73.5018
G01 X6.0362 Y73.5085
G01 X6.1116 Y73.5442
G01 X6.1265 Y73.5517
G01 X6.1410 Y73.5599
G01 X6.2125 Y73.6028
G01 X6.2266 Y73.6118
G01 X6.2403 Y73.6214
G01 X6.3073 Y73.6711
G01 X6.3204 Y73.6813
G01 X6.3331 Y73.6922
G01 X6.4010 Y73.7539
G01 X6.4185 Y73.7718
G01 X6.4745 Y73.8336
G01 X6.4854 Y73.8463
G01 X6.4957 Y73.8594
G01 X6.5511 Y73.9345
G01 X6.5511 Y72.7279
G01 X6.4957 Y72.8030
G01 X6.4854 Y72.8161
G01 X6.4745 Y72.8288
G01 X6.4185 Y72.8906
G01 X6.4070 Y72.9027
G01 X6.3949 Y72.9142
G01 X6.3331 Y72.9702
G01 X6.3204 Y72.9811
G01 X6.3073 Y72.9913
G01 X6.2403 Y73.0410
G01 X6.2266 Y73.0506
G01 X6.2125 Y73.0596
G01 X6.1410 Y73.1025
G01 X6.1265 Y73.1107
G01 X6.1116 Y73.1182
G01 X6.0286 Y73.1573
G01 X6.0053 Y73.1666
G01 X5.9268 Y73.1947
G01 X5.9110 Y73.2000
G01 X5.8949 Y73.2044
G01 X5.8058 Y73.2266
G01 X5.7812 Y73.2312
G01 X5.6987 Y73.2434
G01 X5.6822 Y73.2455
G01 X5.6655 Y73.2467
G01 X5.5822 Y73.2508
G01 X5.5655 Y73.2512
G01 X5.5488 Y73.2508
G01 X5.4655 Y73.2467
G01 X5.4489 Y73.2455
G01 X5.4323 Y73.2434
G01 X5.3498 Y73.2312
G01 X5.3334 Y73.2283
G01 X5.3171 Y73.2247
G01 X5.2362 Y73.2044
G01 X5.2201 Y73.2000
G01 X5.2042 Y73.1947
G01 X5.1179 Y73.1637
G01 X5.0949 Y73.1539
G01 X5.0195 Y73.1182
G01 X5.0046 Y73.1107
G01 X4.9900 Y73.1025
G01 X4.9185 Y73.0596
G01 X4.9044 Y73.0506
G01 X4.8907 Y73.0410
G01 X4.8237 Y72.9913
G01 X4.8106 Y72.9811
G01 X4.7980 Y72.9702
G01 X4.7361 Y72.9142
G01 X4.7241 Y72.9027
G01 X4.7126 Y72.8906
G01 X4.6565 Y72.8288
G01 X4.6456 Y72.8161
G01 X4.6354 Y72.8030
G01 X4.5857 Y72.7360
G01 X4.5761 Y72.7223
G01 X4.5671 Y72.7082
G01 X4.5243 Y72.6367
G01 X4.5160 Y72.6222
G01 X4.5085 Y72.6073
G01 X4.4729 Y72.5318
G01 X4.4661 Y72.5166
G01 X4.4601 Y72.5010
G01 X4.4320 Y72.4225
G01 X4.4268 Y72.4066
G01 X4.4223 Y72.3906
G01 X4.4020 Y72.3096
G01 X4.3984 Y72.2934
G01 X4.3955 Y72.2769
G01 X4.3833 Y72.1944
G01 X4.3813 Y72.1778
G01 X4.3800 Y72.1612
G01 X4.3759 Y72.0779
G01 X4.3755 Y72.0612
G01 X4.3759 Y72.0445
G01 X4.3800 Y71.9612
G01 X4.3813 Y71.9446
G01 X4.3833 Y71.9280
G01 X4.3969 Y71.8372
G01 X4.4020 Y71.8128
G01 X4.4223 Y71.7318
G01 X4.4268 Y71.7158
G01 X4.4320 Y71.6999
G01 X4.4601 Y71.6214
G01 X4.4661 Y71.6058
G01 X4.4729 Y71.5906
G01 X4.5085 Y71.5151
G01 X4.5160 Y71.5002
G01 X4.5243 Y71.4857
G01 X4.5671 Y71.4142
G01 X4.5808 Y71.3932
G01 X4.6354 Y71.3194
G01 X4.6456 Y71.3063
G01 X4.6565 Y71.2936
G01 X4.7126 Y71.2318
G01 X4.7241 Y71.2197
G01 X4.7361 Y71.2082
G01 X4.7980 Y71.1522
G01 X4.8106 Y71.1413
G01 X4.8237 Y71.1311
G01 X4.8907 Y71.0814
G01 X4.9044 Y71.0718
G01 X4.9185 Y71.0628
G01 X4.9900 Y71.0199
G01 X5.0046 Y71.0117
G01 X5.0195 Y71.0042
G01 X5.1025 Y70.9651
G01 X5.1257 Y70.9558
G01 X5.2042 Y70.9277
G01 X5.2201 Y70.9224
G01 X5.2362 Y70.9180
G01 X5.3171 Y70.8977
G01 X5.3334 Y70.8941
G01 X5.3498 Y70.8912
G01 X5.4323 Y70.8790
G01 X5.4489 Y70.8769
G01 X5.4655 Y70.8757
G01 X5.5488 Y70.8716
G01 X5.5655 Y70.8712
G01 X5.5822 Y70.8716
G01 X5.6738 Y70.8762
G01 X5.6987 Y70.8790
G01 X5.7812 Y70.8912
G01 X5.7977 Y70.8941
G01 X5.8140 Y70.8977
G01 X5.8949 Y70.9180
G01 X5.9110 Y70.9224
G01 X5.9268 Y70.9277
G01 X6.0053 Y70.9558
G01 X6.0209 Y70.9618
G01 X6.0362 Y70.9685
G01 X6.1116 Y71.0042
G01 X6.1265 Y71.0117
G01 X6.1410 Y71.0199
G01 X6.2197 Y71.0672
G01 X6.2403 Y71.0814
G01 X6.3073 Y71.1311
G01 X6.3204 Y71.1413
G01 X6.3331 Y71.1522
G01 X6.3949 Y71.2082
G01 X6.4070 Y71.2197
G01 X6.4185 Y71.2318
G01 X6.4745 Y71.2936
G01 X6.4854 Y71.3063
G01 X6.4957 Y71.3194
G01 X6.5511 Y71.3945
G01 X6.5511 Y70.1879
G01 X6.4957 Y70.2630
G01 X6.4854 Y70.2761
G01 X6.4745 Y70.2888
G01 X6.4185 Y70.3506
G01 X6.4070 Y70.3627
G01 X6.3949 Y70.3742
G01 X6.3331 Y70.4302
G01 X6.3204 Y70.4411
G01 X6.3073 Y70.4513
G01 X6.2403 Y70.5010
G01 X6.2266 Y70.5106
G01 X6.2125 Y70.5196
G01 X6.1410 Y70.5625
G01 X6.1265 Y70.5707
G01 X6.1116 Y70.5782
G01 X6.0362 Y70.6139
G01 X6.0209 Y70.6206
G01 X6.0053 Y70.6266
G01 X5.9268 Y70.6547
G01 X5.9110 Y70.6600
G01 X5.8949 Y70.6644
G01 X5.8140 Y70.6847
G01 X5.7977 Y70.6883
G01 X5.7812 Y70.6912
G01 X5.6987 Y70.7034
G01 X5.6822 Y70.7055
G01 X5.6655 Y70.7067
G01 X5.5822 Y70.7108
G01 X5.5655 Y70.7112
G01 X5.5488 Y70.7108
G01 X5.4655 Y70.7067
G01 X5.4489 Y70.7055
G01 X5.4323 Y70.7034
G01 X5.3416 Y70.6899
G01 X5.3171 Y70.6847
G01 X5.2362 Y70.6644
G01 X5.2201 Y70.6600
G01 X5.2042 Y70.6547
G01 X5.1179 Y70.6237
G01 X5.0949 Y70.6139
G01 X5.0195 Y70.5782
G01 X5.0046 Y70.5707
G01 X4.9900 Y70.5625
G01 X4.9185 Y70.5196
G01 X4.9044 Y70.5106
G01 X4.8907 Y70.5010
G01 X4.8237 Y70.4513
G01 X4.8106 Y70.4411
G01 X4.7980 Y70.4302
G01 X4.7361 Y70.3742
G01 X4.7241 Y70.3627
G01 X4.7126 Y70.3506
G01 X4.6565 Y70.2888
G01 X4.6404 Y70.2696
G01 X4.5857 Y70.1960
G01 X4.5761 Y70.1823
G01 X4.5671 Y70.1682
G01 X4.5243 Y70.0967
G01 X4.5160 Y70.0822
G01 X4.5085 Y70.0673
G01 X4.4729 Y69.9918
G01 X4.4661 Y69.9766
G01 X4.4601 Y69.9610
G01 X4.4320 Y69.8825
G01 X4.4268 Y69.8666
G01 X4.4223 Y69.8506
G01 X4.4020 Y69.7696
G01 X4.3984 Y69.7534
G01 X4.3955 Y69.7369
G01 X4.3822 Y69.6461
G01 X4.3800 Y69.6212
G01 X4.3759 Y69.5379
G01 X4.3755 Y69.5212
G01 X4.3759 Y69.5045
G01 X4.3800 Y69.4212
G01 X4.3813 Y69.4046
G01 X4.3833 Y69.3880
G01 X4.3969 Y69.2972
G01 X4.4020 Y69.2728
G01 X4.4223 Y69.1918
G01 X4.4268 Y69.1758
G01 X4.4320 Y69.1599
G01 X4.4601 Y69.0814
G01 X4.4661 Y69.0658
G01 X4.4729 Y69.0506
G01 X4.5085 Y68.9751
G01 X4.5160 Y68.9602
G01 X4.5243 Y68.9457
G01 X4.5671 Y68.8742
G01 X4.5808 Y68.8532
G01 X4.6354 Y68.7794
G01 X4.6456 Y68.7663
G01 X4.6565 Y68.7536
G01 X4.7126 Y68.6918
G01 X4.7241 Y68.6797
G01 X4.7361 Y68.6682
G01 X4.7980 Y68.6122
G01 X4.8106 Y68.6013
G01 X4.8237 Y68.5911
G01 X4.8907 Y68.5414
G01 X4.9044 Y68.5318
G01 X4.9185 Y68.5228
G01 X4.9900 Y68.4799
G01 X5.0046 Y68.4717
G01 X5.0195 Y68.4642
G01 X5.1025 Y68.4251
G01 X5.1257 Y68.4158
G01 X5.2042 Y68.3877
G01 X5.2201 Y68.3824
G01 X5.2362 Y68.3780
G01 X5.3171 Y68.3577
G01 X5.3334 Y68.3541
G01 X5.3498 Y68.3512
G01 X5.4323 Y68.3390
G01 X5.4489 Y68.3369
G01 X5.4655 Y68.3357
G01 X5.5488 Y68.3316
G01 X5.5655 Y68.3312
G01 X5.5822 Y68.3316
G01 X5.6738 Y68.3362
G01 X5.6987 Y68.3390
G01 X5.7812 Y68.3512
G01 X5.7977 Y68.3541
G01 X5.8140 Y68.3577
G01 X5.8949 Y68.3780
G01 X5.9110 Y68.3824
G01 X5.9268 Y68.3877
G01 X6.0053 Y68.4158
G01 X6.0209 Y68.4218
G01 X6.0362 Y68.4285
G01 X6.1116 Y68.4642
G01 X6.1265 Y68.4717
G01 X6.1410 Y68.4799
G01 X6.2197 Y68.5272
G01 X6.2403 Y68.5414
G01 X6.3073 Y68.5911
G01 X6.3204 Y68.6013
G01 X6.3331 Y68.6122
G01 X6.3949 Y68.6682
G01 X6.4070 Y68.6797
G01 X6.4185 Y68.6918
G01 X6.4745 Y68.7536
G01 X6.4854 Y68.7663
G01 X6.4957 Y68.7794
G01 X6.5511 Y68.8545
G01 X6.5511 Y68.7306
G01 X5.9330 Y68.1125
G01 X5.9189 Y68.1174
G01 X5.9029 Y68.1223
G01 X5.8140 Y68.1447
G01 X5.7977 Y68.1483
G01 X5.7812 Y68.1512
G01 X5.6987 Y68.1634
G01 X5.6738 Y68.1662
G01 X5.5822 Y68.1708
G01 X5.5655 Y68.1712
G01 X5.5488 Y68.1708
G01 X5.4655 Y68.1667
G01 X5.4489 Y68.1655
G01 X5.4323 Y68.1634
G01 X5.3416 Y68.1499
G01 X5.3171 Y68.1447
G01 X5.2362 Y68.1244
G01 X5.2201 Y68.1200
G01 X5.2042 Y68.1147
G01 X5.1257 Y68.0866
G01 X5.1101 Y68.0806
G01 X5.0949 Y68.0739
G01 X5.0195 Y68.0382
G01 X5.0046 Y68.0307
G01 X4.9900 Y68.0225
G01 X4.9185 Y67.9796
G01 X4.9044 Y67.9706
G01 X4.8907 Y67.9610
G01 X4.8171 Y67.9063
G01 X4.7980 Y67.8902
G01 X4.7361 Y67.8342
G01 X4.7241 Y67.8227
G01 X4.7126 Y67.8106
G01 X4.6565 Y67.7488
G01 X4.6456 Y67.7361
G01 X4.6354 Y67.7230
G01 X4.5857 Y67.6560
G01 X4.5761 Y67.6423
G01 X4.5671 Y67.6282
G01 X4.5243 Y67.5567
G01 X4.5122 Y67.5348
G01 X4.4729 Y67.4518
G01 X4.4661 Y67.4366
G01 X4.4601 Y67.4210
G01 X4.4320 Y67.3425
G01 X4.4268 Y67.3266
G01 X4.4223 Y67.3106
G01 X4.4020 Y67.2296
G01 X4.3969 Y67.2052
G01 X4.3833 Y67.1144
G01 X4.3813 Y67.0978
G01 X4.3800 Y67.0812
G01 X4.3759 Y66.9979
G01 X4.3756 Y66.9729
G01 X4.3800 Y66.8812
G01 X4.3813 Y66.8646
G01 X4.3833 Y66.8480
G01 X4.3955 Y66.7655
G01 X4.3984 Y66.7490
G01 X4.4020 Y66.7328
G01 X4.4223 Y66.6518
G01 X4.4268 Y66.6358
G01 X4.4320 Y66.6199
G01 X4.4601 Y66.5414
G01 X4.4661 Y66.5258
G01 X4.4729 Y66.5106
G01 X4.5122 Y66.4276
G01 X4.5243 Y66.4057
G01 X4.5671 Y66.3342
G01 X4.5761 Y66.3201
G01 X4.5857 Y66.3064
G01 X4.6354 Y66.2394
G01 X4.6456 Y66.2263
G01 X4.6565 Y66.2136
G01 X4.7126 Y66.1518
G01 X4.7241 Y66.1397
G01 X4.7361 Y66.1282
G01 X4.7980 Y66.0722
G01 X4.8106 Y66.0613
G01 X4.8237 Y66.0511
G01 X4.8907 Y66.0014
G01 X4.9114 Y65.9872
G01 X4.9900 Y65.9399
G01 X5.0046 Y65.9317
G01 X5.0254 Y65.9214
G01 X5.0254 Y65.5309
G01 X5.0258 Y65.5142
G01 X5.0280 Y65.4780
G01 X5.0301 Y65.4614
G01 X5.0358 Y65.4255
G01 X5.0442 Y65.3902
G01 X5.0487 Y65.3741
G01 X5.0539 Y65.3583
G01 X5.0665 Y65.3242
G01 X5.0733 Y65.3090
G01 X5.0854 Y65.2837
G01 X5.0974 Y65.2618
G01 X5.1119 Y65.2378
G01 X5.1212 Y65.2240
G01 X5.1378 Y65.2014
G01 X5.1480 Y65.1883
G01 X5.1589 Y65.1756
G01 X5.1778 Y65.1550
G01 X5.6263 Y64.7063
G01 X5.6263 Y63.5977
G01 X5.6186 Y63.6220
G01 X5.6060 Y63.6561
G01 X5.5908 Y63.6891
G01 X5.5793 Y63.7113
G01 X5.5606 Y63.7425
G01 X5.5465 Y63.7631
G01 X5.5245 Y63.7920
G01 X5.5136 Y63.8047
G01 X5.4948 Y63.8253
G01 X3.5656 Y65.7546
G01 X3.5656 Y65.7912
G01 X3.8755 Y65.7912
G01 X3.9005 Y65.7921
G01 X3.9254 Y65.7949
G01 X3.9419 Y65.7977
G01 X3.9581 Y65.8014
G01 X3.9742 Y65.8058
G01 X3.9901 Y65.8111
G01 X4.0056 Y65.8171
G01 X4.0209 Y65.8238
G01 X4.0358 Y65.8313
G01 X4.0503 Y65.8396
G01 X4.0644 Y65.8485
G01 X4.0847 Y65.8632
G01 X4.0976 Y65.8737
G01 X4.1100 Y65.8850
G01 X4.1274 Y65.9029
G01 X4.1383 Y65.9155
G01 X4.1486 Y65.9287
G01 X4.1582 Y65.9423
G01 X4.1713 Y65.9636
G01 X4.1792 Y65.9783
G01 X4.1864 Y65.9934
G01 X4.1927 Y66.0088
G01 X4.2009 Y66.0325
G01 X4.2053 Y66.0486
G01 X4.2105 Y66.0731
G01 X4.2130 Y66.0896
G01 X4.2151 Y66.1145
G01 X4.2155 Y66.1312
G01 X4.2154 Y67.8395
G01 X4.2139 Y67.8645
G01 X4.2118 Y67.8811
G01 X4.2090 Y67.8975
G01 X4.2032 Y67.9219
G01 X4.1956 Y67.9457
G01 X4.1864 Y67.9690
G01 X4.1754 Y67.9915
G01 X4.1671 Y68.0060
G01 X4.1582 Y68.0201
G01 X4.1436 Y68.0404
G01 X4.1330 Y68.0533
G01 X4.1159 Y68.0716
G01 X4.1038 Y68.0831
G01 X4.0912 Y68.0940
G01 X4.0713 Y68.1092
G01 X4.0574 Y68.1185
G01 X4.0431 Y68.1270
G01 X4.0284 Y68.1349
G01 X4.0133 Y68.1420
G01 X3.9979 Y68.1484
G01 X3.9822 Y68.1540
G01 X3.9662 Y68.1589
G01 X3.9500 Y68.1629
G01 X3.9336 Y68.1662
G01 X3.9088 Y68.1696
G01 X3.8922 Y68.1708
G01 X3.8755 Y68.1712
G01 X2.1755 Y68.1712
G01 X2.1588 Y68.1708
G01 X2.1422 Y68.1696
G01 X2.1256 Y68.1675
G01 X2.1103 Y68.1649
G01 X2.1103 Y68.7607
G01 X2.1726 Y68.6918
G01 X2.1841 Y68.6797
G01 X2.1961 Y68.6682
G01 X2.2580 Y68.6122
G01 X2.2706 Y68.6013
G01 X2.2837 Y68.5911
G01 X2.3507 Y68.5414
G01 X2.3644 Y68.5318
G01 X2.3785 Y68.5228
G01 X2.4500 Y68.4799
G01 X2.4646 Y68.4717
G01 X2.4795 Y68.4642
G01 X2.5549 Y68.4285
G01 X2.5701 Y68.4218
G01 X2.5857 Y68.4158
G01 X2.6642 Y68.3877
G01 X2.6801 Y68.3824
G01 X2.6962 Y68.3780
G01 X2.7771 Y68.3577
G01 X2.7934 Y68.3541
G01 X2.8098 Y68.3512
G01 X2.8923 Y68.3390
G01 X2.9089 Y68.3369
G01 X2.9255 Y68.3357
G01 X3.0088 Y68.3316
G01 X3.0255 Y68.3312
G01 X3.0422 Y68.3316
G01 X3.1255 Y68.3357
G01 X3.1422 Y68.3369
G01 X3.1587 Y68.3390
G01 X3.2412 Y68.3512
G01 X3.2577 Y68.3541
G01 X3.2740 Y68.3577
G01 X3.3549 Y68.3780
G01 X3.3710 Y68.3824
G01 X3.3868 Y68.3877
G01 X3.4653 Y68.4158
G01 X3.4809 Y68.4218
G01 X3.4962 Y68.4285
G01 X3.5716 Y68.4642
G01 X3.5865 Y68.4717
G01 X3.6010 Y68.4799
G01 X3.6725 Y68.5228
G01 X3.6866 Y68.5318
G01 X3.7003 Y68.5414
G01 X3.7673 Y68.5911
G01 X3.7804 Y68.6013
G01 X3.7931 Y68.6122
G01 X3.8549 Y68.6682
G01 X3.8670 Y68.6797
G01 X3.8785 Y68.6918
G01 X3.9345 Y68.7536
G01 X3.9454 Y68.7663
G01 X3.9557 Y68.7794
G01 X4.0054 Y68.8464
G01 X4.0150 Y68.8601
G01 X4.0239 Y68.8742
G01 X4.0668 Y68.9457
G01 X4.0750 Y68.9602
G01 X4.0825 Y68.9751
G01 X4.1216 Y69.0581
G01 X4.1309 Y69.0814
G01 X4.1590 Y69.1599
G01 X4.1643 Y69.1758
G01 X4.1687 Y69.1918
G01 X4.1890 Y69.2728
G01 X4.1942 Y69.2972
G01 X4.2077 Y69.3880
G01 X4.2098 Y69.4046
G01 X4.2110 Y69.4212
G01 X4.2151 Y69.5045
G01 X4.2155 Y69.5212
G01 X4.2151 Y69.5379
G01 X4.2110 Y69.6212
G01 X4.2098 Y69.6378
G01 X4.2077 Y69.6544
G01 X4.1955 Y69.7369
G01 X4.1927 Y69.7534
G01 X4.1890 Y69.7696
G01 X4.1687 Y69.8506
G01 X4.1643 Y69.8666
G01 X4.1590 Y69.8825
G01 X4.1309 Y69.9610
G01 X4.1249 Y69.9766
G01 X4.1182 Y69.9918
G01 X4.0825 Y70.0673
G01 X4.0750 Y70.0822
G01 X4.0668 Y70.0967
G01 X4.0239 Y70.1682
G01 X4.0150 Y70.1823
G01 X4.0054 Y70.1960
G01 X3.9557 Y70.2630
G01 X3.9454 Y70.2761
G01 X3.9345 Y70.2888
G01 X3.8728 Y70.3567
G01 X3.8549 Y70.3742
G01 X3.7931 Y70.4302
G01 X3.7739 Y70.4463
G01 X3.7003 Y70.5010
G01 X3.6866 Y70.5106
G01 X3.6725 Y70.5196
G01 X3.6010 Y70.5625
G01 X3.5865 Y70.5707
G01 X3.5716 Y70.5782
G01 X3.4962 Y70.6139
G01 X3.4809 Y70.6206
G01 X3.4653 Y70.6266
G01 X3.3868 Y70.6547
G01 X3.3710 Y70.6600
G01 X3.3549 Y70.6644
G01 X3.2740 Y70.6847
G01 X3.2577 Y70.6883
G01 X3.2412 Y70.6912
G01 X3.1587 Y70.7034
G01 X3.1422 Y70.7055
G01 X3.1255 Y70.7067
G01 X3.0422 Y70.7108
G01 X3.0255 Y70.7112
G01 X3.0088 Y70.7108
G01 X2.9255 Y70.7067
G01 X2.9089 Y70.7055
G01 X2.8923 Y70.7034
G01 X2.8098 Y70.6912
G01 X2.7852 Y70.6866
G01 X2.6962 Y70.6644
G01 X2.6801 Y70.6600
G01 X2.6642 Y70.6547
G01 X2.5857 Y70.6266
G01 X2.5625 Y70.6173
G01 X2.4795 Y70.5782
G01 X2.4646 Y70.5707
G01 X2.4500 Y70.5625
G01 X2.3785 Y70.5196
G01 X2.3644 Y70.5106
G01 X2.3507 Y70.5010
G01 X2.2837 Y70.4513
G01 X2.2706 Y70.4411
G01 X2.2580 Y70.4302
G01 X2.1961 Y70.3742
G01 X2.1841 Y70.3627
G01 X2.1726 Y70.3506
G01 X2.1103 Y70.2817
G01 X2.1103 Y70.3822
G01 X2.6580 Y70.9299
G01 X2.6801 Y70.9224
G01 X2.6962 Y70.9180
G01 X2.7852 Y70.8958
G01 X2.8098 Y70.8912
G01 X2.8923 Y70.8790
G01 X2.9089 Y70.8769
G01 X2.9255 Y70.8757
G01 X3.0088 Y70.8716
G01 X3.0255 Y70.8712
G01 X3.0422 Y70.8716
G01 X3.1255 Y70.8757
G01 X3.1422 Y70.8769
G01 X3.1587 Y70.8790
G01 X3.2412 Y70.8912
G01 X3.2577 Y70.8941
G01 X3.2740 Y70.8977
G01 X3.3549 Y70.9180
G01 X3.3710 Y70.9224
G01 X3.3868 Y70.9277
G01 X3.4653 Y70.9558
G01 X3.4809 Y70.9618
G01 X3.4962 Y70.9685
G01 X3.5716 Y71.0042
G01 X3.5865 Y71.0117
G01 X3.6010 Y71.0199
G01 X3.6725 Y71.0628
G01 X3.6866 Y71.0718
G01 X3.7003 Y71.0814
G01 X3.7673 Y71.1311
G01 X3.7804 Y71.1413
G01 X3.7931 Y71.1522
G01 X3.8549 Y71.2082
G01 X3.8670 Y71.2197
G01 X3.8785 Y71.2318
G01 X3.9345 Y71.2936
G01 X3.9454 Y71.3063
G01 X3.9557 Y71.3194
G01 X4.0054 Y71.3864
G01 X4.0150 Y71.4001
G01 X4.0239 Y71.4142
G01 X4.0668 Y71.4857
G01 X4.0750 Y71.5002
G01 X4.0825 Y71.5151
G01 X4.1182 Y71.5906
G01 X4.1249 Y71.6058
G01 X4.1309 Y71.6214
G01 X4.1590 Y71.6999
G01 X4.1643 Y71.7158
G01 X4.1687 Y71.7318
G01 X4.1890 Y71.8128
G01 X4.1927 Y71.8290
G01 X4.1955 Y71.8455
G01 X4.2077 Y71.9280
G01 X4.2098 Y71.9446
G01 X4.2110 Y71.9612
G01 X4.2151 Y72.0445
G01 X4.2155 Y72.0612
G01 X4.2151 Y72.0779
G01 X4.2110 Y72.1612
G01 X4.2098 Y72.1778
G01 X4.2077 Y72.1944
G01 X4.1955 Y72.2769
G01 X4.1927 Y72.2934
G01 X4.1890 Y72.3096
G01 X4.1687 Y72.3906
G01 X4.1643 Y72.4066
G01 X4.1590 Y72.4225
G01 X4.1309 Y72.5010
G01 X4.1249 Y72.5166
G01 X4.1182 Y72.5318
G01 X4.0825 Y72.6073
G01 X4.0710 Y72.6295
G01 X4.0239 Y72.7082
G01 X4.0150 Y72.7223
G01 X4.0054 Y72.7360
G01 X3.9557 Y72.8030
G01 X3.9454 Y72.8161
G01 X3.9345 Y72.8288
G01 X3.8785 Y72.8906
G01 X3.8670 Y72.9027
G01 X3.8549 Y72.9142
G01 X3.7931 Y72.9702
G01 X3.7804 Y72.9811
G01 X3.7673 Y72.9913
G01 X3.7003 Y73.0410
G01 X3.6866 Y73.0506
G01 X3.6725 Y73.0596
G01 X3.6010 Y73.1025
G01 X3.5865 Y73.1107
G01 X3.5716 Y73.1182
G01 X3.4962 Y73.1539
G01 X3.4809 Y73.1606
G01 X3.4653 Y73.1666
G01 X3.3868 Y73.1947
G01 X3.3710 Y73.2000
G01 X3.3549 Y73.2044
G01 X3.2740 Y73.2247
G01 X3.2577 Y73.2283
G01 X3.2412 Y73.2312
G01 X3.1587 Y73.2434
G01 X3.1422 Y73.2455
G01 X3.1255 Y73.2467
G01 X3.0422 Y73.2508
G01 X3.0255 Y73.2512
G01 X3.0088 Y73.2508
G01 X2.9255 Y73.2467
G01 X2.9089 Y73.2455
G01 X2.8923 Y73.2434
G01 X2.8098 Y73.2312
G01 X2.7934 Y73.2283
G01 X2.7771 Y73.2247
G01 X2.6962 Y73.2044
G01 X2.6801 Y73.2000
G01 X2.6642 Y73.1947
G01 X2.5857 Y73.1666
G01 X2.5701 Y73.1606
G01 X2.5549 Y73.1539
G01 X2.4795 Y73.1182
G01 X2.4572 Y73.1067
G01 X2.3785 Y73.0596
G01 X2.3644 Y73.0506
G01 X2.3507 Y73.0410
G01 X2.2837 Y72.9913
G01 X2.2706 Y72.9811
G01 X2.2580 Y72.9702
G01 X2.1961 Y72.9142
G01 X2.1841 Y72.9027
G01 X2.1726 Y72.8906
G01 X2.1165 Y72.8288
G01 X2.1056 Y72.8161
G01 X2.0954 Y72.8030
G01 X2.0408 Y72.7292
G01 X2.0271 Y72.7082
G01 X1.9843 Y72.6367
G01 X1.9760 Y72.6222
G01 X1.9685 Y72.6073
G01 X1.9329 Y72.5318
G01 X1.9230 Y72.5088
G01 X1.8920 Y72.4225
G01 X1.8868 Y72.4066
G01 X1.8823 Y72.3906
G01 X1.8620 Y72.3096
G01 X1.8584 Y72.2934
G01 X1.8555 Y72.2769
G01 X1.8433 Y72.1944
G01 X1.8413 Y72.1778
G01 X1.8400 Y72.1612
G01 X1.8356 Y72.0695
G01 X1.8359 Y72.0445
G01 X1.8400 Y71.9612
G01 X1.8413 Y71.9446
G01 X1.8433 Y71.9280
G01 X1.8555 Y71.8455
G01 X1.8601 Y71.8209
G01 X1.8823 Y71.7318
G01 X1.8868 Y71.7158
G01 X1.8942 Y71.6937
G01 X1.3099 Y71.1094
G01 X1.3099 Y74.6618
G01 X2.6580 Y76.0099
G01 X2.6801 Y76.0024
G01 X2.6962 Y75.9980
G01 X2.7852 Y75.9758
G01 X2.8098 Y75.9712
G01 X2.8923 Y75.9590
G01 X2.9089 Y75.9569
G01 X2.9255 Y75.9557
G01 X3.0088 Y75.9516
G01 X3.0255 Y75.9512
G01 X3.0422 Y75.9516
G01 X3.1255 Y75.9557
G01 X3.1422 Y75.9569
G01 X3.1587 Y75.9590
G01 X3.2412 Y75.9712
G01 X3.2577 Y75.9741
G01 X3.2740 Y75.9777
G01 X3.3549 Y75.9980
G01 X3.3710 Y76.0024
G01 X3.3868 Y76.0077
G01 X3.4653 Y76.0358
G01 X3.4809 Y76.0418
G01 X3.4962 Y76.0485
G01 X3.5716 Y76.0842
G01 X3.5865 Y76.0917
G01 X3.6010 Y76.0999
G01 X3.6725 Y76.1428
G01 X3.6866 Y76.1518
G01 X3.7003 Y76.1614
G01 X3.7673 Y76.2111
G01 X3.7804 Y76.2213
G01 X3.7931 Y76.2322
G01 X3.8549 Y76.2882
G01 X3.8670 Y76.2997
G01 X3.8785 Y76.3118
G01 X3.9345 Y76.3736
G01 X3.9454 Y76.3863
G01 X3.9557 Y76.3994
G01 X4.0054 Y76.4664
G01 X4.0150 Y76.4801
G01 X4.0239 Y76.4942
G01 X4.0668 Y76.5657
G01 X4.0750 Y76.5802
G01 X4.0825 Y76.5951
G01 X4.1216 Y76.6781
G01 X4.1309 Y76.7014
G01 X4.1590 Y76.7799
G01 X4.1643 Y76.7958
G01 X4.1687 Y76.8118
G01 X4.1890 Y76.8928
G01 X4.1927 Y76.9090
G01 X4.1955 Y76.9255
G01 X4.2077 Y77.0080
G01 X4.2098 Y77.0246
G01 X4.2110 Y77.0412
G01 X4.2151 Y77.1245
G01 X4.2155 Y77.1412
G01 X4.2151 Y77.1579
G01 X4.2110 Y77.2412
G01 X4.2098 Y77.2578
G01 X4.2077 Y77.2744
G01 X4.1955 Y77.3569
G01 X4.1909 Y77.3815
G01 X4.1687 Y77.4706
G01 X4.1643 Y77.4866
G01 X4.1590 Y77.5025
G01 X4.1309 Y77.5810
G01 X4.1249 Y77.5966
G01 X4.1182 Y77.6118
G01 X4.0825 Y77.6873
G01 X4.0750 Y77.7022
G01 X4.0668 Y77.7167
G01 X4.0239 Y77.7882
G01 X4.0150 Y77.8023
G01 X4.0054 Y77.8160
G01 X3.9506 Y77.8896
G01 X3.9345 Y77.9088
G01 X3.8785 Y77.9706
G01 X3.8670 Y77.9827
G01 X3.8549 Y77.9942
G01 X3.7931 Y78.0502
G01 X3.7804 Y78.0611
G01 X3.7673 Y78.0713
G01 X3.7003 Y78.1210
G01 X3.6866 Y78.1306
G01 X3.6725 Y78.1396
G01 X3.6010 Y78.1825
G01 X3.5865 Y78.1907
G01 X3.5716 Y78.1982
G01 X3.4962 Y78.2339
G01 X3.4809 Y78.2406
G01 X3.4653 Y78.2466
G01 X3.3868 Y78.2747
G01 X3.3710 Y78.2800
G01 X3.3549 Y78.2844
G01 X3.2740 Y78.3047
G01 X3.2577 Y78.3083
G01 X3.2412 Y78.3112
G01 X3.1587 Y78.3234
G01 X3.1422 Y78.3255
G01 X3.1255 Y78.3267
G01 X3.0422 Y78.3308
G01 X3.0255 Y78.3312
G01 X3.0088 Y78.3308
G01 X2.9255 Y78.3267
G01 X2.9089 Y78.3255
G01 X2.8923 Y78.3234
G01 X2.8098 Y78.3112
G01 X2.7934 Y78.3083
G01 X2.7771 Y78.3047
G01 X2.6962 Y78.2844
G01 X2.6801 Y78.2800
G01 X2.6642 Y78.2747
G01 X2.5857 Y78.2466
G01 X2.5701 Y78.2406
G01 X2.5549 Y78.2339
G01 X2.4795 Y78.1982
G01 X2.4646 Y78.1907
G01 X2.4500 Y78.1825
G01 X2.3785 Y78.1396
G01 X2.3644 Y78.1306
G01 X2.3507 Y78.1210
G01 X2.2771 Y78.0663
G01 X2.2580 Y78.0502
G01 X2.1961 Y77.9942
G01 X2.1841 Y77.9827
G01 X2.1726 Y77.9706
G01 X2.1165 Y77.9088
G01 X2.1056 Y77.8961
G01 X2.0954 Y77.8830
G01 X2.0457 Y77.8160
G01 X2.0361 Y77.8023
G01 X2.0271 Y77.7882
G01 X1.9843 Y77.7167
G01 X1.9760 Y77.7022
G01 X1.9685 Y77.6873
G01 X1.9329 Y77.6118
G01 X1.9261 Y77.5966
G01 X1.9201 Y77.5810
G01 X1.8920 Y77.5025
G01 X1.8868 Y77.4866
G01 X1.8823 Y77.4706
G01 X1.8620 Y77.3896
G01 X1.8584 Y77.3734
G01 X1.8555 Y77.3569
G01 X1.8433 Y77.2744
G01 X1.8413 Y77.2578
G01 X1.8400 Y77.2412
G01 X1.8359 Y77.1579
G01 X1.8355 Y77.1412
G01 X1.8359 Y77.1245
G01 X1.8400 Y77.0412
G01 X1.8413 Y77.0246
G01 X1.8433 Y77.0080
G01 X1.8555 Y76.9255
G01 X1.8601 Y76.9009
G01 X1.8823 Y76.8118
G01 X1.8868 Y76.7958
G01 X1.8942 Y76.7737
G01 X0.3879 Y75.2674
G01 X0.3764 Y75.2553
G01 X0.3523 Y75.2281
G01 X0.3421 Y75.2150
G01 X0.3255 Y75.1924
G01 X0.3118 Y75.1715
G01 X0.2975 Y75.1474
G01 X0.2897 Y75.1327
G01 X0.2776 Y75.1074
G01 X0.2708 Y75.0922
G01 X0.2582 Y75.0581
G01 X0.2507 Y75.0343
G01 X0.2438 Y75.0072
G01 X0.2401 Y74.9909
G01 X0.2372 Y74.9744
G01 X0.2323 Y74.9384
G01 X0.2301 Y74.9022
G01 X0.2297 Y74.8855
G01 X0.2298 Y36.1668
G01 X0.2311 Y36.1388
G01 X0.2323 Y36.1222
G01 X0.2372 Y36.0862
G01 X0.2401 Y36.0697
G01 X0.2438 Y36.0534
G01 X0.2530 Y36.0183
G01 X0.2582 Y36.0025
G01 X0.2677 Y35.9762
G01 X0.2741 Y35.9607
G01 X0.2860 Y35.9354
G01 X0.2935 Y35.9205
G01 X0.3017 Y35.9060
G01 X0.3162 Y35.8820
G01 X0.3255 Y35.8682
G01 X0.3471 Y35.8390
G01 X0.3577 Y35.8261
G01 X0.3764 Y35.8053
G01 X0.3879 Y35.7932
G01 X1.7468 Y34.4343
G01 X1.7389 Y34.3813
G01 X1.7368 Y34.3647
G01 X1.7356 Y34.3481
G01 X1.7327 Y34.2893
G01 X1.7323 Y34.2726
G01 X1.7327 Y34.2559
G01 X1.7356 Y34.1971
G01 X1.7368 Y34.1805
G01 X1.7389 Y34.1639
G01 X1.7475 Y34.1057
G01 X1.7504 Y34.0892
G01 X1.7540 Y34.0729
G01 X1.7683 Y34.0158
G01 X1.7728 Y33.9997
G01 X1.7780 Y33.9839
G01 X1.7979 Y33.9284
G01 X1.8039 Y33.9129
G01 X1.8106 Y33.8976
G01 X1.8358 Y33.8444
G01 X1.8433 Y33.8295
G01 X1.8515 Y33.8150
G01 X1.8818 Y33.7645
G01 X1.8907 Y33.7504
G01 X1.9003 Y33.7367
G01 X1.9354 Y33.6894
G01 X1.9457 Y33.6763
G01 X1.9566 Y33.6636
G01 X1.9961 Y33.6200
G01 X2.0076 Y33.6079
G01 X2.0197 Y33.5964
G01 X2.0634 Y33.5569
G01 X2.0760 Y33.5460
G01 X2.0891 Y33.5357
G01 X2.1364 Y33.5006
G01 X2.1501 Y33.4910
G01 X2.1642 Y33.4821
G01 X2.2147 Y33.4518
G01 X2.2292 Y33.4436
G01 X2.2441 Y33.4361
G01 X2.2973 Y33.4109
G01 X2.3126 Y33.4042
G01 X2.3282 Y33.3981
G01 X2.3836 Y33.3783
G01 X2.3995 Y33.3731
G01 X2.4155 Y33.3686
G01 X2.4727 Y33.3543
G01 X2.4889 Y33.3507
G01 X2.5054 Y33.3478
G01 X2.5636 Y33.3392
G01 X2.5802 Y33.3371
G01 X2.5968 Y33.3359
G01 X2.6556 Y33.3330
G01 X2.6723 Y33.3326
G01 X2.6890 Y33.3330
G01 X2.7478 Y33.3359
G01 X2.7645 Y33.3371
G01 X2.7810 Y33.3392
G01 X2.8475 Y33.3491
G01 X2.8720 Y33.3543
G01 X2.9291 Y33.3686
G01 X2.9531 Y33.3756
G01 X3.0243 Y33.4011
G01 X3.0473 Y33.4109
G01 X3.1005 Y33.4361
G01 X3.1154 Y33.4436
G01 X3.1300 Y33.4518
G01 X3.1805 Y33.4821
G01 X3.1946 Y33.4910
G01 X3.2082 Y33.5006
G01 X3.2555 Y33.5357
G01 X3.2686 Y33.5460
G01 X3.2813 Y33.5569
G01 X3.3249 Y33.5964
G01 X3.3406 Y33.6116
G01 X3.3406 Y28.2930
G01 X3.2975 Y28.2611
G01 X3.2844 Y28.2508
G01 X3.2718 Y28.2399
G01 X3.2281 Y28.2004
G01 X3.2160 Y28.1889
G01 X3.2045 Y28.1768
G01 X3.1650 Y28.1332
G01 X3.1541 Y28.1205
G01 X3.1438 Y28.1074
G01 X3.1087 Y28.0601
G01 X3.0991 Y28.0464
G01 X3.0902 Y28.0323
G01 X3.0599 Y27.9818
G01 X3.0517 Y27.9673
G01 X3.0442 Y27.9524
G01 X3.0190 Y27.8992
G01 X3.0123 Y27.8839
G01 X3.0063 Y27.8684
G01 X2.9864 Y27.8129
G01 X2.9812 Y27.7971
G01 X2.9767 Y27.7810
G01 X2.9624 Y27.7239
G01 X2.9573 Y27.6994
G01 X2.9473 Y27.6329
G01 X2.9452 Y27.6163
G01 X2.9440 Y27.5997
G01 X2.9411 Y27.5409
G01 X2.9408 Y27.5159
G01 X2.9445 Y27.4404
G01 X2.9473 Y27.4155
G01 X2.9559 Y27.3573
G01 X2.9588 Y27.3408
G01 X2.9624 Y27.3245
G01 X2.9767 Y27.2674
G01 X2.9812 Y27.2513
G01 X2.9864 Y27.2355
G01 X3.0063 Y27.1800
G01 X3.0123 Y27.1645
G01 X3.0190 Y27.1492
G01 X3.0442 Y27.0960
G01 X3.0517 Y27.0811
G01 X3.0599 Y27.0666
G01 X3.0902 Y27.0161
G01 X3.0991 Y27.0020
G01 X3.1087 Y26.9883
G01 X3.1438 Y26.9410
G01 X3.1541 Y26.9279
G01 X3.1650 Y26.9152
G01 X3.2045 Y26.8716
G01 X3.2160 Y26.8595
G01 X3.2281 Y26.8480
G01 X3.2718 Y26.8085
G01 X3.2844 Y26.7976
G01 X3.2975 Y26.7873
G01 X3.3448 Y26.7522
G01 X3.3585 Y26.7426
G01 X3.3726 Y26.7337
G01 X3.4231 Y26.7034
G01 X3.4376 Y26.6952
G01 X3.4525 Y26.6877
G01 X3.5057 Y26.6625
G01 X3.5210 Y26.6558
G01 X3.5366 Y26.6497
G01 X3.5999 Y26.6272
G01 X3.6239 Y26.6202
G01 X3.6811 Y26.6059
G01 X3.6973 Y26.6023
G01 X3.7138 Y26.5994
G01 X3.7720 Y26.5908
G01 X3.7886 Y26.5887
G01 X3.8052 Y26.5875
G01 X3.8640 Y26.5846
G01 X3.8807 Y26.5842
G01 X3.8974 Y26.5846
G01 X3.9562 Y26.5875
G01 X3.9729 Y26.5887
G01 X3.9894 Y26.5908
G01 X4.0477 Y26.5994
G01 X4.0641 Y26.6023
G01 X4.0804 Y26.6059
G01 X4.1456 Y26.6224
G01 X4.1694 Y26.6299
G01 X4.2249 Y26.6497
G01 X4.2404 Y26.6558
G01 X4.2557 Y26.6625
G01 X4.3089 Y26.6877
G01 X4.3238 Y26.6952
G01 X4.3384 Y26.7034
G01 X4.3960 Y26.7381
G01 X4.4166 Y26.7522
G01 X4.4639 Y26.7873
G01 X4.4834 Y26.8029
G01 X4.5394 Y26.8537
G01 X4.5512 Y26.8655
G01 X4.5669 Y26.8827
G01 X4.5669 Y19.4755
G01 X4.5427 Y19.4513
G01 X4.5312 Y19.4392
G01 X4.5125 Y19.4184
G01 X4.5019 Y19.4055
G01 X4.4803 Y19.3763
G01 X4.4710 Y19.3625
G01 X4.4523 Y19.3313
G01 X4.4445 Y19.3166
G01 X4.4289 Y19.2838
G01 X4.4225 Y19.2683
G01 X4.4103 Y19.2341
G01 X4.4055 Y19.2182
G01 X4.3966 Y19.1829
G01 X4.3934 Y19.1666
G01 X4.3880 Y19.1306
G01 X4.3864 Y19.1140
G01 X4.3849 Y19.0861
G01 X4.3845 Y19.0694
G01 X4.3845 Y18.1121
G01 X4.3859 Y18.0758
G01 X4.3880 Y18.0509
G01 X4.3934 Y18.0149
G01 X4.3986 Y17.9904
G01 X4.4078 Y17.9553
G01 X4.4196 Y17.9210
G01 X4.4289 Y17.8977
G01 X4.4445 Y17.8649
G01 X4.4565 Y17.8430
G01 X4.4755 Y17.8120
G01 X4.4852 Y17.7984
G01 X4.5019 Y17.7760
G01 X4.5180 Y17.7568
G01 X4.5427 Y17.7302
G01 X5.9136 Y16.3593
G01 X5.9257 Y16.3478
G01 X5.9529 Y16.3237
G01 X5.9660 Y16.3134
G01 X5.9955 Y16.2921
G01 X6.0096 Y16.2832
G01 X6.0409 Y16.2649
G01 X6.0558 Y16.2574
G01 X6.0812 Y16.2455
G01 X6.0966 Y16.2391
G01 X6.1308 Y16.2269
G01 X6.1468 Y16.2220
G01 X6.1820 Y16.2132
G01 X6.1984 Y16.2100
G01 X6.2343 Y16.2046
G01 X6.2509 Y16.2030
G01 X6.2872 Y16.2012
G01 X8.1198 Y16.2011
G01 X8.1266 Y16.1893
G01 X8.1669 Y16.1219
G01 X8.1758 Y16.1079
G01 X8.1855 Y16.0942
G01 X8.2322 Y16.0311
G01 X8.2425 Y16.0180
G01 X8.2534 Y16.0054
G01 X8.3061 Y15.9472
G01 X8.3176 Y15.9351
G01 X8.3297 Y15.9236
G01 X8.3879 Y15.8709
G01 X8.4005 Y15.8600
G01 X8.4137 Y15.8497
G01 X8.4835 Y15.7980
G01 X8.5045 Y15.7844
G01 X8.5718 Y15.7440
G01 X8.5863 Y15.7358
G01 X8.6012 Y15.7283
G01 X8.6722 Y15.6947
G01 X8.6875 Y15.6880
G01 X8.7030 Y15.6820
G01 X8.7769 Y15.6555
G01 X8.7928 Y15.6503
G01 X8.8089 Y15.6458
G01 X8.8850 Y15.6268
G01 X8.9095 Y15.6216
G01 X8.9954 Y15.6087
G01 X9.0120 Y15.6067
G01 X9.0286 Y15.6055
G01 X9.1070 Y15.6016
G01 X9.1237 Y15.6012
G01 X9.1404 Y15.6016
G01 X9.2188 Y15.6055
G01 X9.2355 Y15.6067
G01 X9.2520 Y15.6087
G01 X9.3297 Y15.6203
G01 X9.3461 Y15.6231
G01 X9.3624 Y15.6268
G01 X9.4386 Y15.6458
G01 X9.4517 Y15.6494
G01 X15.3511 Y9.7502
G01 X15.3717 Y9.7313
G01 X15.3844 Y9.7204
G01 X15.3975 Y9.7101
G01 X15.4270 Y9.6888
G01 X15.4579 Y9.6698
G01 X15.4724 Y9.6616
G01 X15.5051 Y9.6457
G01 X15.5203 Y9.6389
G01 X15.5359 Y9.6329
G01 X15.5702 Y9.6211
G01 X15.6054 Y9.6118
G01 X15.6217 Y9.6082
G01 X15.6381 Y9.6053
G01 X15.6741 Y9.6004
G01 X15.6907 Y9.5992
G01 X15.7270 Y9.5978
G00 Z2.0000
G00 X15.7270 Y9.4578
G01 F60.00
G01 Z-0.0200
G01 F120.00
G01 X19.7093 Y9.4578
G01 X19.6977 Y9.4363
G01 X19.6674 Y9.3724
G01 X19.6578 Y9.3509
G01 X19.6494 Y9.3289
G01 X19.6295 Y9.2735
G01 X19.6221 Y9.2511
G01 X19.6158 Y9.2284
G01 X19.6015 Y9.1713
G01 X19.5964 Y9.1483
G01 X19.5923 Y9.1251
G01 X19.5821 Y9.0552
G01 X19.5798 Y9.0317
G01 X19.5791 Y9.0200
G01 X19.5762 Y8.9612
G01 X19.5756 Y8.9376
G01 X19.5762 Y8.9140
G01 X19.5798 Y8.8435
G01 X19.5808 Y8.8317
G01 X19.5837 Y8.8084
G01 X19.5923 Y8.7501
G01 X19.5964 Y8.7269
G01 X19.6015 Y8.7039
G01 X19.6158 Y8.6468
G01 X19.6221 Y8.6241
G01 X19.6295 Y8.6017
G01 X19.6494 Y8.5463
G01 X19.6578 Y8.5243
G01 X19.6674 Y8.5028
G01 X19.6926 Y8.4495
G01 X19.7031 Y8.4285
G01 X19.7148 Y8.4080
G01 X19.7450 Y8.3575
G01 X19.7576 Y8.3376
G01 X19.7712 Y8.3183
G01 X19.8063 Y8.2710
G01 X19.8208 Y8.2525
G01 X19.8362 Y8.2346
G01 X19.8757 Y8.1910
G01 X19.8919 Y8.1739
G01 X19.9090 Y8.1577
G01 X19.9526 Y8.1181
G01 X19.9755 Y8.0987
G01 X19.9757 Y5.4170
G01 X19.9771 Y5.3856
G01 X19.9788 Y5.3621
G01 X19.9817 Y5.3388
G01 X19.9864 Y5.3077
G01 X19.9910 Y5.2846
G01 X19.9985 Y5.2541
G01 X20.0048 Y5.2314
G01 X20.0122 Y5.2090
G01 X20.0229 Y5.1795
G01 X20.0273 Y5.1685
G01 X20.0368 Y5.1470
G01 X20.0504 Y5.1187
G01 X20.0558 Y5.1082
G01 X20.0615 Y5.0979
G01 X20.0775 Y5.0709
G01 X20.0901 Y5.0510
G01 X20.0968 Y5.0412
G01 X20.1225 Y5.0065
G01 X20.1375 Y4.9883
G01 X20.1665 Y4.9563
G01 X21.8794 Y3.2432
G01 X21.8794 Y2.8000
G01 X21.8800 Y2.7764
G01 X21.8812 Y2.7525
G01 X21.8829 Y2.7290
G01 X21.8858 Y2.7056
G01 X21.8912 Y2.6703
G01 X21.8958 Y2.6472
G01 X21.8985 Y2.6358
G01 X21.9043 Y2.6126
G01 X21.9106 Y2.5899
G01 X21.9180 Y2.5675
G01 X21.9260 Y2.5450
G01 X21.9345 Y2.5230
G01 X21.9441 Y2.5014
G01 X21.9595 Y2.4692
G01 X21.9706 Y2.4485
G01 X21.9950 Y2.4077
G01 X22.0081 Y2.3881
G01 X22.0292 Y2.3594
G01 X22.0437 Y2.3408
G01 X22.0513 Y2.3318
G01 X22.0752 Y2.3052
G01 X22.0914 Y2.2882
G01 X22.1085 Y2.2719
G01 X22.1350 Y2.2481
G01 X22.1532 Y2.2331
G01 X22.1914 Y2.2048
G01 X22.2110 Y2.1917
G01 X22.2517 Y2.1673
G01 X22.2620 Y2.1617
G01 X22.2830 Y2.1511
G01 X22.3047 Y2.1408
G01 X22.3262 Y2.1313
G01 X22.3482 Y2.1228
G01 X22.3707 Y2.1148
G01 X22.3818 Y2.1109
G01 X22.4044 Y2.1041
G01 X22.4504 Y2.0925
G01 X22.4620 Y2.0901
G01 X22.4852 Y2.0861
G01 X22.5088 Y2.0826
G01 X22.5322 Y2.0797
G01 X22.5557 Y2.0780
G01 X22.5796 Y2.0768
G01 X22.6032 Y2.0762
G01 X23.5274 Y2.0763
G01 X23.5631 Y2.0780
G01 X23.5866 Y2.0797
G01 X23.6100 Y2.0826
G01 X23.6453 Y2.0880
G01 X23.6684 Y2.0925
G01 X23.7031 Y2.1011
G01 X23.7258 Y2.1074
G01 X23.7481 Y2.1148
G01 X23.7817 Y2.1269
G01 X23.8035 Y2.1359
G01 X23.8358 Y2.1511
G01 X23.8568 Y2.1617
G01 X23.8773 Y2.1733
G01 X23.8979 Y2.1856
G01 X23.9178 Y2.1982
G01 X23.9370 Y2.2117
G01 X23.9656 Y2.2331
G01 X23.9838 Y2.2481
G01 X24.0104 Y2.2719
G01 X24.0274 Y2.2882
G01 X24.0437 Y2.3052
G01 X24.0676 Y2.3318
G01 X24.0825 Y2.3500
G01 X24.1108 Y2.3881
G01 X24.1239 Y2.4077
G01 X24.1423 Y2.4383
G01 X24.1540 Y2.4588
G01 X24.1646 Y2.4798
G01 X24.1748 Y2.5014
G01 X24.1843 Y2.5230
G01 X24.1928 Y2.5450
G01 X24.2009 Y2.5675
G01 X24.2083 Y2.5899
G01 X24.2145 Y2.6126
G01 X24.2231 Y2.6472
G01 X24.2277 Y2.6703
G01 X24.2346 Y2.7173
G01 X24.2369 Y2.7407
G01 X24.2393 Y2.7882
G01 X24.2394 Y3.2874
G01 X24.2388 Y3.3110
G01 X24.2369 Y3.3467
G01 X24.2346 Y3.3701
G01 X24.2331 Y3.3818
G01 X24.2295 Y3.4054
G01 X24.2255 Y3.4286
G01 X24.2204 Y3.4516
G01 X24.2115 Y3.4862
G01 X24.2047 Y3.5088
G01 X24.1928 Y3.5424
G01 X24.1887 Y3.5535
G01 X24.1797 Y3.5752
G01 X24.1646 Y3.6076
G01 X24.1540 Y3.6286
G01 X24.1423 Y3.6491
G01 X24.1239 Y3.6797
G01 X24.1174 Y3.6895
G01 X24.1039 Y3.7088
G01 X24.0825 Y3.7374
G01 X24.0676 Y3.7556
G01 X24.0437 Y3.7822
G01 X24.0274 Y3.7992
G01 X24.0104 Y3.8155
G01 X23.9927 Y3.8315
G01 X23.9748 Y3.8469
G01 X23.9656 Y3.8543
G01 X23.9370 Y3.8757
G01 X23.9178 Y3.8892
G01 X23.8979 Y3.9018
G01 X23.8672 Y3.9201
G01 X23.8464 Y3.9312
G01 X23.8142 Y3.9466
G01 X23.8035 Y3.9515
G01 X23.7817 Y3.9605
G01 X23.7481 Y3.9726
G01 X23.7217 Y3.9812
G01 X23.7481 Y3.9898
G01 X23.7707 Y3.9978
G01 X23.7926 Y4.0063
G01 X23.8142 Y4.0158
G01 X23.8464 Y4.0312
G01 X23.8672 Y4.0423
G01 X23.9079 Y4.0667
G01 X23.9275 Y4.0798
G01 X23.9562 Y4.1010
G01 X23.9656 Y4.1081
G01 X23.9838 Y4.1231
G01 X24.0104 Y4.1469
G01 X24.0274 Y4.1632
G01 X24.0437 Y4.1802
G01 X24.0676 Y4.2068
G01 X24.0825 Y4.2250
G01 X24.1108 Y4.2631
G01 X24.1239 Y4.2827
G01 X24.1423 Y4.3133
G01 X24.1540 Y4.3338
G01 X24.1646 Y4.3548
G01 X24.1748 Y4.3764
G01 X24.1843 Y4.3980
G01 X24.1928 Y4.4200
G01 X24.2009 Y4.4425
G01 X24.2083 Y4.4649
G01 X24.2145 Y4.4876
G01 X24.2231 Y4.5222
G01 X24.2277 Y4.5453
G01 X24.2331 Y4.5806
G01 X24.2359 Y4.6040
G01 X24.2377 Y4.6275
G01 X24.2388 Y4.6514
G01 X24.2394 Y4.6750
G01 X24.2394 Y4.7886
G01 X25.5515 Y4.7886
G01 X25.5570 Y4.7719
G01 X25.5694 Y4.7378
G01 X25.5738 Y4.7268
G01 X25.5833 Y4.7053
G01 X25.5938 Y4.6831
G01 X25.6044 Y4.6621
G01 X25.6160 Y4.6416
G01 X25.6348 Y4.6105
G01 X25.6479 Y4.5909
G01 X25.6548 Y4.5814
G01 X25.6694 Y4.5617
G01 X25.6839 Y4.5431
G01 X25.6993 Y4.5253
G01 X25.7238 Y4.4984
G01 X25.7320 Y4.4900
G01 X25.7491 Y4.4738
G01 X25.7673 Y4.4573
G01 X25.7851 Y4.4419
G01 X25.8037 Y4.4274
G01 X25.8329 Y4.4059
G01 X25.8427 Y4.3992
G01 X25.8626 Y4.3866
G01 X25.8836 Y4.3740
G01 X25.9041 Y4.3624
G01 X25.9251 Y4.3518
G01 X25.9580 Y4.3364
G01 X25.9798 Y4.3274
G01 X25.9908 Y4.3233
G01 X26.0139 Y4.3150
G01 X26.0363 Y4.3076
G01 X26.0590 Y4.3014
G01 X26.0943 Y4.2927
G01 X26.1174 Y4.2881
G01 X26.1290 Y4.2862
G01 X26.1533 Y4.2826
G01 X26.1767 Y4.2797
G01 X26.2002 Y4.2780
G01 X26.2247 Y4.2768
G01 X26.2482 Y4.2762
G01 X27.4982 Y4.2762
G01 X27.5218 Y4.2768
G01 X27.5463 Y4.2780
G01 X27.5580 Y4.2787
G01 X27.5815 Y4.2810
G01 X27.6291 Y4.2881
G01 X27.6522 Y4.2927
G01 X27.6695 Y4.2969
G01 X27.6695 Y4.2518
G01 X27.1039 Y3.6862
G01 X26.2364 Y3.6861
G01 X26.2002 Y3.6844
G01 X26.1767 Y3.6827
G01 X26.1533 Y3.6798
G01 X26.1290 Y3.6762
G01 X26.1058 Y3.6722
G01 X26.0828 Y3.6670
G01 X26.0590 Y3.6610
G01 X26.0363 Y3.6548
G01 X26.0139 Y3.6474
G01 X25.9908 Y3.6391
G01 X25.9689 Y3.6306
G01 X25.9473 Y3.6211
G01 X25.9251 Y3.6106
G01 X25.9041 Y3.6000
G01 X25.8836 Y3.5884
G01 X25.8525 Y3.5696
G01 X25.8329 Y3.5565
G01 X25.7943 Y3.5279
G01 X25.7761 Y3.5129
G01 X25.7405 Y3.4806
G01 X25.7238 Y3.4640
G01 X25.6915 Y3.4283
G01 X25.6766 Y3.4101
G01 X25.6548 Y3.3810
G01 X25.6412 Y3.3618
G01 X25.6348 Y3.3519
G01 X25.6160 Y3.3208
G01 X25.6044 Y3.3003
G01 X25.5938 Y3.2793
G01 X25.5833 Y3.2571
G01 X25.5738 Y3.2356
G01 X25.5694 Y3.2246
G01 X25.5570 Y3.1905
G01 X25.5497 Y3.1681
G01 X25.5434 Y3.1454
G01 X25.5374 Y3.1216
G01 X25.5322 Y3.0986
G01 X25.5301 Y3.0870
G01 X25.5246 Y3.0511
G01 X25.5217 Y3.0278
G01 X25.5200 Y3.0043
G01 X25.5188 Y2.9798
G01 X25.5182 Y2.9562
G01 X25.5184 Y2.0194
G01 X25.5200 Y1.9831
G01 X25.5217 Y1.9596
G01 X25.5246 Y1.9363
G01 X25.5282 Y1.9120
G01 X25.5322 Y1.8888
G01 X25.5374 Y1.8658
G01 X25.5464 Y1.8306
G01 X25.5532 Y1.8081
G01 X25.5653 Y1.7738
G01 X25.5738 Y1.7518
G01 X25.5833 Y1.7303
