(G-CODE GENERATED BY FLATCAM v8.994 - www.flatcam.org - Version Date: 2020/11/7)

(Name: interface_up_left_side_arm-PTH.drl_cnc)
(Type: G-code from Geometry)
(Units: MM)

(Created on lundi, 06 juin 2022 at 12:59)

(This preprocessor is the default preprocessor used by FlatCAM.)
(It is made to work with MACH3 compatible motion controllers.)


(TOOLS DIAMETER: )
(Tool: 1 -> Dia: 0.9)
(Tool: 2 -> Dia: 0.95)
(Tool: 3 -> Dia: 1.0)
(Tool: 4 -> Dia: 2.0)
(Tool: 5 -> Dia: 3.2)

(FEEDRATE Z: )
(Tool: 1 -> Feedrate: 100.0)
(Tool: 2 -> Feedrate: 300)
(Tool: 3 -> Feedrate: 300)
(Tool: 4 -> Feedrate: 300)
(Tool: 5 -> Feedrate: 300)

(FEEDRATE RAPIDS: )
(Tool: 1 -> Feedrate Rapids: 1500)
(Tool: 2 -> Feedrate Rapids: 1500)
(Tool: 3 -> Feedrate Rapids: 1500)
(Tool: 4 -> Feedrate Rapids: 1500)
(Tool: 5 -> Feedrate Rapids: 1500)

(Z_CUT: )
(Tool: 1 -> Z_Cut: -1.8)
(Tool: 2 -> Z_Cut: -1.7)
(Tool: 3 -> Z_Cut: -1.7)
(Tool: 4 -> Z_Cut: -1.7)
(Tool: 5 -> Z_Cut: -1.7)

(Tools Offset: )
(Tool: 1 -> Offset Z: 0.0)

(Z_MOVE: )
(Tool: 1 -> Z_Move: 2)
(Tool: 2 -> Z_Move: 2)
(Tool: 3 -> Z_Move: 2)
(Tool: 4 -> Z_Move: 2)
(Tool: 5 -> Z_Move: 2)

(Z Toolchange: 15 mm)
(X,Y Toolchange: 0.0000, 0.0000 mm)
(Z Start: None mm)
(Z End: 0.5 mm)
(X,Y End: None mm)
(Steps per circle: 64)
(Preprocessor Excellon: default)

(X range:    1.1640 ...   89.1640  mm)
(Y range:    0.9570 ...   28.9570  mm)

(Spindle Speed: 1000 RPM)
G21
G90
G94

G01 F100.00

M5
G00 Z15.0000
T1
G00 X0.0000 Y0.0000                
M6
(MSG, Change to Tool Dia = 0.9000 ||| Total drills for tool T1 = 12)
M0
G00 Z15.0000

G01 F100.00
M03 S1000
G00 X9.1200 Y9.3270
G01 Z-1.8000
G01 Z0
G00 Z2.0000
G00 X20.7150 Y8.2240
G01 Z-1.8000
G01 Z0
G00 Z2.0000
G00 X29.9200 Y11.1300
G01 Z-1.8000
G01 Z0
G00 Z2.0000
G00 X43.4070 Y8.7190
G01 Z-1.8000
G01 Z0
G00 Z2.0000
G00 X56.4350 Y7.5100
G01 Z-1.8000
G01 Z0
G00 Z2.0000
G00 X76.5000 Y20.4890
G01 Z-1.8000
G01 Z0
G00 Z2.0000
G00 X74.5980 Y21.6910
G01 Z-1.8000
G01 Z0
G00 Z2.0000
G00 X63.7110 Y17.9790
G01 Z-1.8000
G01 Z0
G00 Z2.0000
G00 X51.5810 Y17.7380
G01 Z-1.8000
G01 Z0
G00 Z2.0000
G00 X34.4550 Y27.3100
G01 Z-1.8000
G01 Z0
G00 Z2.0000
G00 X27.7070 Y26.1010
G01 Z-1.8000
G01 Z0
G00 Z2.0000
G00 X18.7620 Y23.8270
G01 Z-1.8000
G01 Z0
G00 Z2.0000
M05
G00 Z0.50


